; generated by Slic3r 1.2.9 on 2015-12-28 at 18:58:31

; external perimeters extrusion width = 0.50mm
; perimeters extrusion width = 0.58mm
; infill extrusion width = 0.58mm
; solid infill extrusion width = 0.58mm
; top infill extrusion width = 0.58mm

M107
M104 S205 ; set temperature
G28 ; home all axes
G1 Z5 F5000 ; lift nozzle

M109 S205 ; wait for temperature to be reached
G21 ; set units to millimeters
G90 ; use absolute coordinates
M82 ; use absolute distances for extrusion
G92 E0
G1 Z0.500 F7800.000
G1 E-2.00000 F2400.00000
G92 E0
G1 X37.893 Y0.000 F7800.000
G1 E2.00000 F2400.00000
G1 X37.893 Y43.000 E4.71526 F1800.000
G1 X37.834 Y43.900 E4.77219
G1 X37.766 Y44.417 E4.80516
G1 X37.300 Y46.155 E4.91873
G1 X37.100 Y46.638 E4.95175
G1 X36.201 Y48.195 E5.06527
G1 X35.883 Y48.610 E5.09834
G1 X34.610 Y49.883 E5.21197
G1 X34.196 Y50.201 E5.24494
G1 X32.638 Y51.100 E5.35855
G1 X32.155 Y51.300 E5.39152
G1 X30.417 Y51.766 E5.50514
G1 X29.900 Y51.834 E5.53811
G1 X29.000 Y51.893 E5.59504
G1 X-29.000 Y51.893 E9.25748
G1 X-29.898 Y51.834 E9.31431
G1 X-30.417 Y51.766 E9.34739
G1 X-32.154 Y51.300 E9.46092
G1 X-32.638 Y51.100 E9.49398
G1 X-34.195 Y50.201 E9.60755
G1 X-34.610 Y49.883 E9.64056
G1 X-35.883 Y48.610 E9.75419
G1 X-36.200 Y48.196 E9.78716
G1 X-37.100 Y46.638 E9.90077
G1 X-37.300 Y46.155 E9.93375
G1 X-37.766 Y44.418 E10.04733
G1 X-37.834 Y43.900 E10.08034
G1 X-37.893 Y43.000 E10.13727
G1 X-37.893 Y-43.000 E15.56779
G1 X-37.834 Y-43.900 E15.62471
G1 X-37.766 Y-44.417 E15.65769
G1 X-37.300 Y-46.155 E15.77127
G1 X-37.100 Y-46.638 E15.80428
G1 X-36.200 Y-48.196 E15.91790
G1 X-35.883 Y-48.610 E15.95087
G1 X-34.611 Y-49.882 E16.06446
G1 X-34.196 Y-50.200 E16.09746
G1 X-32.638 Y-51.100 E16.21105
G1 X-32.155 Y-51.300 E16.24405
G1 X-30.417 Y-51.766 E16.35767
G1 X-29.900 Y-51.834 E16.39064
G1 X-29.000 Y-51.893 E16.44757
G1 X29.000 Y-51.893 E20.11001
G1 X29.900 Y-51.834 E20.16694
G1 X30.417 Y-51.766 E20.19991 F1800.000
G1 X32.155 Y-51.300 E20.31353
G1 X32.638 Y-51.100 E20.34650
G1 X34.196 Y-50.200 E20.46012
G1 X34.610 Y-49.883 E20.49309
G1 X35.883 Y-48.610 E20.60672
G1 X36.200 Y-48.196 E20.63969
G1 X37.100 Y-46.638 E20.75330
G1 X37.300 Y-46.155 E20.78627
G1 X37.766 Y-44.418 E20.89986
G1 X37.834 Y-43.900 E20.93286
G1 X37.893 Y-43.000 E20.98979
G1 X37.893 Y-0.075 E23.70032
G1 E21.70032 F2400.00000
G92 E0
G1 X23.401 Y35.253 F7800.000
G1 E2.00000 F2400.00000
G1 X24.162 Y35.135 E2.04867 F1800.000
G1 X24.408 Y35.096 E2.06436 F1800.000
G1 X25.421 Y35.206 E2.12874
G1 X26.372 Y35.573 E2.19310
G1 X27.195 Y36.175 E2.25747
G1 X27.835 Y36.968 E2.32183
G1 X28.247 Y37.901 E2.38620
G1 X28.404 Y38.908 E2.45057
G1 X28.294 Y39.921 E2.51493
G1 X27.927 Y40.872 E2.57930
G1 X27.325 Y41.695 E2.64367
G1 X26.532 Y42.335 E2.70803
G1 X25.599 Y42.747 E2.77240
G1 X24.592 Y42.904 E2.83676
G1 X23.579 Y42.794 E2.90113
G1 X22.628 Y42.427 E2.96550
G1 X21.805 Y41.825 E3.02986
G1 X21.165 Y41.032 E3.09423
G1 X20.753 Y40.099 E3.15860
G1 X20.596 Y39.092 E3.22296
G1 X20.706 Y38.079 E3.28733
G1 X21.073 Y37.128 E3.35170
G1 X21.675 Y36.305 E3.41606
G1 X22.468 Y35.665 E3.48043
G1 X23.332 Y35.284 E3.54006
G1 X23.654 Y36.117 F7800.000
G1 X24.300 Y36.017 E3.58131 F1800.000
G1 X24.429 Y35.997 E3.58958 F1800.000
G1 X25.209 Y36.081 E3.63911
G1 X25.940 Y36.363 E3.68863
G1 X26.574 Y36.826 E3.73816
G1 X27.066 Y37.437 E3.78768
G1 X27.383 Y38.154 E3.83720
G1 X27.503 Y38.929 E3.88673
G1 X27.419 Y39.709 E3.93625
G1 X27.137 Y40.440 E3.98578
G1 X26.674 Y41.074 E4.03530
G1 X26.063 Y41.566 E4.08482
G1 X25.346 Y41.883 E4.13435
G1 X24.571 Y42.003 E4.18387
G1 X23.791 Y41.919 E4.23340
G1 X23.060 Y41.637 E4.28292
G1 X22.426 Y41.174 E4.33244
G1 X21.934 Y40.563 E4.38197
G1 X21.617 Y39.846 E4.43149
G1 X21.497 Y39.071 E4.48102
G1 X21.581 Y38.291 E4.53054
G1 X21.863 Y37.560 E4.58006
G1 X22.326 Y36.926 E4.62959
G1 X22.937 Y36.434 E4.67911
G1 X23.586 Y36.148 E4.72390
G1 X23.793 Y35.637 F7800.000
G1 E2.72390 F2400.00000
G92 E0
G1 X28.008 Y38.917 F7800.000
G1 X28.952 Y39.940 F7800.000
G1 X28.747 Y41.134 F7800.000
G1 X28.661 Y41.472 F7800.000
G1 X28.345 Y41.813 F7800.000
G1 E2.00000 F2400.00000
G1 X28.715 Y41.933 E2.02454 F1800.000
G1 X28.715 Y42.715 E2.07389
G1 X27.686 Y42.715 E2.13882
G1 X28.301 Y41.873 E2.20462
G1 X-20.596 Y38.908 F7800.000
G1 X-20.706 Y39.921 E2.26899 F1800.000
G1 X-21.073 Y40.872 E2.33336
G1 X-21.675 Y41.695 E2.39772
G1 X-22.468 Y42.335 E2.46209
G1 X-23.401 Y42.747 E2.52645
G1 X-24.408 Y42.904 E2.59082
G1 X-25.421 Y42.794 E2.65519
G1 X-26.372 Y42.427 E2.71956
G1 X-27.195 Y41.825 E2.78392
G1 X-27.835 Y41.032 E2.84829
G1 X-28.247 Y40.099 E2.91265
G1 X-28.404 Y39.092 E2.97702
G1 X-28.294 Y38.079 E3.04139
G1 X-27.927 Y37.128 E3.10575
G1 X-27.325 Y36.305 E3.17012
G1 X-26.532 Y35.665 E3.23449
G1 X-25.599 Y35.253 E3.29885
G1 X-24.838 Y35.135 E3.34752
G1 X-24.592 Y35.096 E3.36322 F1800.000
G1 X-23.579 Y35.206 E3.42759
G1 X-22.628 Y35.573 E3.49195
G1 X-21.805 Y36.175 E3.55632
G1 X-21.165 Y36.968 E3.62069
G1 X-20.753 Y37.901 E3.68505
G1 X-20.608 Y38.834 E3.74468
G1 X-21.497 Y38.929 F7800.000
G1 X-21.581 Y39.709 E3.79421 F1800.000
G1 X-21.863 Y40.440 E3.84373
G1 X-22.326 Y41.074 E3.89325
G1 X-22.937 Y41.566 E3.94278
G1 X-23.654 Y41.883 E3.99230
G1 X-24.429 Y42.003 E4.04183
G1 X-25.209 Y41.919 E4.09135
G1 X-25.940 Y41.637 E4.14088
G1 X-26.574 Y41.174 E4.19040
G1 X-27.066 Y40.563 E4.23992
G1 X-27.383 Y39.846 E4.28945
G1 X-27.503 Y39.071 E4.33897
G1 X-27.419 Y38.291 E4.38849
G1 X-27.137 Y37.560 E4.43802
G1 X-26.674 Y36.926 E4.48754
G1 X-26.063 Y36.434 E4.53707
G1 X-25.346 Y36.117 E4.58659
G1 X-24.700 Y36.017 E4.62784
G1 X-24.571 Y35.997 E4.63611 F1800.000
G1 X-23.791 Y36.081 E4.68564
G1 X-23.060 Y36.363 E4.73516
G1 X-22.426 Y36.826 E4.78469
G1 X-21.934 Y37.437 E4.83421
G1 X-21.617 Y38.154 E4.88373
G1 X-21.508 Y38.855 E4.92852
G1 X-21.069 Y39.188 F7800.000
G1 E2.92852 F2400.00000
G92 E0
G1 X-24.417 Y42.508 F7800.000
G1 X-25.625 Y43.177 F7800.000
G1 X-26.809 Y42.937 F7800.000
G1 X-27.725 Y42.638 F7800.000
G1 X-27.625 Y42.715 F7800.000
G1 E2.00000 F2400.00000
G1 X-28.715 Y42.715 E2.06879 F1800.000
G1 X-28.715 Y41.932 E2.11821
G1 X-28.357 Y41.806 E2.14214
G1 X-27.672 Y42.656 E2.21108
G1 X-24.497 Y43.252 F7800.000
G1 X-16.428 Y39.409 F7800.000
G1 X-13.939 Y37.248 F7800.000
G1 X-13.939 Y34.684 F7800.000
G1 X-13.939 Y34.684 F7800.000
G1 X-13.939 Y33.769 F7800.000
G1 X-13.939 Y33.877 F7800.000
G1 X-14.454 Y34.648 E2.26962 F1800.000
G1 X-15.512 Y35.354 E2.34996
G1 X-16.760 Y35.603 E2.43030
G1 X-18.008 Y35.354 E2.51064
G1 X-19.066 Y34.648 E2.59098
G1 X-19.773 Y33.590 E2.67132
G1 X-19.976 Y32.567 E2.73717
G1 X-19.976 Y10.537 E4.12824
G1 X-19.773 Y9.515 E4.19409
G1 X-19.066 Y8.457 E4.27443
G1 X-18.008 Y7.750 E4.35477
G1 X-16.760 Y7.502 E4.43511
G1 X-15.512 Y7.750 E4.51545
G1 X-14.454 Y8.457 E4.59580
G1 X-13.939 Y9.227 E4.65433
G1 X-13.424 Y8.457 E4.71286
G1 X-12.366 Y7.750 E4.79321
G1 X-11.119 Y7.502 E4.87355
G1 X-9.871 Y7.750 E4.95389
G1 X-8.813 Y8.457 E5.03423
G1 X-8.298 Y9.227 E5.09276
G1 X-7.783 Y8.457 E5.15130
G1 X-6.725 Y7.750 E5.23164
G1 X-5.477 Y7.502 E5.31198
G1 X-4.229 Y7.750 E5.39232
G1 X-3.171 Y8.457 E5.47266
G1 X-2.656 Y9.227 E5.53120
G1 X-2.141 Y8.457 E5.58973
G1 X-1.083 Y7.750 E5.67008
G1 X0.164 Y7.502 E5.75042
G1 X1.412 Y7.750 E5.83076
G1 X2.470 Y8.457 E5.91110
G1 X2.985 Y9.227 E5.96963
G1 X3.500 Y8.457 E6.02817
G1 X4.558 Y7.750 E6.10851
G1 X5.806 Y7.502 E6.18885
G1 X7.054 Y7.750 E6.26919
G1 X8.112 Y8.457 E6.34953
G1 X8.627 Y9.227 E6.40807
G1 X9.142 Y8.457 E6.46660
G1 X10.200 Y7.750 E6.54694
G1 X11.447 Y7.502 E6.62728
G1 X12.695 Y7.750 E6.70762
G1 X13.753 Y8.457 E6.78796
G1 X14.268 Y9.227 E6.84650
G1 X14.783 Y8.457 E6.90503
G1 X15.841 Y7.750 E6.98538
G1 X17.089 Y7.502 E7.06572
G1 X18.337 Y7.750 E7.14606
G1 X19.395 Y8.457 E7.22640
G1 X20.102 Y9.515 E7.30674
G1 X20.305 Y10.537 E7.37259
G1 X20.305 Y32.567 E8.76366
G1 X20.102 Y33.590 E8.82951
G1 X19.395 Y34.648 E8.90985
G1 X18.337 Y35.354 E8.99019
G1 X17.089 Y35.603 E9.07053
G1 X15.841 Y35.354 E9.15087
G1 X14.783 Y34.648 E9.23121
G1 X14.268 Y33.877 E9.28975
G1 X13.753 Y34.648 E9.34828
G1 X12.695 Y35.354 E9.42863
G1 X11.447 Y35.603 E9.50896
G1 X10.200 Y35.354 E9.58930
G1 X9.142 Y34.648 E9.66965
G1 X8.627 Y33.877 E9.72818
G1 X8.112 Y34.648 E9.78672
G1 X7.054 Y35.354 E9.86706
G1 X5.806 Y35.603 E9.94740
G1 X4.558 Y35.354 E10.02774
G1 X3.500 Y34.648 E10.10808
G1 X2.985 Y33.877 E10.16661
G1 X2.470 Y34.648 E10.22515
G1 X1.412 Y35.354 E10.30549
G1 X0.164 Y35.603 E10.38583
G1 X-1.083 Y35.354 E10.46617
G1 X-2.141 Y34.648 E10.54651
G1 X-2.656 Y33.877 E10.60505
G1 X-3.171 Y34.648 E10.66358
G1 X-4.229 Y35.354 E10.74392
G1 X-5.477 Y35.603 E10.82426
G1 X-6.725 Y35.354 E10.90460
G1 X-7.783 Y34.648 E10.98495
G1 X-8.298 Y33.877 E11.04348
G1 X-8.813 Y34.648 E11.10202
G1 X-9.871 Y35.354 E11.18236
G1 X-11.119 Y35.603 E11.26270
G1 X-12.366 Y35.354 E11.34304
G1 X-13.424 Y34.648 E11.42338
G1 X-13.898 Y33.939 E11.47718
G1 X-0.792 Y39.099 F7800.000
G1 X8.627 Y37.248 F7800.000
G1 X8.627 Y33.769 F7800.000
G1 X8.627 Y33.291 F7800.000
G1 X8.627 Y32.617 F7800.000
G1 X9.517 Y32.440 F7800.000
G1 X9.124 Y32.479 F7800.000
G1 X9.124 Y10.625 E12.85715 F1800.000
G1 X9.276 Y9.863 E12.90623
G1 X9.785 Y9.100 E12.96415
G1 X10.548 Y8.591 E13.02206
G1 X11.131 Y8.475 E13.05962
G1 X11.447 Y8.412 E13.07998 F1800.000
G1 X12.347 Y8.591 E13.13789
G1 X13.110 Y9.100 E13.19581
G1 X13.619 Y9.863 E13.25372
G1 X13.771 Y10.625 E13.30281
G1 X13.771 Y32.479 E14.68278
G1 X13.619 Y33.241 E14.73186
G1 X13.110 Y34.004 E14.78977
G1 X12.347 Y34.513 E14.84769
G1 X11.447 Y34.692 E14.90560
G1 X10.548 Y34.513 E14.96352
G1 X9.785 Y34.004 E15.02143
G1 X9.276 Y33.241 E15.07935
G1 X9.139 Y32.553 E15.12370
G1 X10.017 Y32.391 F7800.000
G1 X10.017 Y10.713 E16.49256 F1800.000
G1 X10.117 Y10.211 E16.52488
G1 X10.429 Y9.744 E16.56037
G1 X10.896 Y9.432 E16.59586
G1 X11.305 Y9.350 E16.62221
G1 X11.447 Y9.322 E16.63135 F1800.000
G1 X11.999 Y9.432 E16.66684
G1 X12.466 Y9.744 E16.70233
G1 X12.778 Y10.211 E16.73782
G1 X12.878 Y10.713 E16.77014
G1 X12.878 Y32.391 E18.13901
G1 X12.778 Y32.893 E18.17133
G1 X12.466 Y33.360 E18.20682
G1 X11.999 Y33.673 E18.24231
G1 X11.447 Y33.782 E18.27780
G1 X10.896 Y33.673 E18.31328
G1 X10.429 Y33.360 E18.34878
G1 X10.117 Y32.893 E18.38427
G1 X10.031 Y32.465 E18.41185
G1 X9.568 Y32.170 F7800.000
G1 E16.41185 F2400.00000
G92 E0
G1 X13.378 Y32.440 F7800.000
G1 X14.268 Y32.440 F7800.000
G1 X14.268 Y32.440 F7800.000
G1 X15.158 Y32.440 F7800.000
G1 X14.766 Y32.391 F7800.000
G1 E2.00000 F2400.00000
G1 X14.766 Y10.625 E3.37442 F1800.000
G1 X14.917 Y9.863 E3.42350
G1 X15.427 Y9.100 E3.48141
G1 X16.189 Y8.591 E3.53933
G1 X16.773 Y8.475 E3.57689
G1 X17.089 Y8.412 E3.59725 F1800.000
G1 X17.989 Y8.591 E3.65516
G1 X18.751 Y9.100 E3.71308
G1 X19.261 Y9.863 E3.77099
G1 X19.412 Y10.625 E3.82008
G1 X19.412 Y32.479 E5.20005
G1 X19.261 Y33.241 E5.24913
G1 X18.751 Y34.004 E5.30704
G1 X17.989 Y34.513 E5.36496
G1 X17.089 Y34.692 E5.42287
G1 X16.189 Y34.513 E5.48079
G1 X15.427 Y34.004 E5.53871
G1 X14.917 Y33.241 E5.59662
G1 X14.766 Y32.466 E5.64650
G1 X15.658 Y32.391 F7800.000
G1 X15.658 Y10.713 E7.01537 F1800.000
G1 X15.758 Y10.211 E7.04769
G1 X16.070 Y9.744 E7.08318
G1 X16.538 Y9.432 E7.11867
G1 X16.947 Y9.350 E7.14501
G1 X17.089 Y9.322 E7.15416 F1800.000
G1 X17.640 Y9.432 E7.18965
G1 X18.108 Y9.744 E7.22514
G1 X18.420 Y10.211 E7.26063
G1 X18.520 Y10.713 E7.29295
G1 X18.520 Y32.391 E8.66181
G1 X18.420 Y32.893 E8.69413
G1 X18.108 Y33.360 E8.72962
G1 X17.640 Y33.673 E8.76511
G1 X17.089 Y33.782 E8.80060
G1 X16.538 Y33.673 E8.83609
G1 X16.070 Y33.360 E8.87158
G1 X15.758 Y32.893 E8.90707
G1 X15.673 Y32.465 E8.93465
G1 X15.210 Y32.170 F7800.000
G1 X15.158 Y32.440 F7800.000
G1 X10.491 Y39.099 F7800.000
G1 X8.627 Y34.684 F7800.000
G1 X8.627 Y33.291 F7800.000
G1 X8.627 Y32.617 F7800.000
G1 X7.737 Y32.440 F7800.000
G1 X8.129 Y32.391 F7800.000
G1 X8.129 Y32.479 E8.94020 F1800.000
G1 X7.978 Y33.241 E8.98929
G1 X7.468 Y34.004 E9.04720
G1 X6.705 Y34.513 E9.10512
G1 X5.806 Y34.692 E9.16303
G1 X4.906 Y34.513 E9.22095
G1 X4.144 Y34.004 E9.27886
G1 X3.634 Y33.241 E9.33678
G1 X3.483 Y32.479 E9.38586
G1 X3.483 Y10.625 E10.76583
G1 X3.634 Y9.863 E10.81492
G1 X4.144 Y9.100 E10.87283
G1 X4.906 Y8.591 E10.93075
G1 X5.490 Y8.475 E10.96830
G1 X5.806 Y8.412 E10.98866 F1800.000
G1 X6.706 Y8.591 E11.04658
G1 X7.468 Y9.100 E11.10449
G1 X7.978 Y9.863 E11.16241
G1 X8.129 Y10.625 E11.21149
G1 X8.129 Y32.316 E12.58117
G1 X7.237 Y32.391 F7800.000
G1 X7.137 Y32.893 E12.61349 F1800.000
G1 X6.825 Y33.360 E12.64898
G1 X6.357 Y33.673 E12.68447
G1 X5.806 Y33.782 E12.71996
G1 X5.255 Y33.673 E12.75545
G1 X4.787 Y33.360 E12.79094
G1 X4.475 Y32.893 E12.82643
G1 X4.375 Y32.391 E12.85875
G1 X4.375 Y10.713 E14.22762
G1 X4.475 Y10.211 E14.25993
G1 X4.787 Y9.744 E14.29543
G1 X5.255 Y9.432 E14.33092
G1 X5.664 Y9.350 E14.35726
G1 X5.806 Y9.322 E14.36640 F1800.000
G1 X6.357 Y9.432 E14.40189
G1 X6.825 Y9.744 E14.43739
G1 X7.137 Y10.211 E14.47288
G1 X7.237 Y10.713 E14.50519
G1 X7.237 Y32.316 E15.86932
G1 X7.633 Y32.695 F7800.000
G1 E13.86932 F2400.00000
G92 E0
G1 X3.875 Y32.440 F7800.000
G1 X2.985 Y32.440 F7800.000
G1 X2.095 Y32.440 F7800.000
G1 X2.488 Y32.391 F7800.000
G1 E2.00000 F2400.00000
G1 X2.488 Y32.479 E2.00555 F1800.000
G1 X2.336 Y33.241 E2.05464
G1 X1.827 Y34.004 E2.11255
G1 X1.064 Y34.513 E2.17047
G1 X0.164 Y34.692 E2.22838
G1 X-0.735 Y34.513 E2.28630
G1 X-1.498 Y34.004 E2.34421
G1 X-2.007 Y33.241 E2.40213
G1 X-2.159 Y32.479 E2.45121
G1 X-2.159 Y10.625 E3.83118
G1 X-2.007 Y9.863 E3.88026
G1 X-1.498 Y9.100 E3.93818
G1 X-0.735 Y8.591 E3.99609
G1 X-0.152 Y8.475 E4.03365
G1 X0.164 Y8.412 E4.05401 F1800.000
G1 X1.064 Y8.591 E4.11192
G1 X1.827 Y9.100 E4.16984
G1 X2.336 Y9.863 E4.22776
G1 X2.488 Y10.625 E4.27684
G1 X2.488 Y32.316 E5.64652
G1 X1.595 Y32.391 F7800.000
G1 X1.495 Y32.893 E5.67884 F1800.000
G1 X1.183 Y33.360 E5.71433
G1 X0.716 Y33.673 E5.74982
G1 X0.164 Y33.782 E5.78531
G1 X-0.387 Y33.673 E5.82080
G1 X-0.854 Y33.360 E5.85629
G1 X-1.166 Y32.893 E5.89178
G1 X-1.266 Y32.391 E5.92410
G1 X-1.266 Y10.713 E7.29296
G1 X-1.166 Y10.211 E7.32528
G1 X-0.854 Y9.744 E7.36077
G1 X-0.387 Y9.432 E7.39626
G1 X0.022 Y9.350 E7.42261
G1 X0.164 Y9.322 E7.43175 F1800.000
G1 X0.716 Y9.432 E7.46724
G1 X1.183 Y9.744 E7.50273
G1 X1.495 Y10.211 E7.53822
G1 X1.595 Y10.713 E7.57054
G1 X1.595 Y32.316 E8.93467
G1 X1.992 Y32.695 F7800.000
G1 E6.93467 F2400.00000
G92 E0
G1 X-1.766 Y32.440 F7800.000
G1 X-2.656 Y32.440 F7800.000
G1 X-2.656 Y32.440 F7800.000
G1 X-3.546 Y32.440 F7800.000
G1 X-3.154 Y32.391 F7800.000
G1 E2.00000 F2400.00000
G1 X-3.154 Y32.479 E2.00555 F1800.000
G1 X-3.305 Y33.241 E2.05464
G1 X-3.815 Y34.004 E2.11255
G1 X-4.578 Y34.513 E2.17047
G1 X-5.477 Y34.692 E2.22838
G1 X-6.377 Y34.513 E2.28630
G1 X-7.139 Y34.004 E2.34421
G1 X-7.649 Y33.241 E2.40213
G1 X-7.800 Y32.479 E2.45121
G1 X-7.800 Y10.625 E3.83118
G1 X-7.649 Y9.863 E3.88026
G1 X-7.139 Y9.100 E3.93818
G1 X-6.377 Y8.591 E3.99609
G1 X-5.793 Y8.475 E4.03365
G1 X-5.477 Y8.412 E4.05401 F1800.000
G1 X-4.578 Y8.591 E4.11192
G1 X-3.815 Y9.100 E4.16984
G1 X-3.305 Y9.863 E4.22776
G1 X-3.154 Y10.625 E4.27684
G1 X-3.154 Y32.316 E5.64652
G1 X-4.046 Y32.391 F7800.000
G1 X-4.146 Y32.893 E5.67884 F1800.000
G1 X-4.459 Y33.360 E5.71433
G1 X-4.926 Y33.673 E5.74982
G1 X-5.477 Y33.782 E5.78531
G1 X-6.028 Y33.673 E5.82080
G1 X-6.496 Y33.360 E5.85629
G1 X-6.808 Y32.893 E5.89178
G1 X-6.908 Y32.391 E5.92410
G1 X-6.908 Y10.713 E7.29296
G1 X-6.808 Y10.211 E7.32528
G1 X-6.496 Y9.744 E7.36077
G1 X-6.028 Y9.432 E7.39626
G1 X-5.619 Y9.350 E7.42260
G1 X-5.477 Y9.322 E7.43175 F1800.000
G1 X-4.926 Y9.432 E7.46724
G1 X-4.459 Y9.744 E7.50273
G1 X-4.146 Y10.211 E7.53822
G1 X-4.046 Y10.713 E7.57054
G1 X-4.046 Y32.316 E8.93467
G1 X-3.650 Y32.695 F7800.000
G1 E6.93467 F2400.00000
G92 E0
G1 X-7.408 Y32.440 F7800.000
G1 X-8.298 Y32.440 F7800.000
G1 X-8.298 Y32.440 F7800.000
G1 X-9.188 Y32.440 F7800.000
G1 X-8.795 Y32.391 F7800.000
G1 E2.00000 F2400.00000
G1 X-8.795 Y32.479 E2.00555 F1800.000
G1 X-8.947 Y33.241 E2.05464
G1 X-9.456 Y34.004 E2.11255
G1 X-10.219 Y34.513 E2.17047
G1 X-11.119 Y34.692 E2.22838
G1 X-12.018 Y34.513 E2.28630
