; generated by Slic3r 1.2.9 on 2016-02-24 at 08:46:39

; external perimeters extrusion width = 0.30mm
; perimeters extrusion width = 0.31mm
; infill extrusion width = 0.31mm
; solid infill extrusion width = 0.31mm
; top infill extrusion width = 0.31mm

M107
M104 S215 ; set temperature
G28 ; home all axes
G1 Z5 F5000 ; lift nozzle

M109 S215 ; wait for temperature to be reached
G21 ; set units to millimeters
G90 ; use absolute coordinates
M82 ; use absolute distances for extrusion
G92 E0
G1 E-2.00000 F2400.00000
G92 E0
G1 Z0.100 F7800.000
G1 X-0.977 Y11.087 F7800.000
G1 E2.00000 F2400.00000
G1 X-4.408 Y10.784 E2.03480 F1800.000
G1 X-19.144 Y9.269 E2.18447
G1 X-31.548 Y7.708 E2.31078
G1 X-41.765 Y6.007 E2.41543
G1 X-55.660 Y3.232 E2.55858
G1 X-57.719 Y2.416 E2.58096
G1 X-59.357 Y0.927 E2.60333
G1 X-60.366 Y-1.045 E2.62570
G1 X-60.614 Y-3.245 E2.64807
G1 X-60.071 Y-5.391 E2.67044
G1 X-58.806 Y-7.209 E2.69281
G1 X-56.982 Y-8.463 E2.71518
G1 X-54.805 Y-8.996 E2.73782
G1 X54.145 Y-15.267 E3.84040
G1 X56.343 Y-14.996 E3.86277
G1 X58.303 Y-13.968 E3.88514 F1800.000
G1 X59.776 Y-12.314 E3.90751
G1 X60.571 Y-10.247 E3.92988
G1 X60.679 Y-9.099 E3.94154
G1 X60.679 Y9.100 E4.12541
G1 X60.282 Y11.278 E4.14778
G1 X59.142 Y13.177 E4.17015
G1 X57.407 Y14.552 E4.19252
G1 X55.298 Y15.227 E4.21489
G1 X54.131 Y15.268 E4.22669
G1 X31.901 Y13.773 E4.45179
G1 X12.774 Y12.298 E4.64561
G1 X-0.932 Y11.091 E4.78462
G1 F6240
G1 X-4.408 Y10.784 E3.50950
G1 F6240
G1 X-6.109 Y10.609 E2.88462
G1 E2.78462 F2400.00000
G92 E0
G1 X31.210 Y1.214 F7800.000
G1 E2.00000 F2400.00000
G1 X31.057 Y0.390 E2.00846 F1800.000
G1 X31.091 Y-0.356 E2.01601
G1 X31.288 Y-1.089 E2.02368
G1 X31.638 Y-1.785 E2.03155
G1 X32.129 Y-2.423 E2.03969
G1 X32.737 Y-2.985 E2.04805
G1 X33.465 Y-3.478 E2.05693
G1 X34.562 Y-3.988 E2.06915
G1 X35.929 Y-4.353 E2.08345
G1 X37.359 Y-4.485 E2.09796 F1800.000
G1 X38.824 Y-4.378 E2.11280
G1 X40.203 Y-4.036 E2.12716
G1 X41.443 Y-3.475 E2.14090
G1 X42.480 Y-2.717 E2.15388
G1 X43.195 Y-1.889 E2.16494
G1 X43.625 Y-1.056 E2.17440
G1 X43.793 Y-0.444 E2.18081
G1 X43.849 Y0.179 E2.18714
G1 X43.751 Y0.993 E2.19542
G1 X43.462 Y1.777 E2.20387
G1 X42.988 Y2.515 E2.21273
G1 X42.368 Y3.161 E2.22177
G1 X41.605 Y3.722 E2.23134
G1 X40.723 Y4.180 E2.24137
G1 X39.429 Y4.605 E2.25514
G1 X37.864 Y4.822 E2.27111
G1 X36.285 Y4.754 E2.28707
G1 X34.749 Y4.400 E2.30299
G1 X33.390 Y3.781 E2.31808
G1 X32.284 Y2.932 E2.33217
G1 X31.609 Y2.085 E2.34311
G1 X31.229 Y1.255 E2.35234
G1 X31.391 Y1.181 F7800.000
G1 X31.237 Y0.378 E2.36060 F1800.000
G1 X31.269 Y-0.328 E2.36774
G1 X31.455 Y-1.025 E2.37503
G1 X31.790 Y-1.689 E2.38254
G1 X32.262 Y-2.303 E2.39036
G1 X32.848 Y-2.845 E2.39843
G1 X33.553 Y-3.322 E2.40703
G1 X34.623 Y-3.820 E2.41895
G1 X35.961 Y-4.177 E2.43294
G1 X37.361 Y-4.306 E2.44715 F1800.000
G1 X38.796 Y-4.201 E2.46168
G1 X40.144 Y-3.867 E2.47572
G1 X41.352 Y-3.320 E2.48912
G1 X42.358 Y-2.585 E2.50170
G1 X43.046 Y-1.788 E2.51234
G1 X43.457 Y-0.991 E2.52140
G1 X43.616 Y-0.412 E2.52746
G1 X43.670 Y0.177 E2.53344
G1 X43.577 Y0.950 E2.54131
G1 X43.301 Y1.697 E2.54935
G1 X42.847 Y2.404 E2.55784
G1 X42.250 Y3.026 E2.56655
G1 X41.510 Y3.570 E2.57583
G1 X40.654 Y4.015 E2.58558
G1 X39.388 Y4.430 E2.59904
G1 X37.855 Y4.643 E2.61467
G1 X36.309 Y4.576 E2.63031
G1 X34.807 Y4.230 E2.64588
G1 X33.483 Y3.627 E2.66058
G1 X32.410 Y2.803 E2.67425
G1 X31.762 Y1.991 E2.68475
G1 X31.410 Y1.221 E2.69330
G1 X31.572 Y1.147 F7800.000
G1 X31.416 Y0.366 E2.70135 F1800.000
G1 X31.446 Y-0.301 E2.70809
G1 X31.623 Y-0.961 E2.71500
G1 X31.942 Y-1.594 E2.72215
G1 X32.394 Y-2.182 E2.72965
G1 X32.959 Y-2.705 E2.73743
G1 X33.641 Y-3.166 E2.74575
G1 X34.684 Y-3.651 E2.75737
G1 X35.992 Y-4.001 E2.77105
G1 X37.363 Y-4.127 E2.78495 F1800.000
G1 X38.767 Y-4.024 E2.79918
G1 X40.086 Y-3.697 E2.81291
G1 X41.262 Y-3.165 E2.82595
G1 X42.236 Y-2.453 E2.83814
G1 X42.897 Y-1.687 E2.84836
G1 X43.290 Y-0.926 E2.85702
G1 X43.440 Y-0.380 E2.86273
G1 X43.490 Y0.174 E2.86836
G1 X43.402 Y0.908 E2.87583
G1 X43.140 Y1.617 E2.88346
G1 X42.706 Y2.293 E2.89158
G1 X42.132 Y2.892 E2.89996
G1 X41.416 Y3.418 E2.90894
G1 X40.585 Y3.849 E2.91840
G1 X39.348 Y4.256 E2.93155
G1 X37.847 Y4.464 E2.94686
G1 X36.333 Y4.398 E2.96217
G1 X34.865 Y4.060 E2.97739
G1 X33.575 Y3.473 E2.99171
G1 X32.536 Y2.675 E3.00495
G1 X31.915 Y1.897 E3.01501
G1 X31.591 Y1.188 E3.02288
G1 X31.282 Y1.073 F7800.000
G1 F6240
G1 X31.416 Y0.366 E2.71564
G1 F6240
G1 X31.446 Y-0.301 E2.47188
G1 F6240
G1 X31.623 Y-0.961 E2.22196
G1 F6240
G1 X31.942 Y-1.594 E1.96325
G1 F6240
G1 X32.394 Y-2.182 E1.69222
G1 F6240
G1 X32.959 Y-2.705 E1.41084
G1 F6240
G1 X33.612 Y-3.146 E1.12288
G1 E1.02288 F2400.00000
G92 E0
G1 X32.136 Y7.136 F7800.000
G1 E2.00000 F2400.00000
G1 X13.287 Y5.682 E2.19101 F1800.000
G1 X-3.733 Y4.183 E2.36363
G1 X-18.460 Y2.669 E2.51321
G1 X-30.709 Y1.125 E2.63794
G1 X-40.472 Y-0.502 E2.73794
G1 X-47.624 Y-1.950 E2.81167
G1 X-47.612 Y-2.049 E2.81267
G1 X-38.678 Y-1.915 E2.90294
G1 X-26.656 Y-2.120 E3.02442
G1 X-11.654 Y-2.796 E3.17614
G1 X5.988 Y-3.982 E3.35478
G1 X25.958 Y-5.687 E3.55728
G1 X47.905 Y-7.893 E3.78014
G1 X54.043 Y-8.587 E3.84255
G1 X54.043 Y8.611 E4.01630
G1 X32.181 Y7.139 E4.23768 F1800.000
G1 X32.167 Y7.317 F7800.000
G1 X13.272 Y5.860 E4.42915 F1800.000
G1 X-3.750 Y4.360 E4.60179
G1 X-18.481 Y2.846 E4.75141
G1 X-30.735 Y1.302 E4.87620
G1 X-40.505 Y-0.326 E4.97626
G1 X-49.881 Y-2.225 E5.07292
G1 X-49.869 Y-2.323 E5.07392
G1 X-47.416 Y-2.219 E5.09873
G1 X-38.678 Y-2.094 E5.18702
G1 X-26.662 Y-2.299 E5.30844
G1 X-11.664 Y-2.974 E5.46013
G1 X5.974 Y-4.160 E5.63873
G1 X25.941 Y-5.865 E5.84120
G1 X47.886 Y-8.070 E6.06403
G1 X54.221 Y-8.787 E6.12845
G1 X54.221 Y8.802 E6.30615
G1 X32.212 Y7.321 E6.52902 F1800.000
G1 X32.199 Y7.499 F7800.000
G1 X13.258 Y6.038 E6.72095 F1800.000
G1 X-3.767 Y4.538 E6.89362
G1 X-18.501 Y3.023 E7.04327
G1 X-30.761 Y1.479 E7.16812
G1 X-40.537 Y-0.151 E7.26825
G1 X-52.138 Y-2.500 E7.38784
G1 X-52.126 Y-2.598 E7.38884
G1 X-47.411 Y-2.397 E7.43653
G1 X-38.679 Y-2.272 E7.52476
G1 X-26.668 Y-2.477 E7.64613
G1 X-11.674 Y-3.152 E7.79777
G1 X5.960 Y-4.338 E7.97634
G1 X25.925 Y-6.043 E8.17877
G1 X47.867 Y-8.248 E8.40158
G1 X54.400 Y-8.987 E8.46801
G1 X54.400 Y8.993 E8.64966
G1 X32.243 Y7.502 E8.87402 F1800.000
G1 X32.068 Y7.229 F7800.000
G1 X-52.232 Y-2.561 F7800.000
G1 X-53.660 Y-2.733 E8.88855 F1800.000
G1 X-51.558 Y-2.479 F7800.000
G1 X-50.929 Y-2.403 E8.89495 F1800.000
G1 X-50.929 Y-2.403 F7800.000
G1 X-49.964 Y-2.285 E8.91578 F1800.000
G1 X-49.301 Y-2.204 F7800.000
G1 X-48.672 Y-2.128 E8.92218 F1800.000
G1 X-48.672 Y-2.128 F7800.000
G1 X-47.707 Y-2.010 E8.94300 F1800.000
G1 X-47.102 Y-1.941 F7800.000
G1 X-46.576 Y-1.885 E8.94835 F1800.000
G1 X-45.769 Y-1.798 E8.96573 F1800.000
G1 X-45.247 Y-1.573 F7800.000
G1 X-45.594 Y-1.920 E8.97070 F1800.000
G1 X-45.337 Y-1.916 E8.97329
G1 X-44.930 Y-1.509 E8.97912
G1 X-44.612 Y-1.445 E8.98240
G1 X-45.080 Y-1.912 E8.98910
G1 X-44.824 Y-1.909 E8.99169
G1 X-44.295 Y-1.380 E8.99926
G1 X-43.978 Y-1.316 E9.00253
G1 X-44.567 Y-1.905 E9.01097
G1 X-44.310 Y-1.901 E9.01356
G1 X-43.661 Y-1.252 E9.02286
G1 X-43.344 Y-1.188 E9.02614
G1 X-44.054 Y-1.898 E9.03630
G1 X-43.797 Y-1.894 E9.03890
G1 X-43.027 Y-1.123 E9.04993
G1 X-42.709 Y-1.059 E9.05321
G1 X-43.541 Y-1.890 E9.06510
G1 X-43.284 Y-1.887 E9.06770
G1 X-42.392 Y-0.995 E9.08047
G1 X-42.075 Y-0.931 E9.08374
G1 X-43.027 Y-1.883 E9.09737
G1 X-42.771 Y-1.879 E9.09997
G1 X-41.758 Y-0.866 E9.11447
G1 X-41.441 Y-0.802 E9.11775
G1 X-42.514 Y-1.876 E9.13311
G1 X-42.258 Y-1.872 E9.13571
G1 X-41.123 Y-0.738 E9.15194
G1 X-40.806 Y-0.674 E9.15522
G1 X-42.001 Y-1.868 E9.17231
G1 X-41.744 Y-1.865 E9.17491
G1 X-40.489 Y-0.610 E9.19288
G1 X-40.182 Y-0.556 E9.19603
G1 X-41.488 Y-1.861 E9.21472
G1 X-41.231 Y-1.857 E9.21731
G1 X-39.879 Y-0.505 E9.23667
G1 X-39.575 Y-0.454 E9.23979
G1 X-40.974 Y-1.854 E9.25981
G1 X-40.718 Y-1.850 E9.26241
G1 X-39.272 Y-0.404 E9.28311
G1 X-38.968 Y-0.353 E9.28623
G1 X-40.461 Y-1.846 E9.30760
G1 X-40.205 Y-1.843 E9.31020
G1 X-38.665 Y-0.303 E9.33224
G1 X-38.361 Y-0.252 E9.33535
G1 X-39.948 Y-1.839 E9.35807
G1 X-39.691 Y-1.835 E9.36067
G1 X-38.058 Y-0.201 E9.38405
G1 X-37.754 Y-0.151 E9.38717
G1 X-39.435 Y-1.832 E9.41122
G1 X-39.178 Y-1.828 E9.41382
G1 X-37.450 Y-0.100 E9.43855
G1 X-37.147 Y-0.050 E9.44167
G1 X-38.922 Y-1.824 E9.46707
G1 X-38.667 Y-1.822 E9.46965
G1 X-36.843 Y0.001 E9.49574
G1 X-36.540 Y0.052 E9.49886
G1 X-38.418 Y-1.826 E9.52574
G1 X-38.169 Y-1.831 E9.52825
G1 X-36.236 Y0.102 E9.55592
G1 X-35.933 Y0.153 E9.55903
G1 X-37.920 Y-1.835 E9.58748
G1 X-37.672 Y-1.839 E9.59000
G1 X-35.629 Y0.203 E9.61923
G1 X-35.326 Y0.254 E9.62235
G1 X-37.423 Y-1.843 E9.65237
G1 X-37.174 Y-1.848 E9.65488
G1 X-35.022 Y0.304 E9.68569
G1 X-34.719 Y0.355 E9.68880
G1 X-36.926 Y-1.852 E9.72039
G1 X-36.677 Y-1.856 E9.72291
G1 X-34.415 Y0.406 E9.75528
G1 X-34.112 Y0.456 E9.75840
G1 X-36.428 Y-1.860 E9.79156
G1 X-36.180 Y-1.865 E9.79407
G1 X-33.808 Y0.507 E9.82802
G1 X-33.505 Y0.557 E9.83113
G1 X-35.931 Y-1.869 E9.86586
G1 X-35.682 Y-1.873 E9.86838
G1 X-33.201 Y0.608 E9.90389
G1 X-32.898 Y0.659 E9.90700
G1 X-35.433 Y-1.877 E9.94330
G1 X-35.185 Y-1.882 E9.94582
G1 X-32.594 Y0.709 E9.98290
G1 X-32.290 Y0.760 E9.98602
G1 X-34.936 Y-1.886 E10.02389
G1 X-34.687 Y-1.890 E10.02640
G1 X-31.987 Y0.810 E10.06506
G1 X-31.683 Y0.861 E10.06817
G1 X-34.439 Y-1.894 E10.10761
G1 X-34.190 Y-1.899 E10.11013
G1 X-31.380 Y0.912 E10.15035
G1 X-31.076 Y0.962 E10.15346
G1 X-33.941 Y-1.903 E10.19447
G1 X-33.693 Y-1.907 E10.19699
G1 X-30.773 Y1.013 E10.23878
G1 X-30.478 Y1.055 E10.24180
G1 X-33.444 Y-1.911 E10.28425
G1 X-33.195 Y-1.916 E10.28677
G1 X-30.188 Y1.091 E10.32981
G1 X-29.899 Y1.128 E10.33276
G1 X-32.947 Y-1.920 E10.37638
G1 X-32.698 Y-1.924 E10.37890
G1 X-29.610 Y1.164 E10.42310
G1 X-29.320 Y1.201 E10.42605
G1 X-32.449 Y-1.928 E10.47084
G1 X-32.200 Y-1.933 E10.47335
G1 X-29.031 Y1.237 E10.51872
G1 X-28.741 Y1.274 E10.52167
G1 X-31.952 Y-1.937 E10.56763
G1 X-31.703 Y-1.941 E10.57014
G1 X-28.452 Y1.310 E10.61668
G1 X-28.163 Y1.346 E10.61963
G1 X-31.454 Y-1.945 E10.66675
G1 X-31.206 Y-1.950 E10.66926
G1 X-27.873 Y1.383 E10.71696
G1 X-27.584 Y1.419 E10.71991
G1 X-30.957 Y-1.954 E10.76820
G1 X-30.708 Y-1.958 E10.77071
G1 X-27.294 Y1.456 E10.81958
G1 X-27.005 Y1.492 E10.82253
G1 X-30.460 Y-1.962 E10.87198
G1 X-30.211 Y-1.967 E10.87449
G1 X-26.716 Y1.529 E10.92452
G1 X-26.426 Y1.565 E10.92748
G1 X-29.962 Y-1.971 E10.97809
G1 X-29.714 Y-1.975 E10.98061
G1 X-26.137 Y1.602 E11.03180
G1 X-25.847 Y1.638 E11.03475
G1 X-29.465 Y-1.979 E11.08653
G1 X-29.216 Y-1.983 E11.08905
G1 X-25.558 Y1.675 E11.14141
G1 X-25.269 Y1.711 E11.14436
G1 X-28.967 Y-1.988 E11.19730
G1 X-28.719 Y-1.992 E11.19982
G1 X-24.979 Y1.748 E11.25335
G1 X-24.690 Y1.784 E11.25630
G1 X-28.470 Y-1.996 E11.31041
G1 X-28.221 Y-2.000 E11.31293
G1 X-24.400 Y1.820 E11.36762
G1 X-24.111 Y1.857 E11.37057
G1 X-27.973 Y-2.005 E11.42584
G1 X-27.724 Y-2.009 E11.42836
G1 X-23.822 Y1.893 E11.48422
G1 X-23.532 Y1.930 E11.48717
G1 X-27.475 Y-2.013 E11.54361
G1 X-27.227 Y-2.017 E11.54612
G1 X-23.243 Y1.966 E11.60315
G1 X-22.953 Y2.003 E11.60610
G1 X-26.978 Y-2.022 E11.66370
G1 X-26.729 Y-2.026 E11.66622
G1 X-22.664 Y2.039 E11.72441
G1 X-22.375 Y2.076 E11.72736
G1 X-26.486 Y-2.036 E11.78621
G1 X-26.244 Y-2.047 E11.78866
G1 X-22.085 Y2.112 E11.84819
G1 X-21.796 Y2.149 E11.85114
G1 X-26.002 Y-2.058 E11.91135
G1 X-25.760 Y-2.068 E11.91380
G1 X-21.506 Y2.185 E11.97468
G1 X-21.217 Y2.222 E11.97763
G1 X-25.518 Y-2.079 E12.03920
G1 X-25.276 Y-2.090 E12.04165
G1 X-20.928 Y2.258 E12.10389
G1 X-20.638 Y2.294 E12.10684
G1 X-25.034 Y-2.101 E12.16976
G1 X-24.792 Y-2.112 E12.17221
G1 X-20.349 Y2.331 E12.23580
G1 X-20.059 Y2.367 E12.23876
G1 X-24.550 Y-2.123 E12.30303
G1 X-24.308 Y-2.134 E12.30548
G1 X-19.770 Y2.404 E12.37043
G1 X-19.481 Y2.440 E12.37338
G1 X-24.066 Y-2.145 E12.43901
G1 X-23.824 Y-2.156 E12.44146
G1 X-19.191 Y2.477 E12.50777
G1 X-18.902 Y2.513 E12.51072
G1 X-23.582 Y-2.167 E12.57771
G1 X-23.340 Y-2.177 E12.58016
G1 X-18.612 Y2.550 E12.64782
G1 X-18.325 Y2.584 E12.65075
G1 X-23.098 Y-2.188 E12.71906
G1 X-22.855 Y-2.199 E12.72151
G1 X-18.043 Y2.613 E12.79039
G1 X-17.761 Y2.642 E12.79326
G1 X-22.613 Y-2.210 E12.86271
G1 X-22.371 Y-2.221 E12.86516
G1 X-17.479 Y2.671 E12.93518
G1 X-17.197 Y2.700 E12.93805
G1 X-22.129 Y-2.232 E13.00864
G1 X-21.887 Y-2.243 E13.01110
G1 X-16.916 Y2.729 E13.08226
G1 X-16.634 Y2.758 E13.08513
G1 X-21.645 Y-2.254 E13.15686
G1 X-21.403 Y-2.265 E13.15931
G1 X-16.352 Y2.787 E13.23162
G1 X-16.070 Y2.816 E13.23449
G1 X-21.161 Y-2.276 E13.30736
G1 X-20.919 Y-2.286 E13.30981
G1 X-15.788 Y2.845 E13.38326
G1 X-15.506 Y2.874 E13.38613
G1 X-20.677 Y-2.297 E13.46015
G1 X-20.435 Y-2.308 E13.46260
G1 X-15.224 Y2.903 E13.53719
G1 X-14.942 Y2.932 E13.54006
G1 X-20.193 Y-2.319 E13.61522
G1 X-19.951 Y-2.330 E13.61767
G1 X-14.660 Y2.961 E13.69340
G1 X-14.378 Y2.990 E13.69627
G1 X-19.709 Y-2.341 E13.77257
G1 X-19.467 Y-2.352 E13.77502
G1 X-14.096 Y3.019 E13.85189
G1 X-13.814 Y3.048 E13.85476
G1 X-19.225 Y-2.363 E13.93220
G1 X-18.983 Y-2.374 E13.93465
G1 X-13.532 Y3.077 E14.01267
G1 X-13.251 Y3.106 E14.01554
G1 X-18.741 Y-2.385 E14.09412
G1 X-18.499 Y-2.395 E14.09657
G1 X-12.969 Y3.135 E14.17573
G1 X-12.687 Y3.164 E14.17860
G1 X-18.257 Y-2.406 E14.25832
G1 X-18.015 Y-2.417 E14.26077
G1 X-12.405 Y3.193 E14.34107
G1 X-12.123 Y3.222 E14.34394
G1 X-17.773 Y-2.428 E14.42481
G1 X-17.531 Y-2.439 E14.42726
G1 X-11.841 Y3.251 E14.50870
G1 X-11.559 Y3.280 E14.51157
G1 X-17.289 Y-2.450 E14.59358
G1 X-17.046 Y-2.461 E14.59603
G1 X-11.277 Y3.309 E14.67861
G1 X-10.995 Y3.338 E14.68148
G1 X-16.804 Y-2.472 E14.76463
G1 X-16.562 Y-2.483 E14.76708
G1 X-10.713 Y3.367 E14.85080
G1 X-10.431 Y3.396 E14.85367
G1 X-16.320 Y-2.494 E14.93796
G1 X-16.078 Y-2.504 E14.94042
G1 X-10.149 Y3.425 E15.02528
G1 X-9.867 Y3.453 E15.02815
G1 X-15.836 Y-2.515 E15.11358
G1 X-15.594 Y-2.526 E15.11604
G1 X-9.586 Y3.482 E15.20204
G1 X-9.304 Y3.511 E15.20491
G1 X-15.352 Y-2.537 E15.29149
G1 X-15.110 Y-2.548 E15.29394
G1 X-9.022 Y3.540 E15.38109
G1 X-8.740 Y3.569 E15.38395
G1 X-14.868 Y-2.559 E15.47167
G1 X-14.626 Y-2.570 E15.47412
G1 X-8.458 Y3.598 E15.56241
G1 X-8.176 Y3.627 E15.56528
G1 X-14.384 Y-2.581 E15.65414
G1 X-14.142 Y-2.592 E15.65659
G1 X-7.894 Y3.656 E15.74602
G1 X-7.612 Y3.685 E15.74889
G1 X-13.900 Y-2.603 E15.83889
G1 X-13.658 Y-2.613 E15.84135
G1 X-7.330 Y3.714 E15.93192
G1 X-7.048 Y3.743 E15.93479
G1 X-13.416 Y-2.624 E16.02593
G1 X-13.174 Y-2.635 E16.02838
G1 X-6.766 Y3.772 E16.12010
G1 X-6.484 Y3.801 E16.12297
G1 X-12.932 Y-2.646 E16.21525
G1 X-12.690 Y-2.657 E16.21770
G1 X-6.202 Y3.830 E16.31056
G1 X-5.920 Y3.859 E16.31343
G1 X-12.448 Y-2.668 E16.40685
G1 X-12.206 Y-2.679 E16.40931
G1 X-5.639 Y3.888 E16.50330
G1 X-5.357 Y3.917 E16.50617
G1 X-11.964 Y-2.690 E16.60074
G1 X-11.722 Y-2.701 E16.60319
G1 X-5.075 Y3.946 E16.69833
G1 X-4.793 Y3.975 E16.70120
G1 X-11.484 Y-2.716 E16.79697
G1 X-11.247 Y-2.732 E16.79938
G1 X-4.511 Y4.004 E16.89579
G1 X-4.229 Y4.033 E16.89866
G1 X-11.010 Y-2.748 E16.99571
G1 X-10.773 Y-2.764 E16.99812
G1 X-3.947 Y4.062 E17.09582
G1 X-3.665 Y4.091 E17.09868
G1 X-10.536 Y-2.779 E17.19702
G1 X-10.299 Y-2.795 E17.19943
G1 X-3.388 Y4.115 E17.29834
G1 X-3.111 Y4.140 E17.30116
G1 X-10.062 Y-2.811 E17.40066
G1 X-9.825 Y-2.827 E17.40306
G1 X-2.833 Y4.164 E17.50313
G1 X-2.556 Y4.189 E17.50595
G1 X-9.588 Y-2.843 E17.60660
G1 X-9.351 Y-2.859 E17.60900
G1 X-2.278 Y4.213 E17.71023
G1 X-2.001 Y4.238 E17.71305
G1 X-9.114 Y-2.875 E17.81485
G1 X-8.877 Y-2.891 E17.81726
G1 X-1.724 Y4.262 E17.91964
G1 X-1.446 Y4.286 E17.92246
G1 X-8.640 Y-2.907 E18.02542
G1 X-8.403 Y-2.923 E18.02783
G1 X-1.169 Y4.311 E18.13136
G1 X-0.892 Y4.335 E18.13418
G1 X-8.166 Y-2.939 E18.23830
G1 X-7.929 Y-2.955 E18.24070
G1 X-0.614 Y4.360 E18.34540
G1 X-0.337 Y4.384 E18.34822
G1 X-7.692 Y-2.971 E18.45349
G1 X-7.455 Y-2.987 E18.45589
G1 X-0.059 Y4.409 E18.56174
G1 X0.218 Y4.433 E18.56456
G1 X-7.218 Y-3.002 E18.67099
G1 X-6.981 Y-3.018 E18.67339
G1 X0.495 Y4.457 E18.78040
G1 X0.773 Y4.482 E18.78321
G1 X-6.744 Y-3.034 E18.89080
