; generated by Slic3r 1.2.9 on 2016-01-10 at 13:44:04

; external perimeters extrusion width = 0.40mm
; perimeters extrusion width = 0.67mm
; infill extrusion width = 0.67mm
; solid infill extrusion width = 0.67mm
; top infill extrusion width = 0.67mm

M107
M104 S210 ; set temperature
G28 ; home all axes
G1 Z5 F5000 ; lift nozzle
M109 S210 ; wait for temperature to be reached
G21 ; set units to millimeters
G90 ; use absolute coordinates
M82 ; use absolute distances for extrusion
G92 E0
G1 Z0.300 F6000.000
G1 E-1.00000 F2400.00000
G92 E0
G1 X10.788 Y-0.987 F6000.000
G1 E1.00000 F2400.00000
G1 X10.832 Y-0.215 E1.04040 F6000.000
G1 X10.832 Y0.215 E1.06288
G1 X10.788 Y0.999 E1.10390
G1 X10.740 Y1.426 E1.12637
G1 X10.608 Y2.201 E1.16740
G1 X10.512 Y2.620 E1.18988
G1 X10.295 Y3.375 E1.23089
G1 X10.153 Y3.781 E1.25337
G1 X9.852 Y4.506 E1.29438
G1 X9.666 Y4.894 E1.31687
G1 X9.292 Y5.570 E1.35726
G1 X9.057 Y5.945 E1.38036
G1 X8.603 Y6.585 E1.42137
G1 X8.334 Y6.922 E1.44386
G1 X7.811 Y7.507 E1.48488
G1 X7.507 Y7.811 E1.50735
G1 X6.922 Y8.334 E1.54836
G1 X6.585 Y8.603 E1.57085
G1 X5.945 Y9.057 E1.61186
G1 X5.581 Y9.286 E1.63435
G1 X4.893 Y9.666 E1.67536
G1 X4.506 Y9.852 E1.69784
G1 X3.791 Y10.148 E1.73824
G1 X3.374 Y10.295 E1.76134
G1 X2.620 Y10.512 E1.80235
G1 X2.201 Y10.608 E1.82483
G1 X1.427 Y10.740 E1.86584
G1 X0.999 Y10.788 E1.88833
G1 X0.215 Y10.832 E1.92934
G1 X-0.215 Y10.832 E1.95183
G1 X-0.999 Y10.788 E1.99284
G1 X-1.427 Y10.740 E2.01532
G1 X-2.201 Y10.608 E2.05635
G1 X-2.620 Y10.512 E2.07882
G1 X-3.374 Y10.295 E2.11983
G1 X-3.781 Y10.153 E2.14232
G1 X-4.506 Y9.852 E2.18333
G1 X-4.894 Y9.666 E2.20581
G1 X-5.581 Y9.286 E2.24682
G1 X-5.945 Y9.057 E2.26931
G1 X-6.585 Y8.603 E2.31032
G1 X-6.922 Y8.334 E2.33280
G1 X-7.507 Y7.811 E2.37382
G1 X-7.811 Y7.507 E2.39629
G1 X-8.334 Y6.922 E2.43731
G1 X-8.603 Y6.585 E2.45979
G1 X-9.057 Y5.945 E2.50081
G1 X-9.286 Y5.581 E2.52329
G1 X-9.666 Y4.894 E2.56430
G1 X-9.852 Y4.506 E2.58679
G1 X-10.153 Y3.780 E2.62781
G1 X-10.295 Y3.374 E2.65028
G1 X-10.512 Y2.620 E2.69129
G1 X-10.608 Y2.200 E2.71378
G1 X-10.740 Y1.426 E2.75481
G1 X-10.788 Y0.999 E2.77727
G1 X-10.832 Y0.215 E2.81831
G1 X-10.832 Y-0.215 E2.84075
G1 X-10.788 Y-0.999 E2.88179
G1 X-10.740 Y-1.427 E2.90427
G1 X-10.608 Y-2.201 E2.94529
G1 X-10.512 Y-2.620 E2.96777
G1 X-10.295 Y-3.374 E3.00878
G1 X-10.153 Y-3.781 E3.03126
G1 X-9.852 Y-4.506 E3.07228
G1 X-9.666 Y-4.893 E3.09475
G1 X-9.286 Y-5.581 E3.13577
G1 X-9.057 Y-5.945 E3.15826
G1 X-8.603 Y-6.585 E3.19927
G1 X-8.334 Y-6.922 E3.22175
G1 X-7.811 Y-7.507 E3.26276
G1 X-7.507 Y-7.811 E3.28525
G1 X-6.922 Y-8.334 E3.32626
G1 X-6.585 Y-8.603 E3.34874
G1 X-5.945 Y-9.057 E3.38976
G1 X-5.581 Y-9.286 E3.41224
G1 X-4.894 Y-9.666 E3.45325
G1 X-4.506 Y-9.852 E3.47573
G1 X-3.781 Y-10.153 E3.51675
G1 X-3.363 Y-10.298 E3.53983
G1 X-2.620 Y-10.512 E3.58024
G1 X-2.200 Y-10.608 E3.60273
G1 X-1.427 Y-10.740 E3.64374
G1 X-0.999 Y-10.788 E3.66622
G1 X-0.215 Y-10.832 E3.70724
G1 X0.215 Y-10.832 E3.72972
G1 X0.999 Y-10.788 E3.77073
G1 X1.427 Y-10.740 E3.79321
G1 X2.201 Y-10.608 E3.83423
G1 X2.620 Y-10.512 E3.85671
G1 X3.375 Y-10.295 E3.89774
G1 X3.781 Y-10.153 E3.92021
G1 X4.506 Y-9.852 E3.96122
G1 X4.894 Y-9.666 E3.98370
G1 X5.581 Y-9.286 E4.02471
G1 X5.945 Y-9.057 E4.04720
G1 X6.585 Y-8.603 E4.08821
G1 X6.922 Y-8.334 E4.11070
G1 X7.507 Y-7.811 E4.15171
G1 X7.811 Y-7.507 E4.17419
G1 X8.334 Y-6.922 E4.21520
G1 X8.603 Y-6.585 E4.23769
G1 X9.057 Y-5.945 E4.27871
G1 X9.286 Y-5.581 E4.30118
G1 X9.666 Y-4.893 E4.34221
G1 X9.852 Y-4.506 E4.36468
G1 X10.153 Y-3.781 E4.40569
G1 X10.295 Y-3.375 E4.42817
G1 X10.512 Y-2.620 E4.46918
G1 X10.608 Y-2.200 E4.49168
G1 X10.740 Y-1.426 E4.53269
G1 X10.782 Y-1.047 E4.55265
G1 X10.370 Y-0.964 F6000.000
G1 X10.413 Y-0.192 E4.59305 F6000.000
G1 X10.413 Y0.192 E4.61309
G1 X10.369 Y0.975 E4.65410
G1 X10.327 Y1.356 E4.67412
G1 X10.195 Y2.130 E4.71515
G1 X10.110 Y2.504 E4.73518
G1 X9.892 Y3.259 E4.77619
G1 X9.766 Y3.620 E4.79621
G1 X9.465 Y4.345 E4.83722
G1 X9.299 Y4.691 E4.85725
G1 X8.925 Y5.368 E4.89765
G1 X8.715 Y5.703 E4.91829
G1 X8.261 Y6.343 E4.95930
G1 X8.022 Y6.643 E4.97934
G1 X7.499 Y7.228 E5.02035
G1 X7.228 Y7.499 E5.04038
G1 X6.643 Y8.022 E5.08139
G1 X6.343 Y8.261 E5.10142
G1 X5.703 Y8.715 E5.14243
G1 X5.378 Y8.919 E5.16246
G1 X4.691 Y9.299 E5.20348
G1 X4.346 Y9.465 E5.22351
G1 X3.631 Y9.761 E5.26390
G1 X3.258 Y9.892 E5.28455
G1 X2.504 Y10.110 E5.32556
G1 X2.130 Y10.195 E5.34559
G1 X1.356 Y10.327 E5.38660
G1 X0.975 Y10.369 E5.40663
G1 X0.192 Y10.414 E5.44764
G1 X-0.192 Y10.414 E5.46767
G1 X-0.975 Y10.369 E5.50868
G1 X-1.356 Y10.327 E5.52871
G1 X-2.131 Y10.195 E5.56974
G1 X-2.504 Y10.110 E5.58976
G1 X-3.258 Y9.892 E5.63077
G1 X-3.620 Y9.766 E5.65080
G1 X-4.346 Y9.465 E5.69181
G1 X-4.691 Y9.299 E5.71184
G1 X-5.378 Y8.919 E5.75285
G1 X-5.703 Y8.715 E5.77288
G1 X-6.343 Y8.261 E5.81390
G1 X-6.643 Y8.022 E5.83392
G1 X-7.228 Y7.499 E5.87494
G1 X-7.499 Y7.228 E5.89496
G1 X-8.022 Y6.643 E5.93598
G1 X-8.261 Y6.343 E5.95601
G1 X-8.715 Y5.703 E5.99702
G1 X-8.919 Y5.378 E6.01705
G1 X-9.299 Y4.691 E6.05806
G1 X-9.465 Y4.346 E6.07809
G1 X-9.766 Y3.620 E6.11912
G1 X-9.892 Y3.258 E6.13913
G1 X-10.110 Y2.504 E6.18014
G1 X-10.195 Y2.130 E6.20018
G1 X-10.327 Y1.356 E6.24120
G1 X-10.369 Y0.975 E6.26122
G1 X-10.414 Y0.191 E6.30225
G1 X-10.414 Y-0.191 E6.32224
G1 X-10.369 Y-0.975 E6.36327
G1 X-10.327 Y-1.356 E6.38330
G1 X-10.195 Y-2.131 E6.42432
G1 X-10.110 Y-2.504 E6.44435
G1 X-9.892 Y-3.258 E6.48536
G1 X-9.766 Y-3.620 E6.50539
G1 X-9.465 Y-4.346 E6.54640
G1 X-9.299 Y-4.691 E6.56642
G1 X-8.919 Y-5.378 E6.60744
G1 X-8.715 Y-5.703 E6.62747
G1 X-8.261 Y-6.343 E6.66849
G1 X-8.022 Y-6.643 E6.68851
G1 X-7.499 Y-7.228 E6.72953
G1 X-7.228 Y-7.499 E6.74955
G1 X-6.642 Y-8.022 E6.79057
G1 X-6.343 Y-8.261 E6.81060
G1 X-5.703 Y-8.715 E6.85161
G1 X-5.378 Y-8.919 E6.87164
G1 X-4.691 Y-9.299 E6.91265
G1 X-4.346 Y-9.465 E6.93268
G1 X-3.620 Y-9.766 E6.97369
G1 X-3.247 Y-9.896 E6.99432
G1 X-2.504 Y-10.110 E7.03473
G1 X-2.130 Y-10.195 E7.05476
G1 X-1.356 Y-10.327 E7.09578
G1 X-0.975 Y-10.369 E7.11581
G1 X-0.192 Y-10.414 E7.15682
G1 X0.192 Y-10.414 E7.17685
G1 X0.975 Y-10.369 E7.21786
G1 X1.356 Y-10.327 E7.23789
G1 X2.130 Y-10.195 E7.27890
G1 X2.504 Y-10.110 E7.29893
G1 X3.259 Y-9.892 E7.33996
G1 X3.620 Y-9.766 E7.35997
G1 X4.346 Y-9.465 E7.40099
G1 X4.691 Y-9.299 E7.42101
G1 X5.378 Y-8.919 E7.46203
G1 X5.703 Y-8.715 E7.48206
G1 X6.343 Y-8.261 E7.52307
G1 X6.643 Y-8.022 E7.54310
G1 X7.228 Y-7.499 E7.58411
G1 X7.499 Y-7.228 E7.60414
G1 X8.022 Y-6.643 E7.64515
G1 X8.261 Y-6.343 E7.66519
G1 X8.715 Y-5.703 E7.70620
G1 X8.919 Y-5.378 E7.72623
G1 X9.299 Y-4.691 E7.76725
G1 X9.465 Y-4.345 E7.78727
G1 X9.766 Y-3.620 E7.82828
G1 X9.892 Y-3.259 E7.84830
G1 X10.110 Y-2.504 E7.88931
G1 X10.195 Y-2.130 E7.90936
G1 X10.327 Y-1.356 E7.95037
G1 X10.364 Y-1.024 E7.96786
G1 E6.96786 F2400.00000
G92 E0
G1 X0.798 Y-1.922 F6000.000
G1 E1.00000 F2400.00000
G1 X1.224 Y-1.683 E1.02555 F6000.000
G1 X1.583 Y-1.351 E1.05109
G1 X1.855 Y-0.944 E1.07664
G1 X2.024 Y-0.486 E1.10219
G1 X2.081 Y-0.005 E1.12745
G1 X2.039 Y0.409 E1.14921
G1 X1.918 Y0.807 E1.17098
G1 X1.680 Y1.229 E1.19624
G1 X1.347 Y1.587 E1.22178
G1 X0.940 Y1.857 E1.24733
G1 X0.480 Y2.025 E1.27288
G1 X-0.005 Y2.081 E1.29843
G1 X-0.491 Y2.023 E1.32397
G1 X-0.949 Y1.852 E1.34952
G1 X-1.355 Y1.580 E1.37507
G1 X-1.686 Y1.220 E1.40061
G1 X-1.924 Y0.793 E1.42616
G1 X-2.056 Y0.322 E1.45171
G1 X-2.075 Y-0.167 E1.47726
G1 X-1.978 Y-0.646 E1.50280
G1 X-1.773 Y-1.090 E1.52835
G1 X-1.470 Y-1.474 E1.55390
G1 X-1.085 Y-1.776 E1.57945
G1 X-0.641 Y-1.980 E1.60499
G1 X-0.192 Y-2.069 E1.62891
G1 X0.323 Y-2.057 E1.65580
G1 X0.740 Y-1.939 E1.67846
G1 X0.652 Y-1.571 F6000.000
G1 X1.001 Y-1.376 E1.69520 F6000.000
G1 X1.294 Y-1.104 E1.71193
G1 X1.516 Y-0.772 E1.72866
G1 X1.654 Y-0.397 E1.74540
G1 X1.701 Y-0.002 E1.76205
G1 X1.668 Y0.335 E1.77620
G1 X1.569 Y0.658 E1.79035
G1 X1.373 Y1.004 E1.80701
G1 X1.101 Y1.297 E1.82374
G1 X0.768 Y1.518 E1.84047
G1 X0.393 Y1.655 E1.85720
G1 X-0.004 Y1.701 E1.87394
G1 X-0.401 Y1.653 E1.89067
G1 X-0.776 Y1.514 E1.90741
G1 X-1.108 Y1.291 E1.92414
G1 X-1.378 Y0.997 E1.94087
G1 X-1.573 Y0.648 E1.95760
G1 X-1.681 Y0.263 E1.97434
G1 X-1.696 Y-0.136 E1.99107
G1 X-1.617 Y-0.528 E2.00780
G1 X-1.449 Y-0.891 E2.02454
G1 X-1.202 Y-1.205 E2.04127
G1 X-0.887 Y-1.452 E2.05800
G1 X-0.524 Y-1.619 E2.07474
G1 X-0.160 Y-1.691 E2.09029
G1 X0.266 Y-1.681 E2.10810
G1 X0.594 Y-1.588 E2.12240
G1 X0.979 Y-1.802 F6000.000
G1 X2.786 Y-5.786 F6000.000
G1 X3.417 Y-5.438 E2.16002 F6000.000
G1 X4.004 Y-5.021 E2.19765
G1 X4.541 Y-4.541 E2.23527
G1 X5.021 Y-4.004 E2.27289
G1 X5.438 Y-3.417 E2.31052
G1 X5.786 Y-2.786 E2.34814
G1 X6.061 Y-2.121 E2.38577
G1 X6.261 Y-1.429 E2.42339
G1 X6.381 Y-0.719 E2.46101
G1 X6.422 Y-0.000 E2.49864
G1 X6.381 Y0.719 E2.53626
G1 X6.261 Y1.429 E2.57389
G1 X6.061 Y2.121 E2.61151
G1 X5.786 Y2.786 E2.64913
G1 X5.438 Y3.417 E2.68676
G1 X5.021 Y4.004 E2.72438
G1 X4.541 Y4.541 E2.76201
G1 X4.004 Y5.021 E2.79963
G1 X3.417 Y5.438 E2.83725
G1 X2.786 Y5.786 E2.87488
G1 X2.121 Y6.061 E2.91250
G1 X1.429 Y6.261 E2.95013
G1 X0.719 Y6.381 E2.98775
G1 X0.000 Y6.422 E3.02538
G1 X-0.719 Y6.381 E3.06300
G1 X-1.429 Y6.261 E3.10063
G1 X-2.121 Y6.061 E3.13825
G1 X-2.786 Y5.786 E3.17587
G1 X-3.417 Y5.438 E3.21350
G1 X-4.004 Y5.021 E3.25112
G1 X-4.541 Y4.541 E3.28875
G1 X-5.021 Y4.004 E3.32637
G1 X-5.438 Y3.417 E3.36399
G1 X-5.786 Y2.786 E3.40162
G1 X-6.061 Y2.121 E3.43924
G1 X-6.261 Y1.429 E3.47687
G1 X-6.381 Y0.719 E3.51449
G1 X-6.421 Y0.011 E3.55153
G1 X-6.381 Y-0.719 E3.58976
G1 X-6.261 Y-1.429 E3.62736
G1 X-6.061 Y-2.121 E3.66498
G1 X-5.786 Y-2.786 E3.70261
G1 X-5.438 Y-3.417 E3.74023
G1 X-5.021 Y-4.004 E3.77786
G1 X-4.541 Y-4.541 E3.81548
G1 X-4.004 Y-5.021 E3.85311
G1 X-3.417 Y-5.438 E3.89073
G1 X-2.796 Y-5.780 E3.92776
G1 X-2.121 Y-6.062 E3.96600
G1 X-1.429 Y-6.261 E4.00360
G1 X-0.719 Y-6.381 E4.04122
G1 X0.000 Y-6.422 E4.07885
G1 X0.708 Y-6.382 E4.11588
G1 X1.429 Y-6.261 E4.15412
G1 X2.121 Y-6.061 E4.19172
G1 X2.731 Y-5.809 E4.22621
G1 X2.950 Y-6.126 F6000.000
G1 X3.618 Y-5.757 E4.25813 F6000.000
G1 X4.240 Y-5.316 E4.29005
G1 X4.808 Y-4.808 E4.32196
G1 X5.316 Y-4.240 E4.35388
G1 X5.757 Y-3.618 E4.38580
G1 X6.126 Y-2.950 E4.41772
G1 X6.418 Y-2.246 E4.44964
G1 X6.629 Y-1.513 E4.48156
G1 X6.757 Y-0.761 E4.51348
G1 X6.800 Y-0.000 E4.54540
G1 X6.757 Y0.761 E4.57732
G1 X6.629 Y1.513 E4.60924
G1 X6.418 Y2.246 E4.64116
G1 X6.126 Y2.950 E4.67308
G1 X5.757 Y3.618 E4.70500
G1 X5.316 Y4.240 E4.73692
G1 X4.808 Y4.808 E4.76884
G1 X4.240 Y5.316 E4.80075
G1 X3.618 Y5.757 E4.83267
G1 X2.950 Y6.126 E4.86459
G1 X2.246 Y6.418 E4.89651
G1 X1.513 Y6.629 E4.92843
G1 X0.761 Y6.757 E4.96035
G1 X0.000 Y6.800 E4.99227
G1 X-0.761 Y6.757 E5.02419
G1 X-1.513 Y6.629 E5.05611
G1 X-2.246 Y6.418 E5.08803
G1 X-2.950 Y6.126 E5.11995
G1 X-3.618 Y5.757 E5.15187
G1 X-4.240 Y5.316 E5.18379
G1 X-4.808 Y4.808 E5.21571
G1 X-5.316 Y4.240 E5.24763
G1 X-5.757 Y3.618 E5.27955
G1 X-6.126 Y2.950 E5.31147
G1 X-6.418 Y2.246 E5.34339
G1 X-6.629 Y1.513 E5.37531
G1 X-6.757 Y0.761 E5.40722
G1 X-6.799 Y0.012 E5.43866
G1 X-6.757 Y-0.761 E5.47107
G1 X-6.629 Y-1.513 E5.50298
G1 X-6.418 Y-2.246 E5.53490
G1 X-6.126 Y-2.950 E5.56682
G1 X-5.757 Y-3.618 E5.59874
G1 X-5.316 Y-4.240 E5.63066
G1 X-4.808 Y-4.808 E5.66258
G1 X-4.240 Y-5.316 E5.69450
G1 X-3.618 Y-5.757 E5.72642
G1 X-2.960 Y-6.121 E5.75785
G1 X-2.246 Y-6.418 E5.79026
G1 X-1.513 Y-6.629 E5.82217
G1 X-0.761 Y-6.757 E5.85409
G1 X0.000 Y-6.800 E5.88601
G1 X0.750 Y-6.758 E5.91744
G1 X1.513 Y-6.629 E5.94985
G1 X2.246 Y-6.418 E5.98176
G1 X2.895 Y-6.149 E6.01117
G1 X2.973 Y-5.727 F6000.000
G1 X0.656 Y-5.923 F6000.000
G1 X1.287 Y-5.817 E6.04459 F6000.000
G1 X0.703 Y-5.233 E6.08777
G1 X1.572 Y-1.989 E6.26323
G1 X1.497 Y-2.058 E6.26856
G1 X0.976 Y-2.351 E6.29980
G1 X0.392 Y-2.516 E6.33149
G1 X-0.232 Y-2.531 E6.36408
G1 X-0.784 Y-2.421 E6.39349
G1 X-1.327 Y-2.172 E6.42473
G1 X-1.797 Y-1.802 E6.45598
G1 X-2.168 Y-1.333 E6.48722
G1 X-2.419 Y-0.790 E6.51846
G1 X-2.537 Y-0.204 E6.54970
G1 X-2.515 Y0.394 E6.58094
G1 X-2.353 Y0.969 E6.61219
G1 X-2.062 Y1.492 E6.64343
G1 X-1.657 Y1.932 E6.67467
G1 X-1.519 Y2.024 E6.68335
G1 X-1.910 Y2.415 E6.71220
G1 X-5.797 Y1.373 E6.92248
G1 X-5.923 Y0.667 E6.95993
G1 X-5.960 Y0.011 E6.99429
G1 X-5.923 Y-0.668 E7.02982
G1 X-5.811 Y-1.326 E7.06469
G1 X-5.626 Y-1.969 E7.09961
G1 X-5.370 Y-2.586 E7.13453
G1 X-5.047 Y-3.171 E7.16945
G1 X-4.660 Y-3.716 E7.20437
G1 X-4.215 Y-4.215 E7.23930
G1 X-3.716 Y-4.660 E7.27422
G1 X-3.171 Y-5.047 E7.30914
G1 X-2.596 Y-5.365 E7.34349
G1 X-1.968 Y-5.626 E7.37902
G1 X-1.326 Y-5.811 E7.41389
G1 X-0.660 Y-5.923 E7.44920
G1 X0.259 Y-5.677 E7.49888
G1 X0.513 Y-5.932 E7.51767
G1 X0.656 Y-5.923 E7.52518
G1 X5.950 Y0.184 F6000.000
G1 X5.923 Y0.667 E7.55046 F6000.000
G1 X5.811 Y1.326 E7.58538
G1 X5.626 Y1.969 E7.62030
G1 X5.370 Y2.586 E7.65522
G1 X5.047 Y3.171 E7.69014
G1 X4.660 Y3.716 E7.72506
G1 X4.215 Y4.215 E7.75998
G1 X3.716 Y4.660 E7.79490
G1 X3.171 Y5.047 E7.82982
G1 X2.586 Y5.370 E7.86474
G1 X1.969 Y5.626 E7.89966
G1 X1.326 Y5.811 E7.93458
G1 X0.667 Y5.923 E7.96950
G1 X0.000 Y5.960 E8.00442
G1 X-0.644 Y5.924 E8.03813
G1 X-1.465 Y2.859 E8.20391
G1 X-0.950 Y2.344 E8.24201
G1 X-0.600 Y2.473 E8.26149
G1 X-0.007 Y2.545 E8.29274
G1 X0.587 Y2.477 E8.32398
G1 X1.149 Y2.271 E8.35522
G1 X1.647 Y1.940 E8.38646
G1 X2.054 Y1.502 E8.41771
G1 X2.343 Y0.990 E8.44843
G1 X2.493 Y0.500 E8.47521
G1 X2.544 Y-0.010 E8.50198
G1 X2.475 Y-0.594 E8.53271
G1 X2.412 Y-0.764 E8.54215
G1 X5.950 Y0.184 E8.73349
M106 S255
M104 S215 ; set temperature
G1 Z0.500 F6000.000
G1 X0.842 Y-2.030 F6000.000
G1 X1.293 Y-1.777 E8.76047 F6000.000
G1 X1.672 Y-1.427 E8.78744
G1 X1.958 Y-0.997 E8.81442
G1 X2.137 Y-0.513 E8.84139
G1 X2.197 Y-0.007 E8.86802
G1 X2.153 Y0.432 E8.89104
G1 X2.024 Y0.853 E8.91406
G1 X1.774 Y1.297 E8.94069
G1 X1.422 Y1.675 E8.96766
G1 X0.992 Y1.961 E8.99464
G1 X0.507 Y2.138 E9.02161
G1 X-0.006 Y2.198 E9.04859
G1 X-0.518 Y2.136 E9.07556
G1 X-1.002 Y1.956 E9.10253
G1 X-1.431 Y1.668 E9.12951
G1 X-1.780 Y1.288 E9.15648
G1 X-2.032 Y0.837 E9.18345
G1 X-2.171 Y0.340 E9.21043
G1 X-2.190 Y-0.176 E9.23741
G1 X-2.089 Y-0.682 E9.26438
G1 X-1.872 Y-1.151 E9.29135
G1 X-1.552 Y-1.556 E9.31833
G1 X-1.146 Y-1.875 E9.34530
G1 X-0.677 Y-2.091 E9.37228
G1 X-0.170 Y-2.191 E9.39925
G1 X0.345 Y-2.170 E9.42622
G1 X0.785 Y-2.046 E9.45006
G1 X0.652 Y-1.571 F6000.000
G1 X1.001 Y-1.376 E9.46193 F6000.000
G1 X1.294 Y-1.104 E9.47380
G1 X1.516 Y-0.772 E9.48567
G1 X1.654 Y-0.397 E9.49754
G1 X1.701 Y-0.002 E9.50935
G1 X1.668 Y0.335 E9.51939
G1 X1.569 Y0.658 E9.52943
G1 X1.373 Y1.004 E9.54124
G1 X1.101 Y1.297 E9.55311
G1 X0.768 Y1.518 E9.56497
G1 X0.393 Y1.655 E9.57684
G1 X-0.004 Y1.701 E9.58871
G1 X-0.401 Y1.653 E9.60058
G1 X-0.776 Y1.514 E9.61245
G1 X-1.108 Y1.291 E9.62432
G1 X-1.378 Y0.997 E9.63619
G1 X-1.573 Y0.648 E9.64806
G1 X-1.681 Y0.263 E9.65992
G1 X-1.696 Y-0.136 E9.67179
G1 X-1.617 Y-0.528 E9.68366
G1 X-1.449 Y-0.891 E9.69553
G1 X-1.202 Y-1.205 E9.70740
G1 X-0.887 Y-1.452 E9.71927
G1 X-0.524 Y-1.619 E9.73114
G1 X-0.132 Y-1.696 E9.74301
G1 X0.267 Y-1.680 E9.75487
G1 X0.594 Y-1.588 E9.76496
G1 X0.979 Y-1.802 F6000.000
G1 X2.736 Y-5.682 F6000.000
G1 X3.355 Y-5.340 E9.80191 F6000.000
G1 X3.932 Y-4.930 E9.83886
G1 X4.459 Y-4.459 E9.87580
G1 X4.930 Y-3.932 E9.91275
G1 X5.340 Y-3.355 E9.94970
G1 X5.682 Y-2.736 E9.98664
G1 X5.952 Y-2.083 E10.02359
G1 X6.148 Y-1.403 E10.06054
G1 X6.267 Y-0.706 E10.09748
G1 X6.306 Y-0.000 E10.13443
G1 X6.267 Y0.706 E10.17138
G1 X6.148 Y1.403 E10.20832
G1 X5.952 Y2.083 E10.24527
G1 X5.682 Y2.736 E10.28222
G1 X5.340 Y3.355 E10.31916
G1 X4.930 Y3.932 E10.35611
G1 X4.459 Y4.459 E10.39306
G1 X3.932 Y4.930 E10.43000
G1 X3.355 Y5.340 E10.46695
G1 X2.736 Y5.682 E10.50390
G1 X2.083 Y5.952 E10.54084
G1 X1.403 Y6.148 E10.57779
G1 X0.706 Y6.267 E10.61474
G1 X0.000 Y6.306 E10.65168
G1 X-0.706 Y6.267 E10.68863
G1 X-1.403 Y6.148 E10.72558
G1 X-2.083 Y5.952 E10.76252
G1 X-2.736 Y5.682 E10.79947
G1 X-3.355 Y5.340 E10.83642
G1 X-3.932 Y4.930 E10.87336
G1 X-4.459 Y4.459 E10.91031
G1 X-4.930 Y3.932 E10.94726
G1 X-5.340 Y3.355 E10.98420
