; generated by Slic3r 1.2.9 on 2016-07-14 at 17:48:15

; external perimeters extrusion width = 0.30mm
; perimeters extrusion width = 0.31mm
; infill extrusion width = 0.31mm
; solid infill extrusion width = 0.31mm
; top infill extrusion width = 0.31mm

M107
M104 S215 ; set temperature
G28 ; home all axes
G1 Z5 F5000 ; lift nozzle

M109 S215 ; wait for temperature to be reached
G21 ; set units to millimeters
G90 ; use absolute coordinates
M82 ; use absolute distances for extrusion
G92 E0
G1 E-2.00000 F2400.00000
G92 E0
G1 Z0.100 F7800.000
G1 X-1.636 Y-6.848 F7800.000
G1 E2.00000 F2400.00000
G1 X0.495 Y-7.335 E2.02208 F1800.000
G1 X3.395 Y-7.936 E2.05201
G1 X6.495 Y-8.513 E2.08386
G1 X10.435 Y-9.180 E2.12423
G1 X12.649 Y-9.138 E2.14661
G1 X14.705 Y-8.317 E2.16898 F1800.000
G1 X16.341 Y-6.825 E2.19135
G1 X17.286 Y-5.035 E2.21180
G1 X19.341 Y1.128 E2.27743
G1 X19.653 Y3.320 E2.29980
G1 X19.173 Y5.481 E2.32217
G1 X17.961 Y7.335 E2.34454
G1 X16.174 Y8.642 E2.36692
G1 X13.430 Y9.260 E2.39533
G1 X-13.736 Y9.039 E2.66980
G1 X-15.915 Y8.544 E2.69239
G1 X-17.761 Y7.320 E2.71476
G1 X-19.056 Y5.525 E2.73713
G1 X-19.636 Y3.388 E2.75950
G1 X-19.424 Y1.183 E2.78187
G1 X-18.450 Y-0.805 E2.80424
G1 X-16.836 Y-2.321 E2.82661
G1 X-15.197 Y-3.069 E2.84482
G1 X-6.161 Y-5.679 E2.93984
G1 X-3.893 Y-6.289 E2.96357
G1 X-1.680 Y-6.838 E2.98661
G1 F6240
G1 X0.495 Y-7.335 E2.17151
G1 F6240
G1 X3.395 Y-7.936 E1.08925
G1 F6240
G1 X3.403 Y-7.937 E1.08661
G1 E0.98661 F2400.00000
G92 E0
G1 X8.690 Y-2.161 F7800.000
G1 E2.00000 F2400.00000
G1 X11.115 Y-2.566 E2.02484 F1800.000
G1 X12.830 Y2.580 E2.07965
G1 X9.009 Y2.326 E2.11835 F1800.000
G1 X5.502 Y2.146 E2.15383
G1 X2.265 Y2.028 E2.18655
G1 X-1.611 Y1.957 E2.22572
G1 X-4.966 Y1.971 E2.25962
G1 X-7.781 Y2.045 E2.28807
G1 X-8.743 Y2.092 E2.29779
G1 X-8.759 Y1.998 E2.29875
G1 X-4.392 Y0.716 E2.34473
G1 X-2.214 Y0.130 E2.36752
G1 X0.177 Y-0.459 E2.39240
G1 X2.787 Y-1.041 E2.41942
G1 X5.624 Y-1.607 E2.44864
G1 X8.645 Y-2.153 E2.47967
G1 X8.614 Y-2.329 F7800.000
G1 X11.236 Y-2.768 E2.50653 F1800.000
G1 X13.084 Y2.776 E2.56557
G1 X8.998 Y2.504 E2.60694 F1800.000
G1 X5.494 Y2.324 E2.64239
G1 X2.260 Y2.206 E2.67508
G1 X-1.613 Y2.136 E2.71422
G1 X-4.963 Y2.150 E2.74807
G1 X-7.775 Y2.224 E2.77649
G1 X-10.208 Y2.342 E2.80110
G1 X-10.224 Y2.249 E2.80206
G1 X-4.440 Y0.544 E2.86298
G1 X-2.259 Y-0.043 E2.88580
G1 X0.136 Y-0.633 E2.91072
G1 X2.750 Y-1.216 E2.93778
G1 X5.590 Y-1.783 E2.96704
G1 X8.569 Y-2.321 E2.99763
G1 X8.538 Y-2.497 F7800.000
G1 X11.357 Y-2.969 E3.02651 F1800.000
G1 X13.337 Y2.972 E3.08978
G1 X8.988 Y2.683 E3.13382 F1800.000
G1 X5.486 Y2.502 E3.16924
G1 X2.255 Y2.385 E3.20191
G1 X-1.614 Y2.314 E3.24101
G1 X-4.961 Y2.328 E3.27482
G1 X-7.768 Y2.402 E3.30319
G1 X-10.500 Y2.535 E3.33082
G1 X-11.873 Y2.641 E3.34474
G1 X-11.890 Y2.546 E3.34572
G1 X-4.488 Y0.372 E3.42366
G1 X-2.303 Y-0.216 E3.44652
G1 X0.095 Y-0.807 E3.47147
G1 X2.713 Y-1.390 E3.49857
G1 X5.557 Y-1.958 E3.52787
G1 X8.493 Y-2.489 E3.55802
G1 X8.729 Y-2.266 F7800.000
G1 X-11.980 Y2.611 F7800.000
G1 X-12.947 Y2.779 E3.56793 F1800.000
G1 X-11.420 Y2.511 F7800.000
G1 X-10.945 Y2.426 E3.57281 F1800.000
G1 X-10.304 Y2.311 E3.58676 F1800.000
G1 X-9.827 Y2.229 F7800.000
G1 X-9.437 Y2.162 E3.59076 F1800.000
G1 X-9.437 Y2.162 F7800.000
G1 X-8.839 Y2.060 E3.60376 F1800.000
G1 X-8.361 Y1.979 F7800.000
G1 X-7.971 Y1.912 E3.60776 F1800.000
G1 X-7.971 Y1.912 F7800.000
G1 X-7.420 Y1.822 E3.61973 F1800.000
G1 X-7.283 Y1.644 F7800.000
G1 X-7.283 Y1.899 E3.62231 F1800.000
G1 X-7.103 Y1.949 E3.62420
G1 X-7.103 Y1.592 E3.62783
G1 X-6.924 Y1.539 E3.62972
G1 X-6.924 Y1.944 E3.63383
G1 X-6.745 Y1.940 E3.63565
G1 X-6.745 Y1.487 E3.64024
G1 X-6.566 Y1.435 E3.64213
G1 X-6.566 Y1.935 E3.64721
G1 X-6.386 Y1.930 E3.64903
G1 X-6.386 Y1.382 E3.65458
G1 X-6.207 Y1.330 E3.65648
G1 X-6.207 Y1.926 E3.66252
G1 X-6.028 Y1.921 E3.66434
G1 X-6.028 Y1.278 E3.67086
G1 X-5.849 Y1.225 E3.67276
G1 X-5.849 Y1.916 E3.67976
G1 X-5.669 Y1.911 E3.68158
G1 X-5.669 Y1.173 E3.68907
G1 X-5.490 Y1.121 E3.69097
G1 X-5.490 Y1.907 E3.69894
G1 X-5.311 Y1.902 E3.70076
G1 X-5.311 Y1.068 E3.70922
G1 X-5.132 Y1.016 E3.71111
G1 X-5.132 Y1.897 E3.72005
G1 X-4.952 Y1.893 E3.72187
G1 X-4.952 Y0.964 E3.73130
G1 X-4.773 Y0.911 E3.73319
G1 X-4.773 Y1.892 E3.74315
G1 X-4.594 Y1.891 E3.74496
G1 X-4.594 Y0.859 E3.75544
G1 X-4.415 Y0.807 E3.75733
G1 X-4.415 Y1.891 E3.76833
G1 X-4.235 Y1.890 E3.77015
G1 X-4.235 Y0.757 E3.78164
G1 X-4.056 Y0.709 E3.78352
G1 X-4.056 Y1.889 E3.79550
G1 X-3.877 Y1.889 E3.79732
G1 X-3.877 Y0.661 E3.80977
G1 X-3.698 Y0.612 E3.81166
G1 X-3.698 Y1.888 E3.82460
G1 X-3.518 Y1.887 E3.82641
G1 X-3.518 Y0.564 E3.83983
G1 X-3.339 Y0.516 E3.84172
G1 X-3.339 Y1.886 E3.85562
G1 X-3.160 Y1.886 E3.85744
G1 X-3.160 Y0.468 E3.87182
G1 X-2.981 Y0.419 E3.87370
G1 X-2.981 Y1.885 E3.88857
G1 X-2.801 Y1.884 E3.89039
G1 X-2.801 Y0.371 E3.90574
G1 X-2.622 Y0.323 E3.90762
G1 X-2.622 Y1.883 E3.92345
G1 X-2.443 Y1.883 E3.92527
G1 X-2.443 Y0.275 E3.94158
G1 X-2.263 Y0.226 E3.94346
G1 X-2.263 Y1.882 E3.96025
G1 X-2.084 Y1.881 E3.96207
G1 X-2.084 Y0.180 E3.97932
G1 X-1.905 Y0.136 E3.98120
G1 X-1.905 Y1.880 E3.99889
G1 X-1.726 Y1.880 E4.00071
G1 X-1.726 Y0.092 E4.01884
G1 X-1.546 Y0.048 E4.02071
G1 X-1.546 Y1.880 E4.03930
G1 X-1.367 Y1.883 E4.04112
G1 X-1.367 Y0.004 E4.06019
G1 X-1.188 Y-0.041 E4.06206
G1 X-1.188 Y1.887 E4.08161
G1 X-1.009 Y1.890 E4.08343
G1 X-1.009 Y-0.085 E4.10346
G1 X-0.829 Y-0.129 E4.10534
G1 X-0.829 Y1.893 E4.12585
G1 X-0.650 Y1.896 E4.12767
G1 X-0.650 Y-0.173 E4.14866
G1 X-0.471 Y-0.217 E4.15054
G1 X-0.471 Y1.900 E4.17201
G1 X-0.292 Y1.903 E4.17383
G1 X-0.292 Y-0.261 E4.19579
G1 X-0.112 Y-0.306 E4.19766
G1 X-0.112 Y1.906 E4.22010
G1 X0.067 Y1.910 E4.22192
G1 X0.067 Y-0.350 E4.24483
G1 X0.246 Y-0.393 E4.24671
G1 X0.246 Y1.913 E4.27010
G1 X0.425 Y1.916 E4.27192
G1 X0.425 Y-0.433 E4.29574
G1 X0.605 Y-0.473 E4.29761
G1 X0.605 Y1.919 E4.32187
G1 X0.784 Y1.923 E4.32369
G1 X0.784 Y-0.513 E4.34840
G1 X0.963 Y-0.553 E4.35026
G1 X0.963 Y1.926 E4.37541
G1 X1.142 Y1.929 E4.37722
G1 X1.142 Y-0.593 E4.40281
G1 X1.322 Y-0.633 E4.40467
G1 X1.322 Y1.932 E4.43069
G1 X1.501 Y1.936 E4.43251
G1 X1.501 Y-0.673 E4.45897
G1 X1.680 Y-0.713 E4.46083
G1 X1.680 Y1.939 E4.48773
G1 X1.859 Y1.942 E4.48955
G1 X1.859 Y-0.753 E4.51688
G1 X2.039 Y-0.793 E4.51875
G1 X2.039 Y1.945 E4.54652
G1 X2.218 Y1.949 E4.54834
G1 X2.218 Y-0.833 E4.57655
G1 X2.397 Y-0.873 E4.57841
G1 X2.397 Y1.954 E4.60709
G1 X2.577 Y1.961 E4.60891
G1 X2.577 Y-0.913 E4.63805
G1 X2.756 Y-0.953 E4.63992
G1 X2.756 Y1.967 E4.66954
G1 X2.935 Y1.974 E4.67136
G1 X2.935 Y-0.990 E4.70142
G1 X3.114 Y-1.025 E4.70327
G1 X3.114 Y1.980 E4.73376
G1 X3.294 Y1.987 E4.73558
G1 X3.294 Y-1.061 E4.76650
G1 X3.473 Y-1.097 E4.76835
G1 X3.473 Y1.993 E4.79970
G1 X3.652 Y2.000 E4.80152
G1 X3.652 Y-1.133 E4.83330
G1 X3.831 Y-1.169 E4.83516
G1 X3.831 Y2.006 E4.86736
G1 X4.011 Y2.013 E4.86918
G1 X4.011 Y-1.204 E4.90182
G1 X4.190 Y-1.240 E4.90367
G1 X4.190 Y2.019 E4.93674
G1 X4.369 Y2.026 E4.93856
G1 X4.369 Y-1.276 E4.97205
G1 X4.548 Y-1.312 E4.97391
G1 X4.548 Y2.033 E5.00783
G1 X4.728 Y2.039 E5.00965
G1 X4.728 Y-1.348 E5.04401
G1 X4.907 Y-1.383 E5.04586
G1 X4.907 Y2.046 E5.08064
G1 X5.086 Y2.052 E5.08246
G1 X5.086 Y-1.419 E5.11768
G1 X5.265 Y-1.455 E5.11953
G1 X5.265 Y2.059 E5.15517
G1 X5.445 Y2.065 E5.15699
G1 X5.445 Y-1.491 E5.19306
G1 X5.624 Y-1.526 E5.19492
G1 X5.624 Y2.074 E5.23144
G1 X5.803 Y2.083 E5.23326
G1 X5.803 Y-1.559 E5.27020
G1 X5.982 Y-1.592 E5.27205
G1 X5.982 Y2.092 E5.30942
G1 X6.162 Y2.101 E5.31124
G1 X6.162 Y-1.624 E5.34903
G1 X6.341 Y-1.657 E5.35088
G1 X6.341 Y2.110 E5.38909
G1 X6.520 Y2.120 E5.39091
G1 X6.520 Y-1.689 E5.42954
G1 X6.699 Y-1.721 E5.43139
G1 X6.699 Y2.129 E5.47045
G1 X6.879 Y2.138 E5.47227
G1 X6.879 Y-1.754 E5.51175
G1 X7.058 Y-1.786 E5.51359
G1 X7.058 Y2.147 E5.55349
G1 X7.237 Y2.157 E5.55532
G1 X7.237 Y-1.818 E5.59564
G1 X7.417 Y-1.851 E5.59749
G1 X7.417 Y2.166 E5.63823
G1 X7.596 Y2.175 E5.64005
G1 X7.596 Y-1.883 E5.68122
G1 X7.775 Y-1.916 E5.68307
G1 X7.775 Y2.184 E5.72466
G1 X7.954 Y2.193 E5.72648
G1 X7.954 Y-1.948 E5.76849
G1 X8.134 Y-1.980 E5.77034
G1 X8.134 Y2.203 E5.81277
G1 X8.313 Y2.212 E5.81459
G1 X8.313 Y-2.013 E5.85745
G1 X8.492 Y-2.045 E5.85929
G1 X8.492 Y2.221 E5.90257
G1 X8.671 Y2.230 E5.90439
G1 X8.671 Y-2.078 E5.94809
G1 X8.851 Y-2.108 E5.94994
G1 X8.851 Y2.240 E5.99404
G1 X9.030 Y2.249 E5.99586
G1 X9.030 Y-2.138 E6.04036
G1 X9.209 Y-2.168 E6.04221
G1 X9.209 Y2.261 E6.08713
G1 X9.388 Y2.273 E6.08896
G1 X9.388 Y-2.198 E6.13431
G1 X9.568 Y-2.228 E6.13615
G1 X9.568 Y2.285 E6.18193
G1 X9.747 Y2.297 E6.18375
G1 X9.747 Y-2.258 E6.22995
G1 X9.926 Y-2.288 E6.23179
G1 X9.926 Y2.309 E6.27842
G1 X10.105 Y2.321 E6.28024
G1 X10.105 Y-2.318 E6.32729
G1 X10.285 Y-2.348 E6.32914
G1 X10.285 Y2.333 E6.37661
G1 X10.464 Y2.344 E6.37843
G1 X10.464 Y-2.378 E6.42633
G1 X10.643 Y-2.408 E6.42818
G1 X10.643 Y2.356 E6.47650
G1 X10.822 Y2.368 E6.47833
G1 X10.822 Y-2.437 E6.52707
G1 X11.002 Y-2.449 E6.52890
G1 X11.002 Y2.380 E6.57788
G1 X11.181 Y2.392 E6.57970
G1 X11.181 Y-2.005 E6.62431
G1 X11.360 Y-1.467 F7800.000
G1 X11.360 Y2.404 E6.66358 F1800.000
G1 X11.539 Y2.416 E6.66540
G1 X11.539 Y-0.930 E6.69934
G1 X11.719 Y-0.392 F7800.000
G1 X11.719 Y2.428 E6.72794 F1800.000
G1 X11.898 Y2.440 E6.72977
G1 X11.898 Y0.146 E6.75304
G1 X12.077 Y0.684 F7800.000
G1 X12.077 Y2.452 E6.77097 F1800.000
G1 X12.257 Y2.464 E6.77279
G1 X12.257 Y1.222 E6.78539
G1 X12.436 Y1.759 F7800.000
G1 X12.436 Y2.467 E6.79258 F1800.000
G1 X12.615 Y2.297 E6.79508
G1 X12.615 Y2.467 E6.79681
G1 F6240
G1 X12.615 Y2.297 E6.73456
G1 F6240
G1 X12.436 Y2.467 E6.64420
G1 F6240
G1 X12.436 Y1.759 E6.38546
G1 E4.79681 F2400.00000
G92 E0
G1 Z0.400 F7800.000
G1 X9.118 Y-2.044 F7800.000
G1 E2.00000 F2400.00000
G1 X10.988 Y-2.356 E2.08066 F3600.000
G1 X12.565 Y2.376 E2.29286
G1 X9.020 Y2.140 E2.44405 F3600.000
G1 X5.510 Y1.959 E2.59357
G1 X2.270 Y1.841 E2.73152
G1 X-1.610 Y1.771 E2.89663
G1 X-4.969 Y1.785 E3.03954
G1 X-7.119 Y1.841 E3.13104
G1 X-7.140 Y1.711 E3.13665
G1 X-6.308 Y1.463 E3.17356
G1 X-4.342 Y0.896 E3.26063
G1 X-2.167 Y0.311 E3.35644
G1 X0.219 Y-0.277 E3.46102
G1 X2.825 Y-0.858 E3.57462
G1 X5.659 Y-1.424 E3.69754
G1 X9.074 Y-2.036 E3.84517
G1 X9.033 Y-2.283 F7800.000
G1 X11.158 Y-2.638 E3.93686 F3600.000
G1 X12.921 Y2.650 E4.17406
G1 X9.005 Y2.390 E4.34104 F3600.000
G1 X5.499 Y2.209 E4.49040
G1 X2.263 Y2.092 E4.62817
G1 X-1.612 Y2.021 E4.79307
G1 X-4.965 Y2.035 E4.93574
G1 X-7.779 Y2.109 E5.05551
G1 X-9.108 Y2.174 E5.11213
G1 X-9.131 Y2.043 E5.11780
G1 X-6.379 Y1.223 E5.23997
G1 X-4.409 Y0.655 E5.32718
G1 X-2.230 Y0.068 E5.42320
G1 X0.162 Y-0.521 E5.52801
G1 X2.774 Y-1.103 E5.64185
G1 X5.612 Y-1.670 E5.76499
G1 X8.988 Y-2.276 E5.91094
G1 X8.948 Y-2.516 F7800.000
G1 X11.323 Y-2.912 E6.00726 F1800.000
G1 X13.144 Y2.550 E6.23756
G1 X13.266 Y2.917 E6.25305 F1800.000
G1 X8.991 Y2.633 E6.42445
G1 X5.489 Y2.452 E6.56473
G1 X2.257 Y2.335 E6.69409
G1 X-1.613 Y2.264 E6.84892
G1 X-4.961 Y2.278 E6.98284
G1 X-7.770 Y2.352 E7.09522
G1 X-10.503 Y2.485 E7.20466
G1 X-11.200 Y2.539 E7.23262
G1 X-11.223 Y2.409 E7.23790
G1 X-6.447 Y0.989 E7.43719
G1 X-4.474 Y0.420 E7.51931
G1 X-2.291 Y-0.167 E7.60977
G1 X0.106 Y-0.758 E7.70852
G1 X2.723 Y-1.341 E7.81577
G1 X5.566 Y-1.909 E7.93173
G1 X8.904 Y-2.508 E8.06737
G1 X9.140 Y-2.285 F7800.000
G1 X-11.359 Y2.500 F7800.000
G1 X-12.683 Y2.736 E8.12458 F1800.000
G1 X-10.601 Y2.363 F7800.000
G1 X-9.978 Y2.255 E8.15149 F1200.000
G1 X-9.978 Y2.255 F7800.000
G1 X-9.239 Y2.129 E8.22342 F1200.000
G1 X-8.566 Y2.014 F7800.000
G1 X-7.951 Y1.909 E8.24993 F1200.000
G1 X-7.951 Y1.909 F7800.000
G1 X-7.253 Y1.796 E8.31788 F1200.000
G1 X-6.616 Y1.694 F7800.000
G1 X-6.050 Y1.605 E8.34225 F1200.000
G1 X-6.050 Y1.605 F7800.000
G1 X-5.330 Y1.494 E8.41226 F1200.000
G1 X-5.212 Y1.344 F7800.000
G1 X12.093 Y1.344 E9.19405 F1200.000
G1 X12.005 Y1.078 E9.20672
G1 X-4.348 Y1.078 E9.94550
G1 X-3.360 Y0.811 F7800.000
G1 X11.916 Y0.811 E10.63559 F1200.000
G1 X11.827 Y0.545 E10.64827
G1 X-2.371 Y0.545 E11.28968
G1 X-1.307 Y0.279 F7800.000
G1 X11.738 Y0.279 E11.87904 F1200.000
G1 X11.650 Y0.013 E11.89171
G1 X-0.228 Y0.013 E12.42829
G1 X0.922 Y-0.253 F7800.000
G1 X11.561 Y-0.253 E12.90891 F1200.000
G1 X11.472 Y-0.519 E12.92158
G1 X2.116 Y-0.519 E13.34427
G1 X3.371 Y-0.785 F7800.000
G1 X11.384 Y-0.785 E13.70627 F1200.000
G1 X11.295 Y-1.051 E13.71894
G1 X4.703 Y-1.051 E14.01672
G1 X6.080 Y-1.317 F7800.000
G1 X11.206 Y-1.317 E14.24830 F1200.000
G1 X10.940 Y-2.116 F7800.000
G1 X10.647 Y-2.116 E14.26152 F1200.000
G1 X9.054 Y-1.850 F7800.000
G1 X11.029 Y-1.850 E14.35073 F1200.000
G1 X11.117 Y-1.584 E14.36340
G1 X7.553 Y-1.584 E14.52443
G1 X7.572 Y1.876 F7800.000
G1 X12.271 Y1.876 E14.73668 F1200.000
G1 X12.338 Y2.142 E14.74908
G1 X11.886 Y2.142 E14.76949
G1 X12.182 Y1.610 F7800.000
G1 X0.091 Y1.610 E15.31574 F1200.000
G1 F6240
G1 X5.291 Y1.610 E13.41574
G1 E13.31574 F2400.00000
G92 E0
G1 Z0.700 F7800.000
G1 X6.823 Y-1.634 F7800.000
G1 E2.00000 F2400.00000
G1 X8.722 Y-1.977 E2.08207 F3600.000
G1 X10.988 Y-2.356 E2.17985
G1 X12.492 Y2.155 E2.38216
G1 X12.565 Y2.376 E2.39205 F3600.000
G1 X9.020 Y2.140 E2.54323
G1 X5.510 Y1.959 E2.69275
G1 X2.270 Y1.841 E2.83070
G1 X-1.610 Y1.771 E2.99581
G1 X-4.969 Y1.785 E3.13872
G1 X-7.119 Y1.841 E3.23023
G1 X-7.140 Y1.711 E3.23583
G1 X-4.342 Y0.896 E3.35981
G1 X-2.167 Y0.311 E3.45562
G1 X0.219 Y-0.277 E3.56020
G1 X2.825 Y-0.858 E3.67381
G1 X5.659 Y-1.424 E3.79673
G1 X6.779 Y-1.626 E3.84517
G1 X6.734 Y-1.873 F7800.000
G1 X8.679 Y-2.224 E3.92923 F3600.000
G1 X11.158 Y-2.638 E4.03619
G1 X12.730 Y2.076 E4.24762
G1 X12.921 Y2.650 E4.27338 F3600.000
G1 X9.005 Y2.390 E4.44037
G1 X5.499 Y2.209 E4.58973
G1 X2.263 Y2.092 E4.72750
G1 X-1.612 Y2.021 E4.89240
G1 X-4.965 Y2.035 E5.03507
G1 X-7.779 Y2.109 E5.15483
G1 X-9.108 Y2.174 E5.21145
G1 X-9.131 Y2.043 E5.21712
G1 X-4.409 Y0.655 E5.42651
G1 X-2.230 Y0.068 E5.52252
G1 X0.162 Y-0.521 E5.62733
G1 X2.774 Y-1.103 E5.74118
G1 X5.612 Y-1.670 E5.86431
G1 X6.690 Y-1.865 E5.91094
G1 X6.647 Y-2.104 F7800.000
G1 X8.637 Y-2.464 E5.99183 F1800.000
G1 X11.323 Y-2.912 E6.10077
G1 X12.960 Y1.999 E6.30785
G1 X13.266 Y2.917 E6.34656 F1800.000
G1 X8.991 Y2.633 E6.51796
G1 X5.489 Y2.452 E6.65824
G1 X2.257 Y2.335 E6.78760
G1 X-1.613 Y2.264 E6.94243
G1 X-4.961 Y2.278 E7.07635
G1 X-7.770 Y2.352 E7.18873
G1 X-10.503 Y2.485 E7.29817
G1 X-11.200 Y2.539 E7.32613
G1 X-11.223 Y2.409 E7.33141
G1 X-6.447 Y0.989 E7.53070
G1 X-4.474 Y0.420 E7.61282
G1 X-2.291 Y-0.167 E7.70328
G1 X0.106 Y-0.758 E7.80203
G1 X2.723 Y-1.341 E7.90928
G1 X5.566 Y-1.909 E8.02524
G1 X6.603 Y-2.096 E8.06737
G1 X6.841 Y-1.875 F7800.000
G1 X-11.359 Y2.500 F7800.000
G1 X-12.683 Y2.736 E8.12458 F1800.000
G1 X-10.601 Y2.363 F7800.000
G1 X-9.978 Y2.255 E8.15149 F1200.000
G1 X-9.239 Y2.129 E8.22342 F1200.000
G1 X-8.566 Y2.014 F7800.000
G1 X-7.951 Y1.909 E8.24994 F1200.000
G1 X-7.951 Y1.909 F7800.000
G1 X-7.253 Y1.796 E8.31788 F1200.000
G1 X-6.616 Y1.694 F7800.000
G1 X-6.050 Y1.605 E8.34225 F1200.000
G1 X-6.050 Y1.605 F7800.000
G1 X-5.330 Y1.494 E8.41226 F1200.000
G1 X-5.137 Y1.251 F7800.000
G1 X-5.137 Y1.553 E8.42518 F1200.000
G1 X-4.885 Y1.673 E8.43713
G1 X-4.885 Y1.178 E8.45829
G1 X-4.632 Y1.106 E8.46952
G1 X-4.632 Y1.671 E8.49373
G1 X-4.380 Y1.670 E8.50452
G1 X-4.380 Y1.033 E8.53178
G1 X-4.128 Y0.963 E8.54298
G1 X-4.128 Y1.668 E8.57315
G1 X-3.876 Y1.666 E8.58394
G1 X-3.876 Y0.895 E8.61695
G1 X-3.624 Y0.828 E8.62813
G1 X-3.624 Y1.665 E8.66398
G1 X-3.372 Y1.663 E8.67478
G1 X-3.372 Y0.760 E8.71346
G1 X-3.119 Y0.692 E8.72464
G1 X-3.119 Y1.662 E8.76617
G1 X-2.867 Y1.660 E8.77697
G1 X-2.867 Y0.624 E8.82134
G1 X-2.615 Y0.556 E8.83252
G1 X-2.615 Y1.659 E8.87972
G1 X-2.363 Y1.657 E8.89052
G1 X-2.363 Y0.488 E8.94057
G1 X-2.111 Y0.421 E8.95174
G1 X-2.111 Y1.656 E9.00462
G1 X-1.859 Y1.654 E9.01542
G1 X-1.859 Y0.358 E9.07089
G1 X-1.606 Y0.296 E9.08201
G1 X-1.606 Y1.653 E9.14009
G1 X-1.354 Y1.657 E9.15088
G1 X-1.354 Y0.234 E9.21181
G1 X-1.102 Y0.172 E9.22293
G1 X-1.102 Y1.662 E9.28672
G1 X-0.850 Y1.667 E9.29752
G1 X-0.850 Y0.110 E9.36416
G1 X-0.598 Y0.048 E9.37528
G1 X-0.598 Y1.671 E9.44478
