; generated by Slic3r 1.2.9 on 2016-07-14 at 17:49:06

; external perimeters extrusion width = 0.30mm
; perimeters extrusion width = 0.31mm
; infill extrusion width = 0.31mm
; solid infill extrusion width = 0.31mm
; top infill extrusion width = 0.31mm

M107
M104 S215 ; set temperature
G28 ; home all axes
G1 Z5 F5000 ; lift nozzle

M109 S215 ; wait for temperature to be reached
G21 ; set units to millimeters
G90 ; use absolute coordinates
M82 ; use absolute distances for extrusion
G92 E0
G1 E-2.00000 F2400.00000
G92 E0
G1 Z0.100 F7800.000
G1 X26.111 Y-8.704 F7800.000
G1 E2.00000 F2400.00000
G1 X28.361 Y-1.954 E2.07189 F1800.000
G1 X28.674 Y0.238 E2.09426
G1 X28.361 Y1.954 E2.11188
G1 X18.361 Y31.954 E2.43137
G1 X17.296 Y33.895 E2.45374
G1 X15.615 Y35.336 E2.47611
G1 X12.500 Y36.179 E2.50871
G1 X-22.500 Y36.179 E2.86233
G1 X-24.678 Y35.782 E2.88470
G1 X-26.577 Y34.642 E2.90707
G1 X-27.952 Y32.907 E2.92944
G1 X-28.679 Y30.000 E2.95971
G1 X-28.679 Y-30.000 E3.56591
G1 X-28.282 Y-32.178 E3.58828
G1 X-27.142 Y-34.077 E3.61065
G1 X-25.407 Y-35.452 E3.63302
G1 X-22.500 Y-36.179 E3.66330
G1 X12.500 Y-36.179 E4.01691
G1 X14.678 Y-35.782 E4.03928
G1 X16.577 Y-34.642 E4.06165 F1800.000
G1 X18.361 Y-31.954 E4.09426
G1 X26.097 Y-8.747 E4.34141
G1 F6240
G1 X27.742 Y-3.813 E2.44141
G1 E2.34141 F2400.00000
G92 E0
G1 X-22.043 Y8.504 F7800.000
G1 E2.00000 F2400.00000
G1 X-22.043 Y-29.543 E2.38440 F1800.000
G1 X12.171 Y-29.543 E2.73007
G1 X18.249 Y-11.309 E2.92426
G1 X14.908 Y-10.743 E2.95849 F1800.000
G1 X11.902 Y-10.183 E2.98938
G1 X9.123 Y-9.607 E3.01806
G1 X7.394 Y-9.215 E3.03597
G1 X4.228 Y-8.423 E3.06895
G1 X2.103 Y-7.836 E3.09121
G1 X-3.367 Y-6.212 E3.14887
G1 X-5.997 Y-5.468 E3.17648
G1 X-5.836 Y-4.565 E3.18574
G1 X-2.564 Y-4.802 E3.21889
G1 X-0.935 Y-4.883 E3.23536
G1 X1.007 Y-4.949 E3.25500
G1 X4.075 Y-4.996 E3.28600
G1 X6.724 Y-4.985 E3.31276
G1 X9.665 Y-4.924 E3.34248
G1 X12.888 Y-4.807 E3.37506
G1 X16.381 Y-4.627 E3.41040
G1 X20.569 Y-4.348 E3.45280
G1 X22.018 Y0.000 E3.49911
G1 X12.171 Y29.543 E3.81374
G1 X-22.043 Y29.543 E4.15941
G1 X-22.043 Y8.549 E4.37151
G1 X-22.221 Y8.549 F7800.000
G1 X-22.221 Y-29.721 E4.75817 F1800.000
G1 X12.299 Y-29.721 E5.10695
G1 X18.484 Y-11.168 E5.30454
G1 X14.939 Y-10.567 E5.34087 F1800.000
G1 X11.937 Y-10.008 E5.37172
G1 X9.161 Y-9.433 E5.40036
G1 X7.434 Y-9.041 E5.41825
G1 X4.274 Y-8.250 E5.45117
G1 X2.153 Y-7.664 E5.47340
G1 X-3.317 Y-6.041 E5.53105
G1 X-5.793 Y-5.340 E5.55704
G1 X-5.688 Y-4.755 E5.56304
G1 X-2.574 Y-4.981 E5.59458
G1 X-0.942 Y-5.061 E5.61110
G1 X1.003 Y-5.128 E5.63076
G1 X4.074 Y-5.175 E5.66179
G1 X6.727 Y-5.164 E5.68859
G1 X9.671 Y-5.103 E5.71834
G1 X12.896 Y-4.985 E5.75095
G1 X16.391 Y-4.805 E5.78631
G1 X20.700 Y-4.519 E5.82994
G1 X22.206 Y0.000 E5.87806
G1 X12.299 Y29.721 E6.19459
G1 X-22.221 Y29.721 E6.54336
G1 X-22.221 Y8.594 E6.75682
G1 X-22.400 Y8.594 F7800.000
G1 X-22.400 Y-29.900 E7.14574 F1800.000
G1 X12.428 Y-29.900 E7.49761
G1 X18.650 Y-11.233 E7.69641
G1 X18.719 Y-11.026 E7.69861 F1800.000
G1 X14.970 Y-10.392 E7.73703
G1 X11.971 Y-9.832 E7.76785
G1 X9.199 Y-9.258 E7.79646
G1 X7.475 Y-8.867 E7.81431
G1 X5.850 Y-8.473 E7.83121
G1 X4.320 Y-8.078 E7.84718
G1 X2.202 Y-7.493 E7.86938
G1 X-3.268 Y-5.869 E7.92702
G1 X-5.589 Y-5.212 E7.95139
G1 X-5.541 Y-4.945 E7.95414
G1 X-2.585 Y-5.159 E7.98407
G1 X-0.950 Y-5.239 E8.00062
G1 X0.998 Y-5.306 E8.02031
G1 X4.073 Y-5.354 E8.05138
G1 X6.729 Y-5.342 E8.07821
G1 X9.676 Y-5.281 E8.10799
G1 X12.904 Y-5.164 E8.14063
G1 X16.402 Y-4.983 E8.17602
G1 X20.832 Y-4.689 E8.22087
G1 X22.395 Y0.000 E8.27081
G1 X12.428 Y29.900 E8.58924
G1 X-22.400 Y29.900 E8.94111
G1 X-22.400 Y8.639 E9.15592
G1 X-22.140 Y8.444 F7800.000
G1 X-4.831 Y-3.883 F7800.000
G1 X-4.831 Y-4.450 E9.16165 F1800.000
G1 X-5.082 Y-4.432 E9.16419
G1 X-5.082 Y-3.883 E9.16973
G1 X-7.338 Y-2.580 E9.19605
G1 X-7.338 Y0.458 E9.22675
G1 X-5.082 Y1.761 E9.25306
G1 X-5.082 Y4.799 E9.28376
G1 X-7.338 Y6.101 E9.31008
G1 X-7.338 Y9.140 E9.34078
G1 X-5.082 Y10.442 E9.36709
G1 X-5.082 Y13.481 E9.39779
G1 X-7.338 Y14.783 E9.42411
G1 X-7.338 Y17.822 E9.45480
G1 X-5.082 Y19.124 E9.48112
G1 X-5.082 Y22.163 E9.51182
G1 X-7.338 Y23.465 E9.53813
G1 X-7.338 Y26.503 E9.56883
G1 X-5.082 Y27.806 E9.59515
G1 X-5.082 Y29.355 E9.61080
G1 X-4.831 Y29.355 E9.61333
G1 X-4.831 Y27.806 E9.62899
G1 X-2.576 Y26.503 E9.65530
G1 X-2.576 Y23.465 E9.68600
G1 X-4.831 Y22.163 E9.71232
G1 X-4.831 Y19.124 E9.74302
G1 X-2.576 Y17.822 E9.76933
G1 X-2.576 Y14.783 E9.80003
G1 X-4.831 Y13.481 E9.82634
G1 X-4.831 Y10.442 E9.85704
G1 X-2.576 Y9.140 E9.88336
G1 X-2.576 Y6.101 E9.91406
G1 X-4.831 Y4.799 E9.94037
G1 X-4.831 Y1.761 E9.97107
G1 X-2.576 Y0.458 E9.99739
G1 X-2.576 Y-2.580 E10.02809
G1 X-4.831 Y-3.883 E10.05440
G1 X0.181 Y-3.883 F7800.000
G1 X0.181 Y-4.733 E10.06299 F1800.000
G1 X-0.070 Y-4.724 E10.06553
G1 X-0.070 Y-3.883 E10.07403
G1 X-2.325 Y-2.580 E10.10035
G1 X-2.325 Y0.458 E10.13105
G1 X-0.070 Y1.761 E10.15736
G1 X-0.070 Y4.799 E10.18806
G1 X-2.325 Y6.101 E10.21437
G1 X-2.325 Y9.140 E10.24507
G1 X-0.070 Y10.442 E10.27139
G1 X-0.070 Y13.481 E10.30209
G1 X-2.325 Y14.783 E10.32840
G1 X-2.325 Y17.822 E10.35910
G1 X-0.070 Y19.124 E10.38542
G1 X-0.070 Y22.163 E10.41612
G1 X-2.325 Y23.465 E10.44243
G1 X-2.325 Y26.503 E10.47313
G1 X-0.070 Y27.806 E10.49944
G1 X-0.070 Y29.355 E10.51510
G1 X0.181 Y29.355 E10.51763
G1 X0.181 Y27.806 E10.53328
G1 X2.437 Y26.503 E10.55960
G1 X2.437 Y23.465 E10.59030
G1 X0.181 Y22.163 E10.61661
G1 X0.181 Y19.124 E10.64731
G1 X2.437 Y17.822 E10.67363
G1 X2.437 Y14.783 E10.70433
G1 X0.181 Y13.481 E10.73064
G1 X0.181 Y10.442 E10.76134
G1 X2.437 Y9.140 E10.78765
G1 X2.437 Y6.101 E10.81835
G1 X0.181 Y4.799 E10.84467
G1 X0.181 Y1.761 E10.87537
G1 X2.437 Y0.458 E10.90168
G1 X2.437 Y-2.580 E10.93238
G1 X0.181 Y-3.883 E10.95870
G1 X5.193 Y-4.804 F7800.000
G1 X4.943 Y-4.805 E10.96123 F1800.000
G1 X4.943 Y-3.883 E10.97055
G1 X2.687 Y-2.580 E10.99686
G1 X2.687 Y0.458 E11.02756
G1 X4.943 Y1.761 E11.05388
G1 X4.943 Y4.799 E11.08458
G1 X2.687 Y6.101 E11.11089
G1 X2.687 Y9.140 E11.14159
G1 X4.943 Y10.442 E11.16790
G1 X4.943 Y13.481 E11.19860
G1 X2.687 Y14.783 E11.22492
G1 X2.687 Y17.822 E11.25562
G1 X4.943 Y19.124 E11.28193
G1 X4.943 Y22.163 E11.31263
G1 X2.687 Y23.465 E11.33895
G1 X2.687 Y26.503 E11.36965
G1 X4.943 Y27.806 E11.39596
G1 X4.943 Y29.355 E11.41161
G1 X5.193 Y29.355 E11.41415
G1 X5.193 Y27.806 E11.42980
G1 X7.449 Y26.503 E11.45612
G1 X7.449 Y23.465 E11.48682
G1 X5.193 Y22.163 E11.51313
G1 X5.193 Y19.124 E11.54383
G1 X7.449 Y17.822 E11.57014
G1 X7.449 Y14.783 E11.60084
G1 X5.193 Y13.481 E11.62716
G1 X5.193 Y10.442 E11.65786
G1 X7.449 Y9.140 E11.68417
G1 X7.449 Y6.101 E11.71487
G1 X5.193 Y4.799 E11.74119
G1 X5.193 Y1.761 E11.77189
G1 X7.449 Y0.458 E11.79820
G1 X7.449 Y-2.580 E11.82890
G1 X5.193 Y-3.883 E11.85521
G1 X5.193 Y-4.804 E11.86452
G1 X10.206 Y-4.717 F7800.000
G1 X9.955 Y-4.726 E11.86706 F1800.000
G1 X9.955 Y-3.883 E11.87558
G1 X7.700 Y-2.580 E11.90189
G1 X7.700 Y0.458 E11.93259
G1 X9.955 Y1.761 E11.95890
G1 X9.955 Y4.799 E11.98960
G1 X7.700 Y6.101 E12.01592
G1 X7.700 Y9.140 E12.04662
G1 X9.955 Y10.442 E12.07293
G1 X9.955 Y13.481 E12.10363
G1 X7.700 Y14.783 E12.12995
G1 X7.700 Y17.822 E12.16065
G1 X9.955 Y19.124 E12.18696
G1 X9.955 Y22.163 E12.21766
G1 X7.700 Y23.465 E12.24397
G1 X7.700 Y26.503 E12.27467
G1 X9.955 Y27.806 E12.30099
G1 X9.955 Y29.355 E12.31664
G1 X10.206 Y29.355 E12.31917
G1 X10.206 Y27.806 E12.33483
G1 X12.461 Y26.503 E12.36114
G1 X12.461 Y23.465 E12.39184
G1 X10.206 Y22.163 E12.41816
G1 X10.206 Y19.124 E12.44886
G1 X12.461 Y17.822 E12.47517
G1 X12.461 Y14.783 E12.50587
G1 X10.206 Y13.481 E12.53218
G1 X10.206 Y10.442 E12.56288
G1 X12.461 Y9.140 E12.58920
G1 X12.461 Y6.101 E12.61990
G1 X10.206 Y4.799 E12.64621
G1 X10.206 Y1.761 E12.67691
G1 X12.461 Y0.458 E12.70323
G1 X12.461 Y-2.580 E12.73393
G1 X10.206 Y-3.883 E12.76024
G1 X10.206 Y-4.717 E12.76867
G1 X15.218 Y-4.499 F7800.000
G1 X14.968 Y-4.512 E12.77120 F1800.000
G1 X14.968 Y-3.883 E12.77756
G1 X12.712 Y-2.580 E12.80387
G1 X12.712 Y0.458 E12.83457
G1 X14.968 Y1.761 E12.86089
G1 X14.968 Y4.799 E12.89159
G1 X12.712 Y6.101 E12.91790
G1 X12.712 Y9.140 E12.94860
G1 X14.968 Y10.442 E12.97492
G1 X14.968 Y13.481 E13.00562
G1 X12.712 Y14.783 E13.03193
G1 X12.712 Y17.822 E13.06263
G1 X14.968 Y19.124 E13.08894
G1 X14.968 Y20.558 E13.10343
G1 X15.218 Y19.806 E13.11144
G1 X15.218 Y19.124 E13.11833
G1 X15.500 Y18.961 E13.12161
G1 X16.986 Y14.502 E13.16911
G1 X15.218 Y13.481 E13.18974
G1 X15.218 Y10.442 E13.22044
G1 X17.474 Y9.140 E13.24675
G1 X17.474 Y6.101 E13.27745
G1 X15.218 Y4.799 E13.30376
G1 X15.218 Y1.761 E13.33446
G1 X17.474 Y0.458 E13.36078
G1 X17.474 Y-2.580 E13.39148
G1 X15.218 Y-3.883 E13.41779
G1 X15.218 Y-4.499 E13.42402
G1 X20.231 Y-4.183 F7800.000
G1 X19.980 Y-4.199 E13.42656 F1800.000
G1 X19.980 Y-3.883 E13.42976
G1 X17.724 Y-2.580 E13.45607
G1 X17.724 Y0.458 E13.48677
G1 X19.980 Y1.761 E13.51309
G1 X19.980 Y4.799 E13.54379
G1 X17.724 Y6.101 E13.57010
G1 X17.724 Y9.140 E13.60080
G1 X18.604 Y9.648 E13.61106
G1 X20.231 Y4.769 E13.66303
G1 X20.231 Y1.761 E13.69342
G1 X21.472 Y1.044 E13.70791
G1 X21.820 Y-0.000 E13.71902
G1 X20.596 Y-3.671 E13.75812
G1 X20.231 Y-3.883 E13.76239
G1 X20.231 Y-4.183 E13.76542
G1 F6240
G1 X20.231 Y-3.883 E13.65573
G1 F6240
G1 X20.596 Y-3.671 E13.50137
G1 F6240
G1 X21.820 Y-0.000 E12.08738
G1 F6240
G1 X21.628 Y0.576 E11.86542
G1 E11.76542 F2400.00000
G92 E0
G1 X17.531 Y-11.744 F7800.000
G1 X17.531 Y-11.744 F7800.000
G1 X16.393 Y-16.281 F7800.000
G1 E2.00000 F2400.00000
G1 X14.775 Y-21.135 E2.05169 F1800.000
G1 X12.712 Y-19.944 E2.07576
G1 X12.712 Y-16.905 E2.10646
G1 X14.968 Y-15.603 E2.13278
G1 X14.968 Y-12.564 E2.16348
G1 X12.712 Y-11.262 E2.18979
G1 X12.712 Y-10.525 E2.19724
G1 X14.875 Y-10.928 E2.21946
G1 X17.332 Y-11.344 E2.24464
G1 X15.218 Y-12.564 E2.26930
G1 X15.218 Y-15.603 E2.30000
G1 X16.393 Y-16.281 E2.31370
G1 X13.429 Y-25.173 F7800.000
G1 X12.712 Y-27.325 E2.33662 F1800.000
G1 X12.712 Y-25.587 E2.35418
G1 X13.429 Y-25.173 E2.36255
G1 X12.235 Y-28.756 F7800.000
G1 X11.197 Y-29.355 E2.37465 F1800.000
G1 X8.964 Y-29.355 E2.39722
G1 X7.700 Y-28.625 E2.41197
G1 X7.700 Y-25.587 E2.44267
G1 X9.955 Y-24.285 E2.46898
G1 X9.955 Y-21.246 E2.49968
G1 X7.700 Y-19.944 E2.52599
G1 X7.700 Y-16.905 E2.55669
G1 X9.955 Y-15.603 E2.58301
G1 X9.955 Y-12.564 E2.61371
G1 X7.700 Y-11.262 E2.64002
G1 X7.700 Y-9.477 E2.65806
G1 X9.083 Y-9.791 E2.67239
G1 X12.461 Y-10.478 E2.70722
G1 X12.461 Y-11.262 E2.71514
G1 X10.206 Y-12.564 E2.74146
G1 X10.206 Y-15.603 E2.77216
G1 X12.461 Y-16.905 E2.79847
G1 X12.461 Y-19.944 E2.82917
G1 X10.206 Y-21.246 E2.85548
G1 X10.206 Y-24.285 E2.88618
G1 X12.461 Y-25.587 E2.91250
G1 X12.461 Y-28.077 E2.93765
G1 X12.235 Y-28.756 E2.94489
G1 X7.449 Y-28.625 F7800.000
G1 X6.185 Y-29.355 E2.95964 F1800.000
G1 X3.951 Y-29.355 E2.98221
G1 X2.687 Y-28.625 E2.99695
G1 X2.687 Y-25.587 E3.02765
G1 X4.943 Y-24.285 E3.05397
G1 X4.943 Y-21.246 E3.08467
G1 X2.687 Y-19.944 E3.11098
G1 X2.687 Y-16.905 E3.14168
G1 X4.943 Y-15.603 E3.16799
G1 X4.943 Y-12.564 E3.19869
G1 X2.687 Y-11.262 E3.22501
G1 X2.687 Y-8.223 E3.25571
G1 X2.724 Y-8.202 E3.25614
G1 X4.180 Y-8.604 E3.27140
G1 X7.449 Y-9.420 E3.30544
G1 X7.449 Y-11.262 E3.32405
G1 X5.193 Y-12.564 E3.35036
G1 X5.193 Y-15.603 E3.38106
G1 X7.449 Y-16.905 E3.40738
G1 X7.449 Y-19.944 E3.43808
G1 X5.193 Y-21.246 E3.46439
G1 X5.193 Y-24.285 E3.49509
G1 X7.449 Y-25.587 E3.52141
G1 X7.449 Y-28.625 E3.55211
G1 X2.437 Y-28.625 F7800.000
G1 X1.173 Y-29.355 E3.56685 F1800.000
G1 X-1.061 Y-29.355 E3.58942
G1 X-2.325 Y-28.625 E3.60417
G1 X-2.325 Y-25.587 E3.63487
G1 X-0.070 Y-24.285 E3.66118
G1 X-0.070 Y-21.246 E3.69188
G1 X-2.325 Y-19.944 E3.71819
G1 X-2.325 Y-16.905 E3.74889
G1 X-0.070 Y-15.603 E3.77521
G1 X-0.070 Y-12.564 E3.80591
G1 X-2.325 Y-11.262 E3.83222
G1 X-2.325 Y-8.223 E3.86292
G1 X-0.602 Y-7.229 E3.88302
G1 X2.103 Y-8.031 E3.91153
G1 X2.437 Y-8.223 E3.91542
G1 X2.437 Y-11.262 E3.94612
G1 X0.181 Y-12.564 E3.97244
G1 X0.181 Y-15.603 E4.00313
G1 X2.437 Y-16.905 E4.02945
G1 X2.437 Y-19.944 E4.06015
G1 X0.181 Y-21.246 E4.08646
G1 X0.181 Y-24.285 E4.11716
G1 X2.437 Y-25.587 E4.14348
G1 X2.437 Y-28.625 E4.17418
G1 X-2.576 Y-28.625 F7800.000
G1 X-3.840 Y-29.355 E4.18892 F1800.000
G1 X-6.074 Y-29.355 E4.21149
G1 X-7.338 Y-28.625 E4.22624
G1 X-7.338 Y-25.587 E4.25694
G1 X-5.082 Y-24.285 E4.28325
G1 X-5.082 Y-21.246 E4.31395
G1 X-7.338 Y-19.944 E4.34027
G1 X-7.338 Y-16.905 E4.37097
G1 X-5.082 Y-15.603 E4.39728
G1 X-5.082 Y-12.564 E4.42798
G1 X-7.338 Y-11.262 E4.45429
G1 X-7.338 Y-8.223 E4.48499
G1 X-5.082 Y-6.921 E4.51131
G1 X-5.082 Y-5.922 E4.52140
G1 X-4.831 Y-5.993 E4.52403
G1 X-4.831 Y-6.921 E4.53341
G1 X-2.576 Y-8.223 E4.55973
G1 X-2.576 Y-11.262 E4.59043
G1 X-4.831 Y-12.564 E4.61674
G1 X-4.831 Y-15.603 E4.64744
G1 X-2.576 Y-16.905 E4.67375
G1 X-2.576 Y-19.944 E4.70445
G1 X-4.831 Y-21.246 E4.73077
G1 X-4.831 Y-24.285 E4.76147
G1 X-2.576 Y-25.587 E4.78778
G1 X-2.576 Y-28.625 E4.81848
G1 X-7.588 Y-28.625 F7800.000
G1 X-8.852 Y-29.355 E4.83323 F1800.000
G1 X-11.086 Y-29.355 E4.85580
G1 X-12.350 Y-28.625 E4.87054
G1 X-12.350 Y-25.587 E4.90124
G1 X-10.094 Y-24.285 E4.92756
G1 X-10.094 Y-21.246 E4.95826
G1 X-12.350 Y-19.944 E4.98457
G1 X-12.350 Y-16.905 E5.01527
G1 X-10.094 Y-15.603 E5.04158
G1 X-10.094 Y-12.564 E5.07228
G1 X-12.350 Y-11.262 E5.09860
G1 X-12.350 Y-8.223 E5.12930
G1 X-10.094 Y-6.921 E5.15561
G1 X-10.094 Y-3.883 E5.18631
G1 X-12.350 Y-2.580 E5.21263
G1 X-12.350 Y0.458 E5.24333
G1 X-10.094 Y1.761 E5.26964
G1 X-10.094 Y4.799 E5.30034
G1 X-12.350 Y6.101 E5.32665
G1 X-12.350 Y9.140 E5.35735
G1 X-10.094 Y10.442 E5.38367
G1 X-10.094 Y13.481 E5.41437
G1 X-12.350 Y14.783 E5.44068
G1 X-12.350 Y17.822 E5.47138
G1 X-10.094 Y19.124 E5.49770
G1 X-10.094 Y22.163 E5.52840
G1 X-12.350 Y23.465 E5.55471
G1 X-12.350 Y26.503 E5.58541
G1 X-10.094 Y27.806 E5.61172
G1 X-10.094 Y29.355 E5.62738
G1 X-9.844 Y29.355 E5.62991
G1 X-9.844 Y27.806 E5.64556
G1 X-7.588 Y26.503 E5.67188
G1 X-7.588 Y23.465 E5.70258
G1 X-9.844 Y22.163 E5.72889
G1 X-9.844 Y19.124 E5.75959
G1 X-7.588 Y17.822 E5.78591
G1 X-7.588 Y14.783 E5.81661
G1 X-9.844 Y13.481 E5.84292
G1 X-9.844 Y10.442 E5.87362
G1 X-7.588 Y9.140 E5.89993
G1 X-7.588 Y6.101 E5.93063
G1 X-9.844 Y4.799 E5.95695
G1 X-9.844 Y1.761 E5.98765
G1 X-7.588 Y0.458 E6.01396
G1 X-7.588 Y-2.580 E6.04466
G1 X-9.844 Y-3.883 E6.07098
G1 X-9.844 Y-6.921 E6.10168
G1 X-7.588 Y-8.223 E6.12799
G1 X-7.588 Y-11.262 E6.15869
G1 X-9.844 Y-12.564 E6.18500
G1 X-9.844 Y-15.603 E6.21570
G1 X-7.588 Y-16.905 E6.24202
G1 X-7.588 Y-19.944 E6.27272
G1 X-9.844 Y-21.246 E6.29903
G1 X-9.844 Y-24.285 E6.32973
G1 X-7.588 Y-25.587 E6.35605
G1 X-7.588 Y-28.625 E6.38675
G1 X-12.601 Y-28.625 F7800.000
G1 X-13.864 Y-29.355 E6.40149 F1800.000
G1 X-16.098 Y-29.355 E6.42406
G1 X-17.362 Y-28.625 E6.43881
G1 X-17.362 Y-25.587 E6.46951
G1 X-15.107 Y-24.285 E6.49582
G1 X-15.107 Y-21.246 E6.52652
G1 X-17.362 Y-19.944 E6.55283
G1 X-17.362 Y-16.905 E6.58353
G1 X-15.107 Y-15.603 E6.60985
G1 X-15.107 Y-12.564 E6.64055
G1 X-17.362 Y-11.262 E6.66686
G1 X-17.362 Y-8.223 E6.69756
G1 X-15.107 Y-6.921 E6.72388
G1 X-15.107 Y-3.883 E6.75458
G1 X-17.362 Y-2.580 E6.78089
G1 X-17.362 Y0.458 E6.81159
G1 X-15.107 Y1.761 E6.83790
G1 X-15.107 Y4.799 E6.86860
G1 X-17.362 Y6.101 E6.89492
G1 X-17.362 Y9.140 E6.92562
G1 X-15.107 Y10.442 E6.95193
G1 X-15.107 Y13.481 E6.98263
G1 X-17.362 Y14.783 E7.00895
G1 X-17.362 Y17.822 E7.03965
G1 X-15.107 Y19.124 E7.06596
G1 X-15.107 Y22.163 E7.09666
G1 X-17.362 Y23.465 E7.12297
G1 X-17.362 Y26.503 E7.15367
G1 X-15.107 Y27.806 E7.17999
G1 X-15.107 Y29.355 E7.19564
G1 X-14.856 Y29.355 E7.19817
G1 X-14.856 Y27.806 E7.21383
G1 X-12.601 Y26.503 E7.24014
G1 X-12.601 Y23.465 E7.27084
G1 X-14.856 Y22.163 E7.29716
G1 X-14.856 Y19.124 E7.32786
G1 X-12.601 Y17.822 E7.35417
G1 X-12.601 Y14.783 E7.38487
G1 X-14.856 Y13.481 E7.41118
G1 X-14.856 Y10.442 E7.44188
G1 X-12.601 Y9.140 E7.46820
G1 X-12.601 Y6.101 E7.49890
G1 X-14.856 Y4.799 E7.52521
G1 X-14.856 Y1.761 E7.55591
G1 X-12.601 Y0.458 E7.58223
G1 X-12.601 Y-2.580 E7.61293
