; generated by Slic3r 1.2.9 on 2016-07-14 at 17:47:58

; external perimeters extrusion width = 0.30mm
; perimeters extrusion width = 0.31mm
; infill extrusion width = 0.31mm
; solid infill extrusion width = 0.31mm
; top infill extrusion width = 0.31mm

M107
M104 S215 ; set temperature
G28 ; home all axes
G1 Z5 F5000 ; lift nozzle

M109 S215 ; wait for temperature to be reached
G21 ; set units to millimeters
G90 ; use absolute coordinates
M82 ; use absolute distances for extrusion
G92 E0
G1 E-2.00000 F2400.00000
G92 E0
G1 Z0.100 F7800.000
G1 X-2.198 Y14.092 F7800.000
G1 E2.00000 F2400.00000
G1 X-55.056 Y5.847 E2.54049 F1800.000
G1 X-57.147 Y5.119 E2.56286
G1 X-58.847 Y3.701 E2.58524
G1 X-59.965 Y1.696 E2.60842
G1 X-62.019 Y-4.467 E2.67406
G1 X-62.332 Y-6.659 E2.69643
G1 X-61.851 Y-8.821 E2.71880
G1 X-60.640 Y-10.674 E2.74117
G1 X-58.852 Y-11.981 E2.76354
G1 X-57.148 Y-12.520 E2.78160
G1 X-51.834 Y-13.341 E2.83593
G1 X-46.636 Y-14.078 E2.88897
G1 X-41.082 Y-14.809 E2.94556
G1 X-35.173 Y-15.536 E3.00572
G1 X-28.952 Y-16.254 E3.06899
G1 X-24.068 Y-16.788 E3.11863
G1 X-13.783 Y-17.834 E3.22308
G1 X-8.410 Y-18.344 E3.27761
G1 X-1.015 Y-19.011 E3.35262
G1 X6.621 Y-19.661 E3.43005
G1 X12.505 Y-20.135 E3.48969
G1 X22.572 Y-20.898 E3.59169
G1 X30.842 Y-21.480 E3.67545
G1 X41.391 Y-22.169 E3.78226
G1 X49.999 Y-22.688 E3.86939
G1 X50.119 Y-22.695 E3.87060
G1 X52.317 Y-22.424 E3.89297
G1 X54.278 Y-21.395 E3.91534 F1800.000
G1 X55.750 Y-19.742 E3.93771
G1 X56.335 Y-18.481 E3.95176
G1 X58.019 Y-13.428 E4.00557
G1 X58.216 Y-12.686 E4.01333
G1 X62.216 Y7.314 E4.21940
G1 X62.019 Y10.480 E4.25144
G1 X59.353 Y18.481 E4.33665
G1 X58.287 Y20.422 E4.35902
G1 X56.606 Y21.863 E4.38139
G1 X54.525 Y22.618 E4.40376
G1 X52.539 Y22.631 E4.42382
G1 X-2.154 Y14.099 E4.98308
G1 F6240
G1 X-7.292 Y13.298 E3.08308
G1 E2.98308 F2400.00000
G92 E0
G1 X1.655 Y0.908 F7800.000
G1 E2.00000 F2400.00000
G1 X0.592 Y0.562 E2.01130 F1800.000
G1 X-0.352 Y-0.037 E2.02259
G1 X-1.118 Y-0.852 E2.03389
G1 X-1.656 Y-1.832 E2.04519
G1 X-1.934 Y-2.915 E2.05649
G1 X-1.934 Y-4.033 E2.06778
G1 X-1.656 Y-5.116 E2.07908
G1 X-1.118 Y-6.096 E2.09038
G1 X-0.352 Y-6.911 E2.10167
G1 X0.593 Y-7.510 E2.11298
G1 X1.673 Y-7.857 E2.12444
G1 X2.771 Y-7.926 E2.13556 F1800.000
G1 X3.870 Y-7.716 E2.14686
G1 X4.881 Y-7.240 E2.15815
G1 X5.743 Y-6.527 E2.16945
G1 X6.400 Y-5.623 E2.18075
G1 X6.812 Y-4.583 E2.19204
G1 X6.952 Y-3.473 E2.20335
G1 X6.805 Y-2.348 E2.21481
G1 X6.400 Y-1.325 E2.22593
G1 X5.742 Y-0.419 E2.23724
G1 X4.865 Y0.300 E2.24870
G1 X3.870 Y0.769 E2.25982
G1 X2.771 Y0.978 E2.27111
G1 X1.700 Y0.911 E2.28195
G1 X1.711 Y0.733 F7800.000
G1 X0.669 Y0.400 E2.29302 F1800.000
G1 X-0.237 Y-0.175 E2.30386
G1 X-0.972 Y-0.958 E2.31470
G1 X-1.489 Y-1.898 E2.32554
G1 X-1.756 Y-2.937 E2.33638
G1 X-1.756 Y-4.010 E2.34722
G1 X-1.489 Y-5.050 E2.35806
G1 X-0.972 Y-5.990 E2.36890
G1 X-0.237 Y-6.772 E2.37975
G1 X0.669 Y-7.347 E2.39059
G1 X1.706 Y-7.680 E2.40160
G1 X2.760 Y-7.746 E2.41226 F1800.000
G1 X3.814 Y-7.545 E2.42311
G1 X4.785 Y-7.088 E2.43395
G1 X5.612 Y-6.404 E2.44479
G1 X6.242 Y-5.536 E2.45563
G1 X6.637 Y-4.538 E2.46647
G1 X6.772 Y-3.473 E2.47732
G1 X6.631 Y-2.393 E2.48832
G1 X6.242 Y-1.412 E2.49899
G1 X5.611 Y-0.543 E2.50984
G1 X4.769 Y0.148 E2.52084
G1 X3.814 Y0.597 E2.53151
G1 X2.760 Y0.798 E2.54235
G1 X1.756 Y0.735 E2.55251
G1 X1.768 Y0.557 F7800.000
G1 X0.745 Y0.237 E2.56333 F1800.000
G1 X-0.123 Y-0.314 E2.57372
G1 X-0.826 Y-1.063 E2.58410
G1 X-1.322 Y-1.964 E2.59449
G1 X-1.577 Y-2.960 E2.60488
G1 X-1.577 Y-3.988 E2.61526
G1 X-1.322 Y-4.983 E2.62565
G1 X-0.826 Y-5.884 E2.63603
G1 X-0.123 Y-6.634 E2.64642
G1 X0.745 Y-7.184 E2.65680
G1 X1.740 Y-7.503 E2.66735
G1 X2.749 Y-7.567 E2.67757 F1800.000
G1 X3.758 Y-7.374 E2.68795
G1 X4.689 Y-6.936 E2.69834
G1 X5.481 Y-6.281 E2.70873
G1 X6.085 Y-5.449 E2.71911
G1 X6.463 Y-4.494 E2.72950
G1 X6.592 Y-3.474 E2.73988
G1 X6.457 Y-2.438 E2.75043
G1 X6.085 Y-1.498 E2.76065
G1 X5.480 Y-0.666 E2.77103
G1 X4.673 Y-0.004 E2.78158
G1 X3.758 Y0.426 E2.79180
G1 X2.749 Y0.619 E2.80218
G1 X1.813 Y0.560 E2.81166
G1 X1.564 Y0.777 F7800.000
G1 F6240
G1 X0.745 Y0.237 E2.40417
G1 F6240
G1 X-0.123 Y-0.314 E2.02858
G1 F6240
G1 X-0.826 Y-1.063 E1.65299
G1 F6240
G1 X-1.322 Y-1.964 E1.27740
G1 F6240
G1 X-1.571 Y-2.934 E0.91166
G1 E0.81166 F2400.00000
G92 E0
G1 X7.342 Y-4.719 F7800.000
G1 X15.515 Y-7.175 F7800.000
G1 X20.426 Y-12.474 F7800.000
G1 X21.113 Y-12.969 F7800.000
G1 X21.068 Y-13.590 F7800.000
G1 X37.153 Y-15.243 F7800.000
G1 E2.00000 F2400.00000
G1 X41.808 Y-15.547 E2.04714 F1800.000
G1 X50.151 Y-16.049 E2.13158
G1 X51.524 Y-11.931 E2.17544
G1 X22.034 Y-11.931 E2.47338 F1800.000
G1 X22.034 Y8.983 E2.68468
G1 X55.524 Y8.983 E3.02304
G1 X53.184 Y16.001 E3.09777
G1 X42.431 Y13.904 E3.20846
G1 X33.799 Y12.248 E3.29727
G1 X25.268 Y10.647 E3.38496
G1 X18.954 Y9.491 E3.44982
G1 X10.671 Y8.017 E3.53481
G1 X4.578 Y6.969 E3.59728
G1 X-3.330 Y5.659 E3.67827
G1 X-9.166 Y4.732 E3.73797
G1 X-16.674 Y3.598 E3.81469
G1 X-22.121 Y2.820 E3.87027
G1 X-27.396 Y2.107 E3.92405
G1 X-34.142 Y1.258 E3.99275
G1 X-38.973 Y0.699 E4.04188
G1 X-45.083 Y0.061 E4.10395
G1 X-49.408 Y-0.339 E4.14783
G1 X-53.766 Y-0.689 E4.19200
G1 X-55.553 Y-6.053 E4.24912
G1 X-52.080 Y-6.595 E4.28464
G1 X-47.048 Y-7.323 E4.33601
G1 X-41.646 Y-8.047 E4.39108
G1 X-35.887 Y-8.767 E4.44971
G1 X-29.786 Y-9.483 E4.51178
G1 X-23.358 Y-10.191 E4.57711
G1 X-16.624 Y-10.887 E4.64551
G1 X-9.600 Y-11.568 E4.71681
G1 X-2.304 Y-12.236 E4.79083
G1 X5.246 Y-12.888 E4.86740
G1 X13.030 Y-13.521 E4.94630
G1 X21.027 Y-14.131 E5.02733
G1 X31.290 Y-14.860 E5.13127
G1 X37.108 Y-15.240 E5.19018
G1 X37.096 Y-15.418 F7800.000
G1 X41.797 Y-15.725 E5.23778 F1800.000
G1 X50.277 Y-16.236 E5.32361
G1 X51.771 Y-11.752 E5.37135
G1 X22.213 Y-11.752 E5.67000 F1800.000
G1 X22.213 Y8.805 E5.87769
G1 X55.771 Y8.805 E6.21674
G1 X53.304 Y16.206 E6.29557
G1 X42.397 Y14.079 E6.40784
G1 X33.765 Y12.424 E6.49664
G1 X25.236 Y10.823 E6.58433
G1 X18.922 Y9.666 E6.64918
G1 X10.640 Y8.193 E6.73416
G1 X4.548 Y7.145 E6.79662
G1 X-3.359 Y5.835 E6.87759
G1 X-9.193 Y4.909 E6.93728
G1 X-16.700 Y3.775 E7.01398
G1 X-22.145 Y2.997 E7.06955
G1 X-27.419 Y2.284 E7.12332
G1 X-34.164 Y1.435 E7.19200
G1 X-38.992 Y0.877 E7.24111
G1 X-45.101 Y0.239 E7.30316
G1 X-49.423 Y-0.161 E7.34702
G1 X-53.898 Y-0.521 E7.39237
G1 X-55.789 Y-6.197 E7.45282
G1 X-52.106 Y-6.772 E7.49048
G1 X-47.072 Y-7.500 E7.54187
G1 X-41.669 Y-8.224 E7.59695
G1 X-35.909 Y-8.944 E7.65560
G1 X-29.806 Y-9.660 E7.71768
G1 X-23.377 Y-10.368 E7.78303
G1 X-16.641 Y-11.064 E7.85144
G1 X-9.616 Y-11.746 E7.92275
G1 X-2.319 Y-12.414 E7.99678
G1 X5.231 Y-13.066 E8.07335
G1 X13.016 Y-13.699 E8.15227
G1 X21.014 Y-14.309 E8.23331
G1 X31.278 Y-15.038 E8.33726
G1 X37.051 Y-15.415 E8.39572
G1 X37.040 Y-15.593 F7800.000
G1 X41.786 Y-15.903 E8.44377 F1800.000
G1 X50.403 Y-16.422 E8.53099
G1 X52.019 Y-11.574 E8.58263
G1 X22.391 Y-11.574 E8.88197 F1800.000
G1 X22.391 Y8.626 E9.08605
G1 X56.019 Y8.626 E9.42581
G1 X53.424 Y16.412 E9.50872
G1 X42.363 Y14.254 E9.62257
G1 X33.732 Y12.599 E9.71137
G1 X25.203 Y10.998 E9.79904
G1 X18.890 Y9.842 E9.86388
G1 X10.610 Y8.369 E9.94886
G1 X4.518 Y7.321 E10.01131
G1 X-3.387 Y6.011 E10.09227
G1 X-9.221 Y5.085 E10.15194
G1 X-16.726 Y3.951 E10.22863
G1 X-22.170 Y3.174 E10.28419
G1 X-27.442 Y2.461 E10.33794
G1 X-34.185 Y1.612 E10.40661
G1 X-39.012 Y1.054 E10.45570
G1 X-45.118 Y0.416 E10.51772
G1 X-49.438 Y0.017 E10.56156
G1 X-54.030 Y-0.352 E10.60810
G1 X-56.026 Y-6.340 E10.67187
G1 X-52.133 Y-6.949 E10.71168
G1 X-47.097 Y-7.676 E10.76308
G1 X-41.691 Y-8.401 E10.81818
G1 X-35.930 Y-9.121 E10.87685
G1 X-29.826 Y-9.837 E10.93894
G1 X-23.396 Y-10.546 E11.00430
G1 X-16.659 Y-11.242 E11.07273
G1 X-9.633 Y-11.924 E11.14404
G1 X-2.335 Y-12.591 E11.21809
G1 X5.217 Y-13.244 E11.29467
G1 X13.002 Y-13.877 E11.37359
G1 X21.001 Y-14.487 E11.45464
G1 X31.265 Y-15.216 E11.55860
G1 X36.995 Y-15.590 E11.61661
G1 X37.206 Y-15.344 F7800.000
G1 X38.952 Y-15.152 F7800.000
G1 X38.952 Y-12.119 E11.64726 F1800.000
G1 X34.190 Y-12.119 E11.69537
G1 X34.190 Y-14.861 E11.72307
G1 X38.921 Y-15.170 E11.77097
G1 X38.952 Y-15.152 E11.77133
G1 X43.965 Y-15.152 F7800.000
G1 X43.965 Y-12.119 E11.80198 F1800.000
G1 X39.203 Y-12.119 E11.85009
G1 X39.203 Y-15.152 E11.88074
G1 X39.274 Y-15.193 E11.88157
G1 X43.437 Y-15.457 E11.92371
G1 X43.965 Y-15.152 E11.92987
G1 X48.977 Y-15.152 F7800.000
G1 X48.977 Y-12.119 E11.96052 F1800.000
G1 X44.215 Y-12.119 E12.00862
G1 X44.215 Y-15.152 E12.03927
G1 X44.895 Y-15.545 E12.04720
G1 X47.976 Y-15.730 E12.07838
G1 X48.977 Y-15.152 E12.09007
G1 X51.263 Y-12.119 F7800.000
G1 X49.228 Y-12.119 E12.11063 F1800.000
G1 X49.228 Y-15.152 E12.14128
G1 X50.087 Y-15.648 E12.15130
G1 X51.263 Y-12.119 E12.18889
G1 X33.940 Y-12.119 F7800.000
G1 X29.178 Y-12.119 E12.23700 F1800.000
G1 X29.178 Y-14.522 E12.26128
G1 X33.940 Y-14.845 E12.30950
G1 X33.940 Y-12.119 E12.33704
G1 X28.927 Y-12.119 F7800.000
G1 X24.166 Y-12.119 E12.38515 F1800.000
G1 X24.166 Y-14.166 E12.40583
G1 X28.927 Y-14.504 E12.45406
G1 X28.927 Y-12.119 E12.47815
G1 X23.915 Y-12.119 F7800.000
G1 X21.846 Y-12.119 E12.49905 F1800.000
G1 X21.846 Y-10.919 E12.51117
G1 X21.659 Y-10.811 E12.51335
G1 X21.659 Y-7.773 E12.54405
G1 X21.846 Y-7.665 E12.54624
G1 X21.846 Y-2.237 E12.60107
G1 X21.659 Y-2.129 E12.60325
G1 X21.659 Y0.909 E12.63395
G1 X21.846 Y1.017 E12.63613
G1 X21.846 Y6.444 E12.69096
G1 X21.659 Y6.552 E12.69314
G1 X21.659 Y9.591 E12.72384
G1 X22.178 Y9.890 E12.72989
G1 X21.200 Y9.711 E12.73993
G1 X21.409 Y9.591 E12.74237
G1 X21.409 Y6.552 E12.77306
G1 X19.153 Y5.250 E12.79938
G1 X19.153 Y2.211 E12.83008
G1 X21.409 Y0.909 E12.85639
G1 X21.409 Y-2.129 E12.88709
G1 X19.153 Y-3.432 E12.91341
G1 X19.153 Y-6.470 E12.94411
G1 X21.409 Y-7.773 E12.97042
G1 X21.409 Y-10.811 E13.00112
G1 X19.153 Y-12.113 E13.02744
G1 X19.153 Y-13.800 E13.04447
G1 X23.915 Y-14.148 E13.09271
G1 X23.915 Y-12.119 E13.11321
G1 X18.903 Y-12.113 F7800.000
G1 X16.647 Y-10.811 E13.13952 F1800.000
G1 X16.647 Y-7.773 E13.17022
G1 X18.903 Y-6.470 E13.19654
G1 X18.903 Y-3.432 E13.22724
G1 X16.647 Y-2.129 E13.25355
G1 X16.647 Y0.909 E13.28425
G1 X18.903 Y2.211 E13.31056
G1 X18.903 Y5.250 E13.34126
G1 X16.647 Y6.552 E13.36758
G1 X16.647 Y8.890 E13.39119
G1 X16.396 Y8.845 E13.39377
G1 X16.396 Y6.552 E13.41693
G1 X14.141 Y5.250 E13.44324
G1 X14.141 Y2.211 E13.47394
G1 X16.396 Y0.909 E13.50026
G1 X16.396 Y-2.129 E13.53096
G1 X14.141 Y-3.432 E13.55727
G1 X14.141 Y-6.470 E13.58797
G1 X16.396 Y-7.773 E13.61429
G1 X16.396 Y-10.811 E13.64499
G1 X14.141 Y-12.113 E13.67130
G1 X14.141 Y-13.417 E13.68447
G1 X18.903 Y-13.780 E13.73272
G1 X18.903 Y-12.113 E13.74956
G1 X13.890 Y-12.113 F7800.000
G1 X11.635 Y-10.811 E13.77588 F1800.000
G1 X11.635 Y-7.773 E13.80658
G1 X13.890 Y-6.470 E13.83289
G1 X13.890 Y-3.432 E13.86359
G1 X11.635 Y-2.129 E13.88990
G1 X11.635 Y0.909 E13.92060
G1 X13.890 Y2.211 E13.94692
G1 X13.890 Y5.250 E13.97762
G1 X11.635 Y6.552 E14.00393
G1 X11.635 Y7.998 E14.01854
G1 X11.384 Y7.953 E14.02111
G1 X11.384 Y6.552 E14.03527
G1 X9.128 Y5.250 E14.06158
G1 X9.128 Y2.211 E14.09228
G1 X11.384 Y0.909 E14.11859
G1 X11.384 Y-2.129 E14.14929
G1 X9.128 Y-3.432 E14.17561
G1 X9.128 Y-6.470 E14.20631
G1 X11.384 Y-7.773 E14.23262
G1 X11.384 Y-10.811 E14.26332
G1 X9.128 Y-12.113 E14.28964
G1 X9.128 Y-13.015 E14.29875
G1 X13.890 Y-13.398 E14.34701
G1 X13.890 Y-12.113 E14.35999
G1 X8.878 Y-12.113 F7800.000
G1 X6.622 Y-10.811 E14.38630 F1800.000
G1 X6.622 Y-7.773 E14.41700
G1 X8.878 Y-6.470 E14.44331
G1 X8.878 Y-3.432 E14.47401
G1 X6.994 Y-2.344 E14.49599
G1 X7.141 Y-3.472 E14.50749
G1 X6.995 Y-4.630 E14.51928
G1 X6.566 Y-5.714 E14.53105
G1 X5.881 Y-6.657 E14.54283
G1 X5.288 Y-7.147 E14.55060
G1 X6.372 Y-7.773 E14.56324
G1 X6.372 Y-10.811 E14.59394
G1 X4.116 Y-12.113 E14.62025
G1 X4.116 Y-12.602 E14.62518
G1 X8.878 Y-12.995 E14.67346
G1 X8.878 Y-12.113 E14.68236
G1 X3.865 Y-12.113 F7800.000
G1 X1.610 Y-10.811 E14.70867 F1800.000
G1 X1.610 Y-8.034 E14.73674
G1 X1.359 Y-7.953 E14.73940
G1 X1.359 Y-10.811 E14.76827
G1 X-0.896 Y-12.113 E14.79458
G1 X-0.896 Y-12.169 E14.79514
G1 X3.865 Y-12.580 E14.84343
G1 X3.865 Y-12.113 E14.84815
G1 X-1.147 Y-12.113 F7800.000
G1 X-3.403 Y-10.811 E14.87446 F1800.000
G1 X-3.403 Y-7.773 E14.90516
G1 X-1.147 Y-6.470 E14.93148
G1 X-1.147 Y-6.339 E14.93281
G1 X-1.271 Y-6.207 E14.93463
G1 X-1.832 Y-5.186 E14.94641
G1 X-2.122 Y-4.057 E14.95818
G1 X-2.117 Y-2.872 E14.97016
G1 X-3.403 Y-2.129 E14.98515
G1 X-3.403 Y0.909 E15.01585
G1 X-1.147 Y2.211 E15.04217
G1 X-1.147 Y5.250 E15.07287
G1 X-1.927 Y5.701 E15.08197
G1 X-5.909 Y5.059 E15.12271
G1 X-5.909 Y2.211 E15.15149
G1 X-3.653 Y0.909 E15.17780
G1 X-3.653 Y-2.129 E15.20850
G1 X-5.909 Y-3.432 E15.23482
G1 X-5.909 Y-6.470 E15.26551
G1 X-3.653 Y-7.773 E15.29183
G1 X-3.653 Y-10.811 E15.32253
G1 X-5.316 Y-11.772 E15.34193
G1 X-1.147 Y-12.147 E15.38423
G1 X-1.147 Y-12.113 E15.38457
G1 X-8.415 Y-10.811 F7800.000
G1 X-8.415 Y-7.773 E15.41527 F1800.000
G1 X-6.159 Y-6.470 E15.44158
G1 X-6.159 Y-3.432 E15.47228
G1 X-8.415 Y-2.129 E15.49860
G1 X-8.415 Y0.909 E15.52930
G1 X-6.159 Y2.211 E15.55561
G1 X-6.159 Y5.019 E15.58398
G1 X-10.921 Y4.277 E15.63267
G1 X-10.921 Y2.211 E15.65355
G1 X-8.666 Y0.909 E15.67986
G1 X-8.666 Y-2.129 E15.71056
G1 X-10.921 Y-3.432 E15.73687
G1 X-10.921 Y-6.470 E15.76757
G1 X-8.666 Y-7.773 E15.79389
G1 X-8.666 Y-10.811 E15.82459
G1 X-9.643 Y-11.375 E15.83599
G1 X-7.022 Y-11.615 E15.86257
G1 X-8.415 Y-10.811 E15.87882
G1 X-13.427 Y-10.811 F7800.000
G1 X-13.427 Y-7.773 E15.90952 F1800.000
G1 X-11.172 Y-6.470 E15.93584
G1 X-11.172 Y-3.432 E15.96654
G1 X-13.427 Y-2.129 E15.99285
G1 X-13.427 Y0.909 E16.02355
G1 X-11.172 Y2.211 E16.04987
G1 X-11.172 Y4.239 E16.07036
G1 X-15.933 Y3.520 E16.11901
G1 X-15.933 Y2.211 E16.13223
G1 X-13.678 Y0.909 E16.15855
G1 X-13.678 Y-2.129 E16.18925
G1 X-15.933 Y-3.432 E16.21556
G1 X-15.933 Y-6.470 E16.24626
G1 X-13.678 Y-7.773 E16.27258
G1 X-13.678 Y-10.811 E16.30328
G1 X-13.934 Y-10.959 E16.30626
G1 X-13.017 Y-11.048 E16.31556
G1 X-13.427 Y-10.811 E16.32034
G1 X-18.440 Y-7.773 F7800.000
G1 X-16.184 Y-6.470 E16.34666 F1800.000
G1 X-16.184 Y-3.432 E16.37736
G1 X-18.440 Y-2.129 E16.40367
G1 X-18.440 Y0.909 E16.43437
G1 X-16.184 Y2.211 E16.46068
G1 X-16.184 Y3.482 E16.47353
G1 X-20.946 Y2.798 E16.52213
G1 X-20.946 Y2.211 E16.52806
G1 X-18.690 Y0.909 E16.55437
G1 X-18.690 Y-2.129 E16.58507
G1 X-20.946 Y-3.432 E16.61139
G1 X-20.946 Y-6.470 E16.64209
G1 X-18.690 Y-7.773 E16.66840
G1 X-18.690 Y-10.484 E16.69580
G1 X-18.440 Y-10.510 E16.69834
G1 X-18.440 Y-7.773 E16.72600
G1 X-23.452 Y-7.773 F7800.000
G1 X-21.196 Y-6.470 E16.75232 F1800.000
G1 X-21.196 Y-3.432 E16.78302
G1 X-23.452 Y-2.129 E16.80933
G1 X-23.452 Y0.909 E16.84003
G1 X-21.196 Y2.211 E16.86634
G1 X-21.196 Y2.763 E16.87191
G1 X-25.818 Y2.131 E16.91904
G1 X-23.703 Y0.909 E16.94372
G1 X-23.703 Y-2.129 E16.97442
G1 X-25.958 Y-3.432 E17.00074
G1 X-25.958 Y-6.470 E17.03144
G1 X-23.703 Y-7.773 E17.05775
G1 X-23.703 Y-9.964 E17.07989
G1 X-23.452 Y-9.992 E17.08244
G1 X-23.452 Y-7.773 E17.10486
G1 X-28.464 Y-7.773 F7800.000
G1 X-26.209 Y-6.470 E17.13117 F1800.000
G1 X-26.209 Y-3.432 E17.16187
G1 X-28.464 Y-2.129 E17.18818
G1 X-28.464 Y0.909 E17.21888
G1 X-26.511 Y2.037 E17.24167
G1 X-29.913 Y1.601 E17.27632
G1 X-28.715 Y0.909 E17.29029
G1 X-28.715 Y-2.129 E17.32099
G1 X-30.971 Y-3.432 E17.34730
G1 X-30.971 Y-6.470 E17.37800
G1 X-28.715 Y-7.773 E17.40432
G1 X-28.715 Y-9.412 E17.42088
G1 X-28.464 Y-9.439 E17.42342
G1 X-28.464 Y-7.773 E17.44026
G1 X-33.477 Y-7.773 F7800.000
G1 X-31.221 Y-6.470 E17.46658 F1800.000
G1 X-31.221 Y-3.432 E17.49728
G1 X-33.477 Y-2.129 E17.52359
G1 X-33.477 Y0.909 E17.55429
G1 X-32.939 Y1.220 E17.56057
G1 X-34.028 Y1.083 E17.57167
G1 X-33.727 Y0.909 E17.57517
G1 X-33.727 Y-2.129 E17.60587
G1 X-35.983 Y-3.432 E17.63219
G1 X-35.983 Y-6.470 E17.66289
G1 X-33.727 Y-7.773 E17.68920
G1 X-33.727 Y-8.831 E17.69990
G1 X-33.477 Y-8.860 E17.70245
G1 X-33.477 Y-7.773 E17.71344
G1 X-38.489 Y-7.773 F7800.000
G1 X-36.234 Y-6.470 E17.73975 F1800.000
G1 X-36.234 Y-3.432 E17.77045
G1 X-38.489 Y-2.129 E17.79676
