; generated by Slic3r 1.2.9 on 2016-07-17 at 16:15:42

; external perimeters extrusion width = 0.40mm
; perimeters extrusion width = 0.67mm
; infill extrusion width = 0.67mm
; solid infill extrusion width = 0.67mm
; top infill extrusion width = 0.67mm

M107
M104 S215 ; set temperature
G28 ; home all axes
G1 Y-60 Z5 F5000 ; lift nozzle


M109 S215 ; wait for temperature to be reached
G21 ; set units to millimeters
G90 ; use absolute coordinates
M82 ; use absolute distances for extrusion
G92 E0
G1 E-3.00000 F2400.00000
G92 E0
G1 Z0.300 F6000.000
G1 X-20.165 Y40.523 F6000.000
G1 E3.00000 F2400.00000
G1 X-20.941 Y40.464 E3.04068 F1800.000
G1 X-30.726 Y38.833 E3.55897
G1 X-32.464 Y38.142 E3.65664
G1 X-33.760 Y36.795 E3.75431
G1 X-34.419 Y34.474 E3.88037
G1 X-34.419 Y-35.955 E7.55991
G1 X-34.023 Y-37.782 E7.65758
G1 X-32.908 Y-39.282 E7.75526
G1 X-31.272 Y-40.187 E7.85293
G1 X-30.000 Y-40.374 E7.92008
G1 X30.000 Y-40.374 E11.05477
G1 X31.827 Y-39.978 E11.15245
G1 X33.327 Y-38.863 E11.25012
G1 X34.232 Y-37.226 E11.34779
G1 X34.419 Y-35.955 E11.41494
G1 X34.419 Y34.474 E15.09448
G1 X34.023 Y36.301 E15.19216
G1 X32.908 Y37.801 E15.28983
G1 X30.726 Y38.833 E15.41589
G1 X23.876 Y39.974 E15.77871
G1 X23.200 Y40.034 E15.81419
G1 X-20.105 Y40.523 E18.07678
G1 F4800
G1 X-20.941 Y40.464 E17.67854
G1 F4800
G1 X-26.032 Y39.615 E15.22678
G1 E15.07678 F2400.00000
G92 E0
G1 X-29.423 Y33.985 F6000.000
G1 E3.00000 F2400.00000
G1 X-29.423 Y-35.378 E6.62383 F1800.000
G1 X-7.057 Y-35.378 E7.79234
G1 X-8.738 Y-26.412 E8.26893
G1 X-10.814 Y-15.613 E8.84346
G1 X-16.395 Y12.802 E10.35631
G1 X-18.090 Y21.521 E10.82039
G1 X-19.727 Y30.181 E11.28082
G1 X-20.681 Y35.442 E11.56018
G1 X-29.364 Y33.995 E12.02005
G1 X-29.800 Y34.304 F6000.000
G1 X-29.800 Y-35.755 E14.95275 F1800.000
G1 X-6.603 Y-35.755 E15.92377
G1 X-8.367 Y-26.341 E16.32468
G1 X-10.443 Y-15.541 E16.78507
G1 X-16.024 Y12.874 E17.99724
G1 X-17.719 Y21.592 E18.36901
G1 X-19.356 Y30.249 E18.73783
G1 X-20.376 Y35.875 E18.97717
G1 X-29.741 Y34.314 E19.37458
G1 X-29.581 Y33.970 F6000.000
G1 X-20.274 Y30.616 F6000.000
G1 X-20.482 Y30.561 E19.38583 F1800.000
G1 X-24.294 Y34.373 E19.66748
G1 X-21.053 Y34.913 E19.83913
G1 X-20.274 Y30.616 E20.06725
G1 X-18.132 Y19.325 F6000.000
G1 X-17.918 Y18.222 E20.12596 F1800.000
G1 X-23.061 Y23.365 E20.50596
G1 X-28.962 Y21.784 E20.82514
G1 X-28.962 Y33.595 E21.44220
G1 X-25.056 Y34.246 E21.64909
G1 X-20.927 Y30.116 E21.95418
G1 X-22.617 Y23.809 E22.29532
G1 X-18.132 Y19.325 E22.62665
G1 X-16.847 Y12.713 F6000.000
G1 X-15.977 Y8.283 E22.86251 F1800.000
G1 X-19.364 Y11.671 E23.11280
G1 X-17.788 Y17.554 E23.43098
G1 X-16.847 Y12.713 E23.68861
G1 X-13.805 Y-2.774 F6000.000
G1 X-13.588 Y-3.880 E23.74749 F1800.000
G1 X-16.556 Y-0.912 E23.96681
G1 X-22.863 Y-2.602 E24.30795
G1 X-28.250 Y2.785 E24.70595
G1 X-26.560 Y9.092 E25.04709
G1 X-28.962 Y11.494 E25.22457
G1 X-28.962 Y12.383 E25.27099
G1 X-26.116 Y9.537 E25.48129
G1 X-19.808 Y11.227 E25.82244
G1 X-15.759 Y7.178 E26.12160
G1 X-15.042 Y3.525 E26.31608
G1 X-16.112 Y-0.467 E26.53201
G1 X-13.805 Y-2.774 E26.70246
G1 X-12.291 Y-10.483 F6000.000
G1 X-11.633 Y-13.832 E26.88075 F1800.000
G1 X-12.859 Y-12.605 E26.97136
G1 X-12.291 Y-10.483 E27.08615
G1 X-10.051 Y-25.188 F6000.000
G1 X-16.358 Y-26.878 E27.42729 F1800.000
G1 X-21.745 Y-21.491 E27.82529
G1 X-20.055 Y-15.184 E28.16643
G1 X-25.442 Y-9.797 E28.56443
G1 X-28.962 Y-10.741 E28.75483
G1 X-28.962 Y2.269 E29.43452
G1 X-28.694 Y2.341 E29.44900
G1 X-23.308 Y-3.046 E29.84700
G1 X-24.998 Y-9.353 E30.18814
G1 X-19.611 Y-14.740 E30.58614
G1 X-13.304 Y-13.050 E30.92728
G1 X-11.416 Y-14.938 E31.06677
G1 X-9.561 Y-24.572 E31.57935
G1 X-9.607 Y-24.744 E31.58864
G1 X-9.509 Y-24.841 E31.59588
G1 X-9.298 Y-25.941 E31.65440
G1 X-10.051 Y-25.188 E31.71007
G1 X-18.493 Y-33.629 F6000.000
G1 X-17.205 Y-34.917 E31.80519 F1800.000
G1 X-18.094 Y-34.917 E31.85162
G1 X-18.937 Y-34.074 E31.91391
G1 X-22.084 Y-34.917 E32.08410
G1 X-26.091 Y-34.917 E32.29347
G1 X-28.962 Y-32.046 E32.50559
G1 X-28.962 Y-24.148 E32.91819
G1 X-28.941 Y-24.070 E32.92245
G1 X-28.962 Y-24.049 E32.92401
G1 X-28.962 Y-23.160 E32.97043
G1 X-28.497 Y-23.625 E33.00481
G1 X-22.189 Y-21.935 E33.34596
G1 X-16.803 Y-27.322 E33.74396
G1 X-18.493 Y-33.629 E34.08510
G1 X-28.962 Y-32.934 F6000.000
G1 X-26.980 Y-34.917 E34.23156 F1800.000
G1 X-28.962 Y-34.917 E34.33513
G1 X-28.962 Y-32.934 E34.43870
G1 F4800
G1 X-28.962 Y-34.917 E33.49709
G1 F4800
G1 X-26.980 Y-34.917 E32.55549
G1 F4800
G1 X-28.419 Y-33.478 E31.58870
G1 E31.43870 F2400.00000
G92 E0
G1 X-13.241 Y-0.221 F6000.000
G1 X3.516 Y10.907 F6000.000
G1 X3.190 Y15.317 F6000.000
G1 X3.026 Y17.526 F6000.000
G1 X22.395 Y16.663 F6000.000
G1 X23.702 Y34.938 F6000.000
G1 E3.00000 F2400.00000
G1 X23.349 Y25.538 E3.49144 F1800.000
G1 X22.972 Y16.637 E3.95692
G1 X22.558 Y7.781 E4.42009
G1 X22.107 Y-1.005 E4.87972
G1 X21.622 Y-9.697 E5.33456
G1 X21.105 Y-18.274 E5.78345
G1 X20.559 Y-26.712 E6.22525
G1 X19.956 Y-35.378 E6.67905
G1 X29.423 Y-35.378 E7.17366
G1 X29.423 Y33.985 E10.79749
G1 X23.761 Y34.928 E11.09735
G1 X23.341 Y35.381 F6000.000
G1 X22.972 Y25.553 E11.50902 F1800.000
G1 X22.595 Y16.654 E11.88190
G1 X22.181 Y7.800 E12.25294
G1 X21.730 Y-0.985 E12.62113
G1 X21.246 Y-9.675 E12.98550
G1 X20.729 Y-18.250 E13.34509
G1 X20.182 Y-26.687 E13.69900
G1 X19.551 Y-35.755 E14.07950
G1 X29.800 Y-35.755 E14.50851
G1 X29.800 Y34.304 E17.44121
G1 X23.400 Y35.371 E17.71280
G1 X23.513 Y35.020 F6000.000
G1 X28.962 Y17.790 F6000.000
G1 X28.070 Y17.551 E17.76102 F1800.000
G1 X23.659 Y21.962 E18.08696
G1 X23.881 Y27.404 E18.37151
G1 X24.374 Y29.245 E18.47106
G1 X23.965 Y29.654 E18.50126
G1 X23.997 Y30.510 E18.54604
G1 X24.818 Y29.689 E18.60669
G1 X28.962 Y30.800 E18.83083
G1 X28.962 Y17.790 E19.51052
G1 X28.962 Y7.774 F6000.000
G1 X28.962 Y6.885 E19.55694 F1800.000
G1 X25.492 Y10.355 E19.81334
G1 X23.110 Y9.717 E19.94219
G1 X23.623 Y21.110 E20.53802
G1 X27.626 Y17.107 E20.83380
G1 X25.936 Y10.799 E21.17494
G1 X28.962 Y7.774 E21.39851
G1 X28.962 Y-14.734 F6000.000
G1 X25.689 Y-15.611 E21.57552 F1800.000
G1 X21.953 Y-11.874 E21.85161
G1 X22.431 Y-3.467 E22.29156
G1 X28.744 Y-1.783 E22.63291
G1 X28.962 Y-2.001 E22.64900
G1 X28.962 Y-14.734 E23.31427
G1 X28.962 Y-27.744 F6000.000
G1 X28.962 Y-34.917 E23.68901 F1800.000
G1 X27.224 Y-34.917 E23.77983
G1 X26.808 Y-34.501 E23.81056
G1 X28.498 Y-28.194 E24.15171
G1 X23.111 Y-22.807 E24.54970
G1 X21.241 Y-23.308 E24.65084
G1 X21.902 Y-12.712 E25.20548
G1 X25.245 Y-16.055 E25.45249
G1 X23.555 Y-22.363 E25.79363
G1 X28.942 Y-27.749 E26.19163
G1 X28.962 Y-27.744 E26.19272
M106 S99.45
G1 F4800
G1 X28.942 Y-27.749 E26.18283
G1 F4800
G1 X24.714 Y-23.521 E23.34272
G1 E23.19272 F2400.00000
G92 E0
G1 Z0.500 F6000.000
G1 X-20.774 Y35.309 F6000.000
G1 E3.00000 F2400.00000
G1 X-29.307 Y33.887 E3.45195 F1200.000
G1 X-29.307 Y-35.012 E7.05158
G1 X-7.244 Y-35.012 E8.20428
G1 X-8.852 Y-26.433 E8.66029
G1 X-10.927 Y-15.635 E9.23479
G1 X-16.508 Y12.779 E10.74764
G1 X-18.203 Y21.499 E11.21173
G1 X-19.840 Y30.160 E11.67221
G1 X-20.764 Y35.250 E11.94250
G1 X-20.376 Y35.875 F6000.000
G1 X-29.800 Y34.304 E12.22617 F600.000
G1 X-29.800 Y-35.505 E14.29889
G1 X-6.650 Y-35.505 E14.98624
G1 X-8.367 Y-26.341 E15.26305
G1 X-10.443 Y-15.541 E15.58961
G1 X-16.024 Y12.874 E16.44939
G1 X-17.719 Y21.592 E16.71309
G1 X-19.356 Y30.249 E16.97469
G1 X-20.366 Y35.816 E17.14267
G1 X-20.684 Y35.619 F6000.000
G1 X-17.032 Y12.677 F6000.000
G1 X-16.107 Y7.970 E17.39329 F3000.000
G1 X-19.202 Y11.064 E17.62190
G1 X-17.763 Y16.434 E17.91237
G1 X-17.032 Y12.677 E18.11236
G1 X-25.442 Y-9.797 F6000.000
G1 X-28.773 Y-10.690 E18.29255 F3000.000
G1 X-28.773 Y2.320 E18.97224
G1 X-28.694 Y2.341 E18.97651
G1 X-26.723 Y9.699 E19.37451
G1 X-28.773 Y11.750 E19.52602
G1 X-28.773 Y21.834 E20.05287
G1 X-23.061 Y23.365 E20.36184
G1 X-21.089 Y30.723 E20.75984
G1 X-24.511 Y34.145 E21.01266
G1 X-21.206 Y34.696 E21.18772
G1 X-20.457 Y30.567 E21.40693
G1 X-20.482 Y30.561 E21.40829
G1 X-22.454 Y23.202 E21.80629
G1 X-18.264 Y19.012 E22.11589
G1 X-18.036 Y17.841 E22.17820
G1 X-19.808 Y11.227 E22.53597
G1 X-26.116 Y9.537 E22.87711
G1 X-28.087 Y2.178 E23.27511
G1 X-23.470 Y-2.439 E23.61625
G1 X-25.442 Y-9.797 E24.01425
G1 X-12.264 Y-11.598 F6000.000
G1 X-11.764 Y-14.145 E24.14989 F3000.000
G1 X-12.697 Y-13.212 E24.21882
G1 X-12.264 Y-11.598 E24.30615
G1 X-7.887 Y-34.478 F6000.000
G1 X-18.088 Y-34.478 E24.83910 F3000.000
G1 X-18.330 Y-34.236 E24.85696
G1 X-16.358 Y-26.878 E25.25496
G1 X-10.051 Y-25.188 E25.59610
G1 X-9.809 Y-24.283 E25.64506
G1 X-7.887 Y-34.478 E26.18710
G1 X-22.633 Y-34.478 F6000.000
G1 X-26.974 Y-34.478 E26.41388 F3000.000
G1 X-28.773 Y-32.679 E26.54681
G1 X-28.773 Y-24.658 E26.96587
G1 X-28.497 Y-23.625 E27.02171
G1 X-22.189 Y-21.935 E27.36285
G1 X-20.218 Y-14.577 E27.76085
G1 X-24.835 Y-9.960 E28.10199
G1 X-22.863 Y-2.602 E28.49999
G1 X-16.556 Y-0.912 E28.84113
G1 X-15.291 Y3.811 E29.09657
G1 X-15.016 Y2.410 E29.17116
G1 X-15.949 Y-1.074 E29.35963
G1 X-13.936 Y-3.088 E29.50840
G1 X-12.539 Y-10.197 E29.88692
G1 X-13.304 Y-13.050 E30.04122
G1 X-19.611 Y-14.740 E30.38236
G1 X-21.583 Y-22.098 E30.78036
G1 X-16.965 Y-26.715 E31.12150
G1 X-18.937 Y-34.074 E31.51950
G1 X-20.446 Y-34.478 E31.60112
G1 X-22.633 Y-34.478 E31.71539
G1 F4800
G1 X-20.446 Y-34.478 E30.67644
G1 F4800
G1 X-18.937 Y-34.074 E29.93436
G1 F4800
G1 X-18.355 Y-31.900 E28.86539
G1 E28.71539 F2400.00000
G92 E0
G1 X-12.810 Y-2.410 F6000.000
G1 X3.837 Y6.511 F6000.000
G1 X3.423 Y12.159 F6000.000
G1 X3.258 Y14.392 F6000.000
G1 X3.190 Y15.317 F6000.000
G1 X22.295 Y14.444 F6000.000
G1 X23.813 Y34.803 F6000.000
G1 E3.00000 F2400.00000
G1 X23.465 Y25.534 E3.48460 F1200.000
G1 X23.088 Y16.632 E3.95010
G1 X22.673 Y7.776 E4.41331
G1 X22.222 Y-1.011 E4.87296
G1 X21.737 Y-9.704 E5.32783
G1 X21.221 Y-18.281 E5.77674
G1 X20.674 Y-26.720 E6.21857
G1 X20.097 Y-35.012 E6.65283
G1 X29.307 Y-35.012 E7.13400
G1 X29.307 Y33.887 E10.73363
G1 X23.872 Y34.793 E11.02152
G1 X23.341 Y35.381 F6000.000
G1 X22.972 Y25.553 E11.31352 F600.000
G1 X22.595 Y16.654 E11.57800
G1 X22.181 Y7.800 E11.84118
G1 X21.730 Y-0.985 E12.10233
G1 X21.246 Y-9.675 E12.36078
G1 X20.729 Y-18.250 E12.61583
G1 X20.182 Y-26.687 E12.86686
G1 X19.569 Y-35.505 E13.12930
G1 X29.800 Y-35.505 E13.43306
G1 X29.800 Y34.304 E15.50579
G1 X23.400 Y35.371 E15.69842
G1 X23.513 Y35.020 F6000.000
G1 X24.211 Y29.852 F6000.000
G1 X24.153 Y29.636 E15.71012 F3000.000
G1 X24.163 Y29.900 E15.72393
G1 X24.211 Y29.852 E15.72748
G1 X28.744 Y-1.783 F6000.000
G1 X22.623 Y-3.423 E16.05858 F3000.000
G1 X23.301 Y9.768 E16.74867
G1 X25.492 Y10.355 E16.86717
G1 X27.463 Y17.714 E17.26517
G1 X23.822 Y21.355 E17.53421
G1 X24.047 Y26.813 E17.81959
G1 X24.818 Y29.689 E17.97518
G1 X28.773 Y30.749 E18.18911
G1 X28.773 Y17.739 E18.86880
G1 X28.070 Y17.551 E18.90681
G1 X26.099 Y10.193 E19.30481
G1 X28.773 Y7.518 E19.50242
G1 X28.773 Y-1.675 E19.98270
G1 X28.744 Y-1.783 E19.98855
G1 X23.111 Y-22.807 F6000.000
G1 X21.434 Y-23.256 E20.07927 F3000.000
G1 X22.106 Y-12.472 E20.64381
G1 X25.083 Y-15.449 E20.86376
G1 X23.111 Y-22.807 E21.26176
G1 X28.773 Y-28.379 F6000.000
G1 X27.139 Y-34.478 E21.59165 F3000.000
G1 X26.488 Y-34.478 E21.62564
G1 X28.335 Y-27.587 E21.99837
G1 X23.718 Y-22.970 E22.33951
G1 X25.689 Y-15.611 E22.73751
G1 X28.773 Y-14.785 E22.90431
G1 X28.773 Y-28.379 E23.61452
G1 F4800
G1 X28.773 Y-22.379 E20.76452
G1 E20.61452 F2400.00000
G92 E0
G1 Z0.700 F6000.000
G1 X-20.774 Y35.309 F6000.000
G1 E3.00000 F2400.00000
G1 X-29.307 Y33.887 E3.45195 F1200.000
G1 X-29.307 Y-34.812 E7.04113
G1 X-7.279 Y-34.812 E8.19200
G1 X-8.852 Y-26.433 E8.63740
G1 X-10.927 Y-15.635 E9.21190
G1 X-16.508 Y12.779 E10.72475
G1 X-18.203 Y21.499 E11.18885
G1 X-19.840 Y30.160 E11.64932
G1 X-20.764 Y35.250 E11.91962
G1 X-20.376 Y35.875 F6000.000
G1 X-29.800 Y34.304 E12.20328 F600.000
G1 X-29.800 Y-35.305 E14.27007
G1 X-6.686 Y-35.305 E14.95634
G1 X-8.367 Y-26.341 E15.22712
G1 X-10.443 Y-15.541 E15.55367
G1 X-16.024 Y12.874 E16.41345
G1 X-17.719 Y21.592 E16.67715
G1 X-19.356 Y30.249 E16.93875
G1 X-20.366 Y35.816 E17.10673
G1 X-20.684 Y35.619 F6000.000
G1 X-20.513 Y30.878 F6000.000
G1 X-21.089 Y30.723 E17.13787 F3000.000
G1 X-24.511 Y34.145 E17.39069
G1 X-21.206 Y34.696 E17.56575
G1 X-20.513 Y30.878 E17.76850
G1 X-18.728 Y21.399 F6000.000
G1 X-18.264 Y19.012 E17.89552 F3000.000
G1 X-22.454 Y23.202 E18.20512
G1 X-28.773 Y21.509 E18.54692
G1 X-28.773 Y22.159 E18.58090
G1 X-22.617 Y23.809 E18.91390
G1 X-20.927 Y30.116 E19.25504
G1 X-20.401 Y30.257 E19.28348
G1 X-18.728 Y21.399 E19.75447
G1 X-28.250 Y2.785 F6000.000
G1 X-28.773 Y2.645 E19.78278 F3000.000
G1 X-28.773 Y11.750 E20.25846
G1 X-26.723 Y9.699 E20.40998
G1 X-19.364 Y11.671 E20.80798
G1 X-17.899 Y17.138 E21.10367
G1 X-16.107 Y7.970 E21.59171
G1 X-19.202 Y11.064 E21.82032
G1 X-26.560 Y9.092 E22.21832
G1 X-28.250 Y2.785 E22.55947
G1 X-24.998 Y-9.353 F6000.000
G1 X-28.773 Y-10.365 E22.76368 F3000.000
G1 X-28.773 Y1.994 E23.40939
G1 X-28.087 Y2.178 E23.44649
G1 X-23.470 Y-2.439 E23.78763
G1 X-16.112 Y-0.467 E24.18563
G1 X-15.153 Y3.111 E24.37915
G1 X-13.936 Y-3.088 E24.70918
G1 X-15.949 Y-1.074 E24.85795
G1 X-23.308 Y-3.046 E25.25595
G1 X-24.998 Y-9.353 E25.59709
G1 X-21.745 Y-21.491 F6000.000
G1 X-28.773 Y-23.374 E25.97723 F3000.000
G1 X-28.773 Y-11.015 E26.62293
G1 X-24.835 Y-9.960 E26.83595
G1 X-20.218 Y-14.577 E27.17709
G1 X-12.859 Y-12.605 E27.57509
G1 X-12.402 Y-10.897 E27.66747
G1 X-11.764 Y-14.145 E27.84040
G1 X-12.697 Y-13.212 E27.90933
G1 X-20.055 Y-15.184 E28.30733
G1 X-21.745 Y-21.491 E28.64847
G1 X-18.493 Y-33.629 F6000.000
G1 X-20.913 Y-34.278 E28.77940 F3000.000
G1 X-27.174 Y-34.278 E29.10649
G1 X-28.773 Y-32.679 E29.22464
G1 X-28.773 Y-24.025 E29.67677
G1 X-21.583 Y-22.098 E30.06570
G1 X-16.965 Y-26.715 E30.40685
G1 X-9.715 Y-24.772 E30.79903
G1 X-9.596 Y-25.391 E30.83194
G1 X-16.803 Y-27.322 E31.22175
G1 X-18.493 Y-33.629 E31.56290
G1 X-18.330 Y-34.236 F6000.000
G1 X-18.288 Y-34.278 E31.56598 F3000.000
G1 X-18.486 Y-34.278 E31.57629
G1 X-18.330 Y-34.236 E31.58472
G1 F4800
G1 X-18.486 Y-34.278 E31.50813
G1 F4800
G1 X-18.288 Y-34.278 E31.41434
G1 F4800
G1 X-18.330 Y-34.236 E31.38631
G1 E28.58472 F2400.00000
G92 E0
G1 X-12.810 Y-2.410 F6000.000
G1 X3.837 Y6.511 F6000.000
G1 X3.423 Y12.159 F6000.000
G1 X3.258 Y14.392 F6000.000
G1 X3.190 Y15.317 F6000.000
G1 X22.295 Y14.444 F6000.000
G1 X23.813 Y34.803 F6000.000
G1 E3.00000 F2400.00000
G1 X23.465 Y25.534 E3.48460 F1200.000
G1 X23.088 Y16.632 E3.95010
G1 X22.673 Y7.776 E4.41331
G1 X22.222 Y-1.011 E4.87296
G1 X21.737 Y-9.704 E5.32783
G1 X21.221 Y-18.281 E5.77674
G1 X20.674 Y-26.720 E6.21857
G1 X20.112 Y-34.812 E6.64235
G1 X29.307 Y-34.812 E7.12277
G1 X29.307 Y33.887 E10.71195
G1 X23.872 Y34.793 E10.99984
G1 X23.341 Y35.381 F6000.000
G1 X22.972 Y25.553 E11.29184 F600.000
G1 X22.595 Y16.654 E11.55632
G1 X22.181 Y7.800 E11.81950
G1 X21.730 Y-0.985 E12.08066
G1 X21.246 Y-9.675 E12.33910
G1 X20.729 Y-18.250 E12.59416
G1 X20.182 Y-26.687 E12.84518
G1 X19.584 Y-35.305 E13.10167
G1 X29.800 Y-35.305 E13.40501
G1 X29.800 Y34.304 E15.47179
G1 X23.400 Y35.371 E15.66443
G1 X23.513 Y35.020 F6000.000
G1 X28.773 Y31.074 F6000.000
G1 X24.211 Y29.852 E15.91118 F3000.000
G1 X24.163 Y29.900 E15.91473
G1 X24.324 Y34.176 E16.13831
G1 X28.773 Y33.435 E16.37399
G1 X28.773 Y31.074 E16.49732
G1 X28.773 Y18.065 F6000.000
G1 X27.463 Y17.714 E16.56816 F3000.000
G1 X23.822 Y21.355 E16.83720
G1 X24.100 Y28.224 E17.19637
G1 X24.374 Y29.245 E17.25158
G1 X28.773 Y30.424 E17.48955
G1 X28.773 Y18.065 E18.13525
G1 X28.773 Y17.414 F6000.000
G1 X28.773 Y7.518 E18.65226 F3000.000
G1 X26.099 Y10.193 E18.84987
G1 X23.285 Y9.439 E19.00203
G1 X23.316 Y10.097 E19.03649
G1 X25.936 Y10.799 E19.17819
G1 X27.626 Y17.107 E19.51933
G1 X28.773 Y17.414 E19.58138
G1 X28.773 Y-2.100 F6000.000
G1 X22.604 Y-3.753 E19.91504 F3000.000
G1 X22.641 Y-3.093 E19.94959
G1 X28.773 Y-1.450 E20.28126
G1 X28.773 Y-2.100 E20.31525
G1 X23.555 Y-22.363 F6000.000
G1 X21.455 Y-22.925 E20.42885 F3000.000
G1 X22.106 Y-12.472 E20.97605
G1 X25.083 Y-15.449 E21.19600
G1 X28.773 Y-14.460 E21.39562
