; generated by Slic3r 1.2.9 on 2016-07-17 at 16:14:57

; external perimeters extrusion width = 0.40mm
; perimeters extrusion width = 0.67mm
; infill extrusion width = 0.67mm
; solid infill extrusion width = 0.67mm
; top infill extrusion width = 0.67mm

M107
M104 S215 ; set temperature
G28 ; home all axes
G1 Y-60 Z5 F5000 ; lift nozzle


M109 S215 ; wait for temperature to be reached
G21 ; set units to millimeters
G90 ; use absolute coordinates
M82 ; use absolute distances for extrusion
G92 E0
G1 E-3.00000 F2400.00000
G92 E0
G1 Z0.300 F6000.000
G1 X23.645 Y49.945 F6000.000
G1 E3.00000 F2400.00000
G1 X-26.635 Y49.461 E5.62699 F1800.000
G1 X-27.319 Y49.401 E5.66286
G1 X-30.726 Y48.833 E5.84333
G1 X-32.464 Y48.142 E5.94101
G1 X-33.760 Y46.795 E6.03868
G1 X-34.419 Y44.474 E6.16474
G1 X-34.419 Y-45.526 E10.86678
G1 X-34.023 Y-47.353 E10.96445
G1 X-32.908 Y-48.853 E11.06212
G1 X-31.272 Y-49.758 E11.15980
G1 X-30.000 Y-49.945 E11.22695
G1 X30.000 Y-49.945 E14.36164
G1 X31.827 Y-49.549 E14.45932
G1 X33.327 Y-48.434 E14.55699
G1 X34.232 Y-46.798 E14.65466
G1 X34.419 Y-45.526 E14.72181
G1 X34.419 Y44.474 E19.42385
G1 X34.023 Y46.301 E19.52153
G1 X32.908 Y47.801 E19.61920
G1 X30.726 Y48.833 E19.74526
G1 X24.414 Y49.885 E20.07962
G1 X23.705 Y49.940 E20.11678
G1 F4800
G1 X17.705 Y49.883 E17.26678
G1 E17.11678 F2400.00000
G92 E0
G1 X24.285 Y44.841 F6000.000
G1 E3.00000 F2400.00000
G1 X24.525 Y36.019 E3.46108 F1800.000
G1 X24.693 Y25.979 E3.98571
G1 X24.767 Y15.649 E4.52541
G1 X24.770 Y9.329 E4.85560
G1 X24.744 Y2.929 E5.18996
G1 X24.633 Y-7.887 E5.75509
G1 X24.441 Y-18.855 E6.32820
G1 X24.114 Y-32.157 E7.02335
G1 X23.743 Y-43.898 E7.63707
G1 X29.423 Y-44.845 E7.93791
G1 X29.423 Y43.985 E12.57880
G1 X24.344 Y44.831 E12.84778
G1 X23.894 Y45.289 F6000.000
G1 X24.148 Y36.011 E13.23629 F1800.000
G1 X24.316 Y25.974 E13.65650
G1 X24.390 Y15.647 E14.08879
G1 X24.393 Y9.330 E14.35326
G1 X24.367 Y2.932 E14.62108
G1 X24.256 Y-7.882 E15.07377
G1 X24.064 Y-18.847 E15.53286
G1 X23.737 Y-32.146 E16.08972
G1 X23.355 Y-44.216 E16.59521
G1 X29.800 Y-45.290 E16.86870
G1 X29.800 Y44.305 E20.61916
G1 X23.954 Y45.279 E20.86726
G1 X24.082 Y44.935 F6000.000
G1 X28.962 Y43.595 F6000.000
G1 X28.962 Y42.781 E20.90976 F1800.000
G1 X27.986 Y43.757 E20.98189
G1 X28.962 Y43.595 E21.03360
G1 X28.962 Y33.895 F6000.000
G1 X28.962 Y33.007 E21.08002 F1800.000
G1 X27.873 Y34.096 E21.16050
G1 X25.031 Y33.335 E21.31421
G1 X24.986 Y36.029 E21.45501
G1 X24.761 Y44.295 E21.88701
G1 X26.920 Y43.935 E22.00135
G1 X28.962 Y41.893 E22.15225
G1 X28.962 Y36.947 E22.41062
G1 X28.317 Y34.540 E22.54081
G1 X28.962 Y33.895 E22.58846
G1 X28.962 Y8.369 F6000.000
G1 X28.070 Y8.130 E22.63668 F1800.000
G1 X25.230 Y10.970 E22.84652
G1 X25.228 Y15.651 E23.09108
G1 X25.194 Y20.369 E23.33758
G1 X28.962 Y21.378 E23.54137
G1 X28.962 Y8.369 E24.22106
G1 X28.962 Y-1.648 F6000.000
G1 X28.962 Y-2.536 E24.26748 F1800.000
G1 X25.492 Y0.934 E24.52388
G1 X25.183 Y0.851 E24.54056
G1 X25.231 Y10.081 E25.02275
G1 X27.626 Y7.685 E25.19973
G1 X25.936 Y1.378 E25.54088
G1 X28.962 Y-1.648 E25.76445
G1 X28.962 Y-24.156 F6000.000
G1 X25.689 Y-25.032 E25.94145 F1800.000
G1 X24.773 Y-24.116 E26.00917
G1 X24.902 Y-18.865 E26.28358
G1 X25.019 Y-12.203 E26.63172
G1 X28.744 Y-11.204 E26.83323
G1 X28.962 Y-11.422 E26.84932
G1 X28.962 Y-24.156 E27.51458
G1 X25.245 Y-25.477 F6000.000
G1 X24.688 Y-27.555 E27.62699 F1800.000
G1 X24.752 Y-24.983 E27.76139
G1 X25.245 Y-25.477 E27.79786
G1 X28.962 Y-37.165 F6000.000
G1 X28.962 Y-44.301 E28.17065 F1800.000
G1 X26.831 Y-43.946 E28.28352
G1 X26.808 Y-43.922 E28.28525
G1 X28.498 Y-37.615 E28.62639
G1 X24.528 Y-33.646 E28.91967
G1 X24.555 Y-32.784 E28.96470
G1 X28.942 Y-37.171 E29.28879
G1 X28.962 Y-37.165 E29.28988
G1 F4800
G1 X28.942 Y-37.171 E29.28000
G1 F4800
G1 X24.714 Y-32.943 E26.43988
G1 E26.28988 F2400.00000
G92 E0
G1 X24.167 Y2.933 F6000.000
G1 X-1.380 Y13.518 F6000.000
G1 X-1.506 Y20.186 F6000.000
G1 X-3.329 Y23.623 F6000.000
G1 X-6.783 Y27.069 F6000.000
G1 X-27.240 Y27.152 F6000.000
G1 X-27.212 Y44.353 F6000.000
G1 E3.00000 F2400.00000
G1 X-29.423 Y43.985 E3.11710 F1800.000
G1 X-29.423 Y-44.845 E7.75800
G1 X-20.882 Y-43.421 E8.21036
G1 X-21.992 Y-36.981 E8.55180
G1 X-22.683 Y-32.747 E8.77590
G1 X-23.336 Y-28.539 E8.99839
G1 X-23.950 Y-24.357 E9.21925
G1 X-24.524 Y-20.200 E9.43847
G1 X-25.304 Y-14.020 E9.76390
G1 X-25.985 Y-7.908 E10.08519
G1 X-26.381 Y-3.871 E10.29711
G1 X-26.886 Y2.118 E10.61115
G1 X-27.164 Y6.071 E10.81815
G1 X-27.392 Y9.988 E11.02318
G1 X-27.644 Y15.794 E11.32678
G1 X-27.750 Y19.621 E11.52680
G1 X-27.818 Y25.285 E11.82271
G1 X-27.803 Y29.014 E12.01755
G1 X-27.691 Y34.527 E12.30566
G1 X-27.474 Y39.947 E12.58905
G1 X-27.215 Y44.294 E12.81652
G1 X-26.807 Y44.803 F6000.000
G1 X-29.800 Y44.305 E12.94353 F1800.000
G1 X-29.800 Y-45.290 E16.69398
G1 X-20.446 Y-43.731 E17.09095
G1 X-21.620 Y-36.918 E17.38033
G1 X-22.310 Y-32.688 E17.55975
G1 X-22.963 Y-28.483 E17.73789
G1 X-23.577 Y-24.303 E17.91472
G1 X-24.150 Y-20.151 E18.09021
G1 X-24.930 Y-13.976 E18.35075
G1 X-25.609 Y-7.869 E18.60796
G1 X-26.005 Y-3.837 E18.77754
G1 X-26.510 Y2.147 E19.02894
G1 X-26.787 Y6.095 E19.19459
G1 X-27.015 Y10.008 E19.35865
G1 X-27.266 Y15.808 E19.60167
G1 X-27.373 Y19.629 E19.76169
G1 X-27.441 Y25.286 E19.99853
G1 X-27.426 Y29.009 E20.15438
G1 X-27.314 Y34.516 E20.38494
G1 X-27.097 Y39.929 E20.61170
G1 X-26.811 Y44.743 E20.81360
G1 X-27.134 Y44.573 F6000.000
G1 X-27.746 Y43.797 F6000.000
G1 X-28.962 Y39.259 E21.05905 F1800.000
G1 X-28.962 Y43.595 E21.28555
G1 X-27.746 Y43.797 E21.34995
G1 X-28.030 Y37.573 F6000.000
G1 X-28.065 Y36.719 E21.39462 F1800.000
G1 X-28.962 Y37.616 E21.46092
G1 X-28.962 Y38.505 E21.50735
G1 X-28.030 Y37.573 E21.57618
G1 X-27.968 Y12.629 F6000.000
G1 X-28.962 Y12.362 E21.62996 F1800.000
G1 X-28.962 Y25.372 E22.30965
G1 X-28.278 Y25.555 E22.34664
G1 X-28.211 Y19.612 E22.65717
G1 X-28.104 Y15.778 E22.85757
G1 X-27.968 Y12.629 E23.02224
G1 X-27.278 Y1.277 F6000.000
G1 X-27.196 Y0.307 E23.07312 F1800.000
G1 X-28.962 Y2.073 E23.20363
G1 X-28.962 Y2.962 E23.25005
G1 X-27.278 Y1.277 E23.37450
G1 X-26.443 Y-7.956 F6000.000
G1 X-26.382 Y-8.504 E23.40332 F1800.000
G1 X-28.250 Y-6.636 E23.54136
G1 X-27.003 Y-1.981 E23.79315
G1 X-26.840 Y-3.913 E23.89446
G1 X-26.443 Y-7.956 E24.10670
G1 X-25.442 Y-19.219 F6000.000
G1 X-28.962 Y-20.162 E24.29709 F1800.000
G1 X-28.962 Y-7.152 E24.97678
G1 X-28.694 Y-7.080 E24.99126
G1 X-26.270 Y-9.504 E25.17035
G1 X-25.762 Y-14.074 E25.41059
G1 X-25.065 Y-19.596 E25.70135
G1 X-25.442 Y-19.219 E25.72922
G1 X-21.415 Y-43.043 F6000.000
G1 X-26.533 Y-43.896 E26.00032 F1800.000
G1 X-28.962 Y-41.467 E26.17977
G1 X-28.962 Y-33.570 E26.59237
G1 X-28.941 Y-33.491 E26.59663
G1 X-28.962 Y-33.470 E26.59818
G1 X-28.962 Y-32.581 E26.64461
G1 X-28.497 Y-33.047 E26.67899
G1 X-23.318 Y-31.659 E26.95910
G1 X-22.447 Y-37.057 E27.24477
G1 X-21.415 Y-43.043 E27.56211
G1 X-27.295 Y-44.023 F6000.000
G1 X-28.962 Y-44.301 E27.65041 F1800.000
G1 X-28.962 Y-42.356 E27.75203
G1 X-27.295 Y-44.023 E27.87521
G1 F4800
G1 X-28.962 Y-42.356 E26.75530
G1 F4800
G1 X-28.962 Y-44.301 E25.83142
G1 F4800
G1 X-27.295 Y-44.023 E25.02861
G1 E24.87521 F2400.00000
G92 E0
G1 Z0.500 F6000.000
G1 X24.405 Y44.704 F6000.000
G1 E3.00000 F2400.00000
G1 X24.640 Y36.021 E3.45380 F1200.000
G1 X24.809 Y25.980 E3.97848
G1 X24.883 Y15.649 E4.51822
G1 X24.886 Y9.329 E4.84845
G1 X24.859 Y2.928 E5.18284
G1 X24.749 Y-7.889 E5.74801
G1 X24.557 Y-18.858 E6.32117
G1 X24.230 Y-32.160 E7.01636
G1 X23.861 Y-43.801 E7.62482
G1 X29.307 Y-44.708 E7.91327
G1 X29.307 Y43.887 E12.54193
G1 X24.464 Y44.694 E12.79847
G1 X23.894 Y45.289 F6000.000
G1 X24.148 Y36.011 E13.07403 F600.000
G1 X24.316 Y25.974 E13.37209
G1 X24.390 Y15.647 E13.67871
G1 X24.393 Y9.330 E13.86630
G1 X24.367 Y2.932 E14.05626
G1 X24.256 Y-7.882 E14.37735
G1 X24.064 Y-18.847 E14.70297
G1 X23.737 Y-32.146 E15.09795
G1 X23.355 Y-44.216 E15.45649
G1 X29.800 Y-45.290 E15.65048
G1 X29.800 Y44.305 E18.31066
G1 X23.954 Y45.279 E18.48664
G1 X24.082 Y44.935 F6000.000
G1 X28.773 Y35.029 F6000.000
G1 X28.773 Y33.640 E18.55922 F3000.000
G1 X28.480 Y33.933 E18.58091
G1 X28.773 Y35.029 E18.64017
G1 X27.873 Y34.096 F6000.000
G1 X25.219 Y33.385 E18.78372 F3000.000
G1 X25.174 Y36.033 E18.92210
G1 X24.956 Y44.071 E19.34219
G1 X27.682 Y43.617 E19.48658
G1 X28.773 Y42.526 E19.56719
G1 X28.773 Y37.457 E19.83201
G1 X27.873 Y34.096 E20.01378
G1 X28.744 Y-11.204 F6000.000
G1 X25.208 Y-12.152 E20.20504 F3000.000
G1 X25.283 Y-7.896 E20.42739
G1 X25.373 Y0.902 E20.88708
G1 X25.492 Y0.934 E20.89353
G1 X27.463 Y8.292 E21.29153
G1 X25.419 Y10.336 E21.44255
G1 X25.417 Y15.651 E21.72024
G1 X25.383 Y20.419 E21.96933
G1 X28.773 Y21.328 E22.15273
G1 X28.773 Y8.318 E22.83242
G1 X28.070 Y8.130 E22.87043
G1 X26.099 Y0.771 E23.26843
G1 X28.773 Y-1.903 E23.46604
G1 X28.773 Y-11.096 E23.94632
G1 X28.744 Y-11.204 E23.95217
G1 X25.083 Y-24.870 F6000.000
G1 X24.929 Y-25.443 E23.98314 F3000.000
G1 X24.947 Y-24.734 E24.02018
G1 X25.083 Y-24.870 E24.03023
G1 X28.773 Y-37.800 F6000.000
G1 X27.163 Y-43.810 E24.35527 F3000.000
G1 X26.540 Y-43.706 E24.38825
G1 X28.335 Y-37.008 E24.75052
G1 X24.725 Y-33.398 E25.01726
G1 X24.863 Y-28.116 E25.29333
G1 X25.689 Y-25.032 E25.46008
G1 X28.773 Y-24.206 E25.62688
G1 X28.773 Y-37.800 E26.33709
G1 F4800
G1 X28.773 Y-31.800 E23.48709
G1 E23.33709 F2400.00000
G92 E0
G1 X24.167 Y2.933 F6000.000
G1 X-1.372 Y13.142 F6000.000
G1 X-1.497 Y19.648 F6000.000
G1 X-1.602 Y21.917 F6000.000
G1 X-5.055 Y25.340 F6000.000
G1 X-27.241 Y25.287 F6000.000
G1 X-27.336 Y44.216 F6000.000
G1 E3.00000 F2400.00000
G1 X-29.307 Y43.887 E3.10443 F1200.000
G1 X-29.307 Y-44.708 E7.73309
G1 X-21.016 Y-43.326 E8.17227
G1 X-22.106 Y-37.000 E8.50767
G1 X-22.797 Y-32.765 E8.73182
G1 X-23.450 Y-28.556 E8.95440
G1 X-24.357 Y-22.291 E9.28510
G1 X-25.170 Y-16.087 E9.61199
G1 X-25.884 Y-9.950 E9.93481
G1 X-26.496 Y-3.883 E10.25339
G1 X-27.001 Y2.110 E10.56760
G1 X-27.399 Y8.026 E10.87735
G1 X-27.604 Y11.928 E11.08151
G1 X-27.818 Y17.708 E11.38369
G1 X-27.900 Y21.518 E11.58277
G1 X-27.932 Y27.154 E11.87723
G1 X-27.893 Y30.865 E12.07111
G1 X-27.746 Y36.348 E12.35769
G1 X-27.589 Y39.954 E12.54629
G1 X-27.339 Y44.156 E12.76618
G1 X-26.807 Y44.803 F6000.000
G1 X-29.800 Y44.305 E12.85627 F600.000
G1 X-29.800 Y-45.290 E15.51645
G1 X-20.446 Y-43.731 E15.79801
G1 X-21.620 Y-36.918 E16.00327
G1 X-22.310 Y-32.688 E16.13053
G1 X-22.963 Y-28.483 E16.25690
G1 X-23.869 Y-22.224 E16.44467
G1 X-24.681 Y-16.027 E16.63024
G1 X-25.394 Y-9.896 E16.81348
G1 X-26.005 Y-3.837 E16.99430
G1 X-26.510 Y2.148 E17.17263
G1 X-26.907 Y8.055 E17.34843
G1 X-27.111 Y11.950 E17.46423
G1 X-27.326 Y17.723 E17.63574
G1 X-27.408 Y21.525 E17.74865
G1 X-27.440 Y27.152 E17.91575
G1 X-27.401 Y30.855 E18.02570
G1 X-27.253 Y36.331 E18.18833
G1 X-27.097 Y39.929 E18.29527
G1 X-26.811 Y44.743 E18.43847
G1 X-27.134 Y44.573 F6000.000
G1 X-28.059 Y43.729 F6000.000
G1 X-27.756 Y43.427 E18.46141 F1200.000
G1 X-27.808 Y42.567 E18.50754
G1 X-28.840 Y43.599 E18.58575
G1 X-28.927 Y42.775 E18.63015
G1 X-27.859 Y41.707 E18.71103
G1 X-27.910 Y40.847 E18.75717
G1 X-28.927 Y41.864 E18.83417
G1 X-28.927 Y40.953 E18.88296
G1 X-27.961 Y39.988 E18.95609
G1 X-28.001 Y39.117 E19.00278
G1 X-28.927 Y40.042 E19.07287
G1 X-28.927 Y39.131 E19.12166
G1 X-28.039 Y38.244 E19.18888
G1 X-28.620 Y37.913 E19.22466
G1 X-28.927 Y38.220 E19.24792
G1 X-28.501 Y37.527 F6000.000
G1 X-28.600 Y30.881 E19.96612 F1200.000
G1 X-28.620 Y27.152 E20.36904
G1 X-28.604 Y21.505 E20.97927
G1 X-28.563 Y17.690 E21.39160
G1 X-28.500 Y14.303 E21.75761
G1 X-27.534 Y2.070 F6000.000
G1 X-27.444 Y0.999 E21.81377 F3000.000
G1 X-28.773 Y2.329 E21.91201
G1 X-28.773 Y12.413 E22.43886
G1 X-28.162 Y12.577 E22.47192
G1 X-27.932 Y7.994 E22.71165
G1 X-27.534 Y2.070 E23.02184
G1 X-25.442 Y-19.219 F6000.000
G1 X-28.773 Y-20.111 E23.20203 F3000.000
G1 X-28.773 Y-7.102 E23.88172
G1 X-28.694 Y-7.080 E23.88599
G1 X-27.225 Y-1.595 E24.18266
G1 X-27.069 Y-3.441 E24.27945
G1 X-28.087 Y-7.243 E24.48507
G1 X-26.537 Y-8.793 E24.59959
G1 X-26.415 Y-10.007 E24.66335
G1 X-25.700 Y-16.153 E24.98658
G1 X-25.345 Y-18.858 E25.12911
G1 X-25.442 Y-19.219 E25.14864
G1 X-21.940 Y-42.939 F6000.000
G1 X-27.078 Y-43.795 E25.42075 F3000.000
G1 X-28.773 Y-42.100 E25.54600
G1 X-28.773 Y-34.079 E25.96506
G1 X-28.497 Y-33.047 E26.02090
G1 X-23.501 Y-31.708 E26.29109
G1 X-22.633 Y-37.088 E26.57581
G1 X-21.633 Y-42.888 E26.88328
G1 X-21.940 Y-42.939 E26.89956
G1 F4800
G1 X-21.633 Y-42.888 E26.75154
G1 F4800
G1 X-22.599 Y-37.282 E24.04956
G1 E23.89956 F2400.00000
G92 E0
G1 Z0.700 F6000.000
G1 X24.405 Y44.704 F6000.000
G1 E3.00000 F2400.00000
G1 X24.640 Y36.021 E3.45380 F1200.000
G1 X24.809 Y25.980 E3.97848
G1 X24.883 Y15.649 E4.51822
G1 X24.886 Y9.329 E4.84845
G1 X24.859 Y2.928 E5.18284
G1 X24.749 Y-7.889 E5.74801
G1 X24.557 Y-18.858 E6.32117
G1 X24.230 Y-32.160 E7.01636
G1 X23.861 Y-43.801 E7.62482
G1 X29.307 Y-44.708 E7.91327
G1 X29.307 Y43.887 E12.54193
G1 X24.464 Y44.694 E12.79847
G1 X23.894 Y45.289 F6000.000
G1 X24.148 Y36.011 E13.07403 F600.000
G1 X24.316 Y25.974 E13.37209
G1 X24.390 Y15.647 E13.67871
G1 X24.393 Y9.330 E13.86630
G1 X24.367 Y2.932 E14.05626
G1 X24.256 Y-7.882 E14.37735
G1 X24.064 Y-18.847 E14.70297
G1 X23.737 Y-32.146 E15.09795
G1 X23.355 Y-44.216 E15.45649
G1 X29.800 Y-45.290 E15.65048
G1 X29.800 Y44.305 E18.31066
G1 X23.954 Y45.279 E18.48664
G1 X24.082 Y44.935 F6000.000
G1 X28.317 Y34.540 F6000.000
G1 X25.213 Y33.709 E18.65452 F3000.000
G1 X25.174 Y36.033 E18.77597
G1 X24.956 Y44.071 E19.19606
G1 X27.682 Y43.617 E19.34046
G1 X28.773 Y42.526 E19.42106
G1 X28.773 Y36.243 E19.74930
G1 X28.317 Y34.540 E19.84139
G1 X28.773 Y21.653 F6000.000
G1 X25.380 Y20.744 E20.02491 F3000.000
G1 X25.343 Y25.986 E20.29882
G1 X25.224 Y33.061 E20.66849
G1 X28.480 Y33.933 E20.84457
G1 X28.773 Y33.640 E20.86626
G1 X28.773 Y21.653 E21.49252
G1 X28.773 Y8.643 F6000.000
G1 X27.463 Y8.292 E21.56336 F3000.000
G1 X25.419 Y10.336 E21.71439
G1 X25.417 Y15.651 E21.99207
G1 X25.385 Y20.095 E22.22421
G1 X28.773 Y21.002 E22.40747
G1 X28.773 Y8.643 E23.05318
G1 X28.773 Y7.993 F6000.000
G1 X28.773 Y-1.903 E23.57019 F3000.000
G1 X26.099 Y0.771 E23.76780
G1 X25.369 Y0.576 E23.80725
G1 X25.376 Y1.228 E23.84133
G1 X25.936 Y1.378 E23.87162
G1 X27.626 Y7.685 E24.21276
G1 X28.773 Y7.993 E24.27481
G1 X28.773 Y-11.522 F6000.000
G1 X25.203 Y-12.479 E24.46794 F3000.000
G1 X25.214 Y-11.825 E24.50209
G1 X28.773 Y-10.871 E24.69460
G1 X28.773 Y-11.522 E24.72859
G1 X25.245 Y-25.477 F6000.000
G1 X24.896 Y-26.779 E24.79902 F3000.000
G1 X24.947 Y-24.734 E24.90591
G1 X25.083 Y-24.870 E24.91596
G1 X28.773 Y-23.881 E25.11558
G1 X28.773 Y-24.531 E25.14956
G1 X25.245 Y-25.477 E25.34039
G1 X28.498 Y-37.615 F6000.000
G1 X26.852 Y-43.758 E25.67263 F3000.000
G1 X24.410 Y-43.351 E25.80196
G1 X24.725 Y-33.398 E26.32220
G1 X28.335 Y-37.008 E26.58894
G1 X28.773 Y-36.891 E26.61265
G1 X28.773 Y-37.541 E26.64663
G1 X28.498 Y-37.615 E26.66154
G1 F4800
G1 X28.773 Y-37.541 E26.52599
G1 F4800
G1 X28.773 Y-36.891 E26.21701
G1 F4800
G1 X28.335 Y-37.008 E26.00149
G1 F4800
G1 X25.075 Y-33.748 E23.81154
G1 E23.66154 F2400.00000
G92 E0
G1 X24.167 Y2.933 F6000.000
G1 X-1.380 Y13.518 F6000.000
G1 X-1.506 Y20.186 F6000.000
G1 X-1.602 Y21.917 F6000.000
G1 X-5.055 Y25.340 F6000.000
G1 X-27.241 Y25.287 F6000.000
G1 X-27.336 Y44.216 F6000.000
G1 E3.00000 F2400.00000
G1 X-29.307 Y43.887 E3.10443 F1200.000
G1 X-29.307 Y-44.708 E7.73309
G1 X-21.016 Y-43.326 E8.17227
G1 X-22.106 Y-36.999 E8.50770
G1 X-23.128 Y-30.658 E8.84329
G1 X-24.065 Y-24.373 E9.17527
G1 X-24.909 Y-18.148 E9.50347
G1 X-25.657 Y-11.988 E9.82767
G1 X-26.303 Y-5.897 E10.14767
G1 X-26.845 Y0.120 E10.46330
G1 X-27.146 Y4.091 E10.67136
G1 X-27.399 Y8.028 E10.87746
G1 X-27.687 Y13.864 E11.18273
G1 X-27.866 Y19.618 E11.48349
G1 X-27.934 Y25.284 E11.77956
G1 X-27.919 Y29.015 E11.97449
G1 X-27.807 Y34.531 E12.26271
G1 X-27.589 Y39.953 E12.54622
G1 X-27.339 Y44.156 E12.76618
G1 X-26.807 Y44.803 F6000.000
G1 X-29.800 Y44.305 E12.85627 F600.000
G1 X-29.800 Y-45.290 E15.51644
G1 X-20.446 Y-43.731 E15.79801
