; generated by Slic3r 1.2.9 on 2016-07-14 at 19:09:43

; external perimeters extrusion width = 0.30mm
; perimeters extrusion width = 0.31mm
; infill extrusion width = 0.31mm
; solid infill extrusion width = 0.31mm
; top infill extrusion width = 0.31mm

M107
M104 S215 ; set temperature
G28 ; home all axes
G1 Z5 F5000 ; lift nozzle

M109 S215 ; wait for temperature to be reached
G21 ; set units to millimeters
G90 ; use absolute coordinates
M82 ; use absolute distances for extrusion
G92 E0
G1 E-2.00000 F2400.00000
G92 E0
G1 Z0.100 F7800.000
G1 X5.386 Y26.549 F7800.000
G1 E2.00000 F2400.00000
G1 X3.428 Y26.936 E2.02017 F1800.000
G1 X0.397 Y27.500 E2.05132
G1 X-4.323 Y28.302 E2.09969
G1 X-9.211 Y29.040 E2.14963
G1 X-14.152 Y29.697 E2.19999
G1 X-19.286 Y30.287 E2.25221
G1 X-24.461 Y30.789 E2.30474
G1 X-29.783 Y31.209 E2.35868
G1 X-33.431 Y31.438 E2.39560
G1 X-38.930 Y31.695 E2.45122
G1 X-44.523 Y31.845 E2.50775
G1 X-50.208 Y31.886 E2.56518
G1 X-54.007 Y31.852 E2.60357
G1 X-57.186 Y31.786 E2.63570
G1 X-59.354 Y31.335 E2.65807
G1 X-61.224 Y30.149 E2.68044
G1 X-62.556 Y28.380 E2.70281
G1 X-63.211 Y25.490 E2.73276
G1 X-62.221 Y-25.826 E3.25132
G1 X-61.782 Y-27.997 E3.27369
G1 X-60.607 Y-29.873 E3.29606
G1 X-58.845 Y-31.214 E3.31843
G1 X-56.005 Y-31.886 E3.34791
G1 X-49.421 Y-31.828 E3.41443 F1800.000
G1 X-43.326 Y-31.739 E3.47602
G1 X-37.341 Y-31.613 E3.53650
G1 X-31.462 Y-31.452 E3.59592
G1 X-25.722 Y-31.255 E3.65395
G1 X-20.117 Y-31.021 E3.71063
G1 X-14.652 Y-30.751 E3.76591
G1 X-9.334 Y-30.443 E3.81973
G1 X-4.170 Y-30.095 E3.87202
G1 X0.833 Y-29.706 E3.92272
G1 X5.644 Y-29.277 E3.97152
G1 X10.303 Y-28.804 E4.01884
G1 X14.784 Y-28.290 E4.06440
G1 X19.083 Y-27.734 E4.10820
G1 X21.881 Y-27.335 E4.13676
G1 X25.836 Y-26.712 E4.17720
G1 X29.634 Y-26.040 E4.21617
G1 X33.238 Y-25.322 E4.25330
G1 X36.647 Y-24.557 E4.28860
G1 X38.867 Y-24.006 E4.31171
G1 X41.888 Y-23.179 E4.34335
G1 X44.767 Y-22.291 E4.37380
G1 X46.659 Y-21.643 E4.39400
G1 X48.307 Y-21.028 E4.41178
G1 X49.140 Y-20.696 E4.42083
G1 X50.845 Y-19.966 E4.43957
G1 X51.621 Y-19.608 E4.44820
G1 X52.990 Y-18.930 E4.46364
G1 X53.807 Y-18.494 E4.47300
G1 X55.034 Y-17.790 E4.48729
G1 X56.409 Y-16.914 E4.50376
G1 X57.452 Y-16.178 E4.51665
G1 X58.009 Y-15.752 E4.52374
G1 X58.713 Y-15.173 E4.53295
G1 X59.254 Y-14.692 E4.54027
G1 X59.781 Y-14.183 E4.54767
G1 X60.294 Y-13.642 E4.55520
G1 X60.791 Y-13.060 E4.56293
G1 X61.266 Y-12.435 E4.57086
G1 X61.485 Y-12.117 E4.57476
G1 X61.904 Y-11.435 E4.58285
G1 X62.287 Y-10.692 E4.59129
G1 X62.499 Y-10.206 E4.59666
G1 X62.622 Y-9.888 E4.60010
G1 X62.893 Y-9.027 E4.60922
G1 X63.086 Y-8.122 E4.61856
G1 X63.165 Y-7.523 E4.62467
G1 X63.212 Y-6.596 E4.63405
G1 X63.206 Y-6.257 E4.63747
G1 X63.171 Y-5.689 E4.64323
G1 X63.055 Y-4.825 E4.65203
G1 X62.879 Y-4.019 E4.66037
G1 X62.780 Y-3.660 E4.66413
G1 X62.530 Y-2.901 E4.67220
G1 X62.245 Y-2.189 E4.67995
G1 X61.936 Y-1.522 E4.68737
G1 X61.495 Y-0.689 E4.69690
G1 X61.161 Y-0.119 E4.70358
G1 X60.534 Y0.851 E4.71524
G1 X60.042 Y1.547 E4.72385
G1 X59.282 Y2.534 E4.73644
G1 X58.222 Y3.771 E4.75290
G1 X57.273 Y4.770 E4.76682
G1 X56.710 Y5.324 E4.77481
G1 X55.421 Y6.501 E4.79244
G1 X54.799 Y7.031 E4.80069
G1 X53.585 Y8.007 E4.81643
G1 X52.814 Y8.592 E4.82621
G1 X51.474 Y9.556 E4.84289
G1 X49.887 Y10.620 E4.86219
G1 X48.377 Y11.568 E4.88021
G1 X47.476 Y12.106 E4.89080
G1 X45.838 Y13.038 E4.90984
G1 X44.951 Y13.520 E4.92004
G1 X43.049 Y14.505 E4.94169
G1 X41.203 Y15.404 E4.96243
G1 X40.154 Y15.892 E4.97412
G1 X37.140 Y17.215 E5.00737
G1 X34.936 Y18.115 E5.03143
G1 X31.625 Y19.373 E5.06721
G1 X29.235 Y20.219 E5.09283
G1 X25.635 Y21.405 E5.13112
G1 X23.062 Y22.194 E5.15831
G1 X19.185 Y23.299 E5.19905
G1 X16.437 Y24.027 E5.22777
G1 X12.293 Y25.046 E5.27088
G1 X9.377 Y25.709 E5.30110
G1 X5.431 Y26.540 E5.34184
G1 F6240
G1 X3.428 Y26.936 E4.59600
G1 F6240
G1 X0.397 Y27.500 E3.46942
G1 F6240
G1 X0.322 Y27.512 E3.44184
G1 E3.34184 F2400.00000
G92 E0
G1 X34.171 Y-3.097 F7800.000
G1 E2.00000 F2400.00000
G1 X33.405 Y-3.912 E2.01130 F1800.000
G1 X32.867 Y-4.892 E2.02259
G1 X32.588 Y-5.975 E2.03389
G1 X32.588 Y-7.093 E2.04519
G1 X32.867 Y-8.176 E2.05648
G1 X33.405 Y-9.156 E2.06778
G1 X34.171 Y-9.971 E2.07908
G1 X35.116 Y-10.571 E2.09039
G1 X36.196 Y-10.917 E2.10185
G1 X37.294 Y-10.986 E2.11296 F1800.000
G1 X38.392 Y-10.776 E2.12426
G1 X39.404 Y-10.300 E2.13556
G1 X40.266 Y-9.588 E2.14686
G1 X40.923 Y-8.683 E2.15815
G1 X41.335 Y-7.643 E2.16945
G1 X41.475 Y-6.534 E2.18075
G1 X41.335 Y-5.425 E2.19204
G1 X40.923 Y-4.385 E2.20334
G1 X40.266 Y-3.480 E2.21464
G1 X39.404 Y-2.768 E2.22593
G1 X38.392 Y-2.292 E2.23723
G1 X37.293 Y-2.082 E2.24854
G1 X36.161 Y-2.158 E2.26000
G1 X35.115 Y-2.498 E2.27112
G1 X34.209 Y-3.073 E2.28196
G1 X34.304 Y-3.224 F7800.000
G1 X33.551 Y-4.018 E2.29302 F1800.000
G1 X33.034 Y-4.958 E2.30386
G1 X32.767 Y-5.997 E2.31470
G1 X32.767 Y-7.070 E2.32554
G1 X33.034 Y-8.110 E2.33639
G1 X33.551 Y-9.050 E2.34723
G1 X34.285 Y-9.832 E2.35807
G1 X35.192 Y-10.408 E2.36892
G1 X36.229 Y-10.740 E2.37992
G1 X37.283 Y-10.806 E2.39059 F1800.000
G1 X38.337 Y-10.605 E2.40143
G1 X39.308 Y-10.148 E2.41227
G1 X40.135 Y-9.464 E2.42311
G1 X40.765 Y-8.596 E2.43395
G1 X41.160 Y-7.599 E2.44479
G1 X41.295 Y-6.534 E2.45563
G1 X41.160 Y-5.469 E2.46648
G1 X40.765 Y-4.472 E2.47732
G1 X40.135 Y-3.604 E2.48816
G1 X39.308 Y-2.920 E2.49900
G1 X38.337 Y-2.463 E2.50984
G1 X37.282 Y-2.262 E2.52069
G1 X36.195 Y-2.334 E2.53169
G1 X35.191 Y-2.661 E2.54236
G1 X34.342 Y-3.199 E2.55252
G1 X34.438 Y-3.350 F7800.000
G1 X33.696 Y-4.124 E2.56334 F1800.000
G1 X33.201 Y-5.024 E2.57373
G1 X32.946 Y-6.020 E2.58412
G1 X32.946 Y-7.048 E2.59450
G1 X33.201 Y-8.044 E2.60489
G1 X33.696 Y-8.944 E2.61527
G1 X34.400 Y-9.694 E2.62566
G1 X35.268 Y-10.245 E2.63604
G1 X36.262 Y-10.563 E2.64659
G1 X37.272 Y-10.627 E2.65681 F1800.000
G1 X38.281 Y-10.434 E2.66719
G1 X39.211 Y-9.996 E2.67758
G1 X40.003 Y-9.341 E2.68796
G1 X40.608 Y-8.510 E2.69835
G1 X40.986 Y-7.554 E2.70874
G1 X41.115 Y-6.534 E2.71912
G1 X40.986 Y-5.514 E2.72951
G1 X40.608 Y-4.558 E2.73989
G1 X40.003 Y-3.727 E2.75028
G1 X39.211 Y-3.072 E2.76066
G1 X38.281 Y-2.634 E2.77105
G1 X37.271 Y-2.441 E2.78144
G1 X36.230 Y-2.511 E2.79199
G1 X35.268 Y-2.823 E2.80220
G1 X34.476 Y-3.326 E2.81168
G1 X34.153 Y-3.255 F7800.000
G1 X-3.845 Y21.500 F7800.000
G1 X-8.533 Y22.237 E2.85963 F1800.000
G1 X-13.352 Y22.907 E2.90878
G1 X-18.294 Y23.504 E2.95908
G1 X-23.352 Y24.025 E3.01045
G1 X-28.517 Y24.464 E3.06282
G1 X-33.786 Y24.812 E3.11617
G1 X-37.352 Y24.991 E3.15225
G1 X-42.785 Y25.172 E3.20717
G1 X-46.457 Y25.235 E3.24427
G1 X-52.044 Y25.240 E3.30072
G1 X-56.403 Y25.163 E3.34477
G1 X-47.504 Y-1.534 E3.62908
G1 X-55.401 Y-25.244 E3.88158
G1 X-49.493 Y-25.193 E3.94127
G1 X-43.438 Y-25.104 E4.00246 F1800.000
G1 X-35.540 Y-24.930 E4.08227
G1 X-29.761 Y-24.758 E4.14068
G1 X-24.114 Y-24.551 E4.19778
G1 X-18.606 Y-24.308 E4.25348
G1 X-13.246 Y-24.028 E4.30771
G1 X-8.041 Y-23.710 E4.36039
G1 X-2.998 Y-23.354 E4.41147
G1 X1.876 Y-22.957 E4.46087
G1 X6.573 Y-22.519 E4.50854
G1 X11.089 Y-22.041 E4.55442
G1 X15.418 Y-21.524 E4.59846
G1 X19.555 Y-20.968 E4.64063
G1 X23.494 Y-20.372 E4.68089
G1 X26.007 Y-19.952 E4.70663
G1 X29.606 Y-19.289 E4.74360
G1 X32.995 Y-18.586 E4.77857
G1 X36.170 Y-17.844 E4.81151
G1 X39.129 Y-17.066 E4.84242
G1 X41.868 Y-16.253 E4.87129
G1 X44.385 Y-15.409 E4.89812
G1 X46.678 Y-14.534 E4.92291
G1 X48.078 Y-13.935 E4.93830
G1 X48.738 Y-13.632 E4.94563
G1 X49.371 Y-13.326 E4.95274
G1 X50.569 Y-12.702 E4.96638
G1 X51.124 Y-12.391 E4.97281
G1 X52.169 Y-11.760 E4.98515
G1 X53.113 Y-11.128 E4.99662
G1 X53.956 Y-10.498 E5.00725
G1 X54.694 Y-9.871 E5.01704
G1 X55.012 Y-9.569 E5.02147
G1 X55.579 Y-8.954 E5.02992
G1 X56.008 Y-8.370 E5.03725
G1 X56.177 Y-8.083 E5.04061
G1 X56.315 Y-7.800 E5.04378
G1 X56.423 Y-7.520 E5.04682
G1 X56.502 Y-7.241 E5.04975
G1 X56.553 Y-6.960 E5.05263
G1 X56.576 Y-6.675 E5.05552
G1 X56.572 Y-6.388 E5.05843
G1 X56.539 Y-6.080 E5.06155
G1 X56.478 Y-5.766 E5.06479
G1 X56.271 Y-5.105 E5.07178
G1 X55.950 Y-4.385 E5.07974
G1 X55.529 Y-3.629 E5.08848
G1 X55.017 Y-2.835 E5.09804
G1 X54.416 Y-2.010 E5.10835
G1 X53.726 Y-1.162 E5.11939
G1 X52.946 Y-0.298 E5.13115
G1 X52.073 Y0.578 E5.14365
G1 X51.105 Y1.460 E5.15688
G1 X50.052 Y2.342 E5.17076
G1 X49.481 Y2.793 E5.17810
G1 X48.281 Y3.687 E5.19322
G1 X46.993 Y4.581 E5.20906
G1 X45.615 Y5.474 E5.22566
G1 X44.897 Y5.918 E5.23419
G1 X43.386 Y6.806 E5.25189
G1 X41.790 Y7.685 E5.27030
G1 X39.231 Y8.990 E5.29933
G1 X36.480 Y10.271 E5.32999
G1 X33.538 Y11.525 E5.36230
G1 X31.474 Y12.344 E5.38472
G1 X29.348 Y13.141 E5.40767
G1 X25.959 Y14.323 E5.44393
G1 X22.412 Y15.459 E5.48156
G1 X18.692 Y16.550 E5.52073
G1 X16.120 Y17.252 E5.54767
G1 X13.475 Y17.932 E5.57526
G1 X9.371 Y18.910 E5.61788
G1 X5.114 Y19.833 E5.66189
G1 X0.706 Y20.697 E5.70727
G1 X-3.800 Y21.492 E5.75351
G1 X-3.769 Y21.668 F7800.000
G1 X-8.507 Y22.414 E5.80196 F1800.000
G1 X-13.329 Y23.084 E5.85115
G1 X-18.274 Y23.682 E5.90148
G1 X-23.335 Y24.203 E5.95287
G1 X-28.504 Y24.642 E6.00528
G1 X-33.776 Y24.991 E6.05867
G1 X-37.345 Y25.169 E6.09477
G1 X-42.781 Y25.351 E6.14972
G1 X-46.456 Y25.414 E6.18685
G1 X-52.046 Y25.418 E6.24333
G1 X-56.649 Y25.337 E6.28985
G1 X-47.692 Y-1.534 E6.57603
G1 X-55.650 Y-25.425 E6.83044
G1 X-49.491 Y-25.371 E6.89267
G1 X-43.435 Y-25.282 E6.95387 F1800.000
G1 X-35.536 Y-25.109 E7.03369
G1 X-29.755 Y-24.937 E7.09212
G1 X-24.107 Y-24.730 E7.14922
G1 X-18.598 Y-24.486 E7.20494
G1 X-13.236 Y-24.206 E7.25918
G1 X-8.029 Y-23.889 E7.31189
G1 X-2.984 Y-23.532 E7.36298
G1 X1.891 Y-23.135 E7.41240
G1 X6.591 Y-22.697 E7.46009
G1 X11.109 Y-22.219 E7.50599
G1 X15.440 Y-21.701 E7.55007
G1 X19.580 Y-21.145 E7.59227
G1 X23.522 Y-20.548 E7.63255
G1 X26.037 Y-20.128 E7.65831
G1 X29.640 Y-19.464 E7.69533
G1 X33.033 Y-18.760 E7.73034
G1 X36.213 Y-18.017 E7.76333
G1 X39.177 Y-17.238 E7.79429
G1 X41.922 Y-16.423 E7.82322
G1 X44.446 Y-15.577 E7.85012
G1 X46.745 Y-14.699 E7.87498
G1 X48.151 Y-14.098 E7.89043
G1 X48.814 Y-13.793 E7.89780
G1 X49.451 Y-13.485 E7.90495
G1 X50.654 Y-12.859 E7.91865
G1 X51.214 Y-12.546 E7.92514
G1 X52.265 Y-11.910 E7.93754
G1 X53.216 Y-11.273 E7.94911
G1 X54.067 Y-10.638 E7.95984
G1 X54.814 Y-10.004 E7.96974
G1 X55.139 Y-9.694 E7.97428
G1 X55.715 Y-9.070 E7.98286
G1 X56.159 Y-8.466 E7.99043
G1 X56.335 Y-8.168 E7.99393
G1 X56.479 Y-7.872 E7.99725
G1 X56.593 Y-7.577 E8.00045
G1 X56.676 Y-7.281 E8.00355
G1 X56.730 Y-6.983 E8.00661
G1 X56.755 Y-6.681 E8.00968
G1 X56.750 Y-6.377 E8.01275
G1 X56.716 Y-6.053 E8.01604
G1 X56.651 Y-5.725 E8.01942
G1 X56.437 Y-5.039 E8.02667
G1 X56.110 Y-4.306 E8.03479
G1 X55.683 Y-3.538 E8.04367
G1 X55.164 Y-2.734 E8.05333
G1 X54.557 Y-1.901 E8.06374
G1 X53.862 Y-1.046 E8.07488
G1 X53.076 Y-0.175 E8.08673
G1 X52.196 Y0.707 E8.09931
G1 X51.223 Y1.595 E8.11263
G1 X50.165 Y2.481 E8.12657
G1 X49.590 Y2.934 E8.13397
G1 X48.386 Y3.832 E8.14914
G1 X47.093 Y4.729 E8.16504
G1 X45.711 Y5.625 E8.18168
G1 X44.989 Y6.071 E8.19026
G1 X43.474 Y6.961 E8.20800
G1 X41.874 Y7.843 E8.22646
G1 X39.309 Y9.150 E8.25555
G1 X36.552 Y10.434 E8.28627
G1 X33.606 Y11.690 E8.31864
G1 X31.539 Y12.510 E8.34111
G1 X29.408 Y13.309 E8.36409
G1 X26.016 Y14.493 E8.40040
G1 X22.465 Y15.629 E8.43807
G1 X18.741 Y16.722 E8.47728
G1 X16.166 Y17.425 E8.50425
G1 X13.517 Y18.106 E8.53187
G1 X9.411 Y19.085 E8.57452
G1 X5.150 Y20.008 E8.61857
G1 X0.739 Y20.873 E8.66398
G1 X-3.725 Y21.660 E8.70978
G1 X-3.694 Y21.836 F7800.000
G1 X-8.481 Y22.590 E8.75874 F1800.000
G1 X-13.306 Y23.261 E8.80796
G1 X-18.255 Y23.859 E8.85832
G1 X-23.318 Y24.381 E8.90975
G1 X-28.490 Y24.820 E8.96219
G1 X-33.766 Y25.169 E9.01561
G1 X-37.338 Y25.347 E9.05174
G1 X-42.776 Y25.529 E9.10672
G1 X-46.454 Y25.592 E9.14388
G1 X-52.047 Y25.597 E9.20039
G1 X-56.896 Y25.512 E9.24939
G1 X-47.881 Y-1.534 E9.53742
G1 X-55.898 Y-25.606 E9.79376
G1 X-49.489 Y-25.550 E9.85851
G1 X-43.431 Y-25.461 E9.91972 F1800.000
G1 X-35.531 Y-25.287 E9.99956
G1 X-29.749 Y-25.115 E10.05800
G1 X-24.099 Y-24.908 E10.11512
G1 X-18.589 Y-24.665 E10.17085
G1 X-13.226 Y-24.384 E10.22511
G1 X-8.017 Y-24.067 E10.27783
G1 X-2.971 Y-23.710 E10.32894
G1 X1.907 Y-23.313 E10.37838
G1 X6.608 Y-22.875 E10.42609
G1 X11.129 Y-22.396 E10.47202
G1 X15.463 Y-21.879 E10.51612
G1 X19.605 Y-21.322 E10.55835
G1 X23.550 Y-20.725 E10.59866
G1 X26.068 Y-20.304 E10.62445
G1 X29.674 Y-19.639 E10.66150
G1 X33.072 Y-18.935 E10.69655
G1 X36.256 Y-18.191 E10.72959
G1 X39.225 Y-17.410 E10.76061
G1 X41.976 Y-16.594 E10.78960
G1 X44.506 Y-15.745 E10.81656
G1 X46.812 Y-14.865 E10.84150
G1 X48.223 Y-14.261 E10.85701
G1 X48.890 Y-13.955 E10.86442
G1 X49.531 Y-13.645 E10.87161
G1 X50.739 Y-13.017 E10.88537
G1 X51.304 Y-12.700 E10.89191
G1 X52.361 Y-12.061 E10.90439
G1 X53.319 Y-11.419 E10.91604
G1 X54.178 Y-10.777 E10.92688
G1 X54.933 Y-10.137 E10.93688
G1 X55.267 Y-9.820 E10.94153
G1 X55.851 Y-9.185 E10.95024
G1 X56.310 Y-8.562 E10.95806
G1 X56.492 Y-8.252 E10.96169
G1 X56.643 Y-7.943 E10.96517
G1 X56.762 Y-7.633 E10.96852
G1 X56.850 Y-7.322 E10.97180
G1 X56.907 Y-7.007 E10.97503
G1 X56.934 Y-6.687 E10.97827
G1 X56.929 Y-6.366 E10.98151
G1 X56.892 Y-6.026 E10.98496
G1 X56.825 Y-5.684 E10.98849
G1 X56.603 Y-4.973 E10.99601
G1 X56.270 Y-4.226 E11.00428
G1 X55.836 Y-3.446 E11.01330
G1 X55.311 Y-2.633 E11.02307
G1 X54.699 Y-1.792 E11.03358
G1 X53.998 Y-0.930 E11.04481
G1 X53.205 Y-0.052 E11.05676
G1 X52.320 Y0.836 E11.06943
G1 X51.340 Y1.729 E11.08282
G1 X50.277 Y2.619 E11.09683
G1 X49.699 Y3.076 E11.10428
G1 X48.490 Y3.977 E11.11951
G1 X47.192 Y4.877 E11.13547
G1 X45.806 Y5.776 E11.15216
G1 X45.081 Y6.224 E11.16077
G1 X43.563 Y7.116 E11.17856
G1 X41.958 Y8.001 E11.19708
G1 X39.387 Y9.311 E11.22622
G1 X36.625 Y10.597 E11.25701
G1 X33.674 Y11.855 E11.28943
G1 X31.603 Y12.677 E11.31193
G1 X29.469 Y13.477 E11.33496
G1 X26.072 Y14.662 E11.37131
G1 X22.517 Y15.800 E11.40902
G1 X18.789 Y16.894 E11.44827
G1 X16.211 Y17.597 E11.47527
G1 X13.560 Y18.279 E11.50292
G1 X9.451 Y19.259 E11.54561
G1 X5.186 Y20.183 E11.58970
G1 X0.772 Y21.049 E11.63514
G1 X-3.650 Y21.828 E11.68050
G1 X-3.884 Y21.604 F7800.000
G1 X1.859 Y-22.770 F7800.000
G1 X-1.772 Y-23.066 E11.71731 F1800.000
G1 X-1.772 Y-21.294 E11.73521
G1 X0.483 Y-19.992 E11.76153
G1 X0.483 Y-16.953 E11.79223
G1 X-1.772 Y-15.651 E11.81854
G1 X-1.772 Y-12.612 E11.84924
G1 X0.483 Y-11.310 E11.87556
G1 X0.483 Y-8.271 E11.90626
G1 X-1.772 Y-6.969 E11.93257
G1 X-1.772 Y-3.931 E11.96327
G1 X0.483 Y-2.628 E11.98958
G1 X0.483 Y0.410 E12.02028
G1 X-1.772 Y1.713 E12.04660
G1 X-1.772 Y4.751 E12.07730
G1 X0.483 Y6.053 E12.10361
G1 X0.483 Y9.092 E12.13431
G1 X-1.772 Y10.394 E12.16063
G1 X-1.772 Y13.433 E12.19133
G1 X0.483 Y14.735 E12.21764
G1 X0.483 Y17.774 E12.24834
G1 X-1.772 Y19.076 E12.27465
G1 X-1.772 Y20.944 E12.29352
G1 X0.672 Y20.513 E12.31860
G1 X2.990 Y20.058 E12.34246
G1 X2.990 Y19.076 E12.35239
G1 X0.734 Y17.774 E12.37870
G1 X0.734 Y14.735 E12.40940
G1 X2.990 Y13.433 E12.43571
G1 X2.990 Y10.394 E12.46641
G1 X0.734 Y9.092 E12.49273
G1 X0.734 Y6.053 E12.52343
G1 X2.990 Y4.751 E12.54974
G1 X2.990 Y1.713 E12.58044
G1 X0.734 Y0.410 E12.60676
G1 X0.734 Y-2.628 E12.63746
G1 X2.990 Y-3.931 E12.66377
G1 X2.990 Y-6.969 E12.69447
G1 X0.734 Y-8.271 E12.72078
G1 X0.734 Y-11.310 E12.75148
G1 X2.990 Y-12.612 E12.77780
G1 X2.990 Y-15.651 E12.80850
G1 X0.734 Y-16.953 E12.83481
G1 X0.734 Y-19.992 E12.86551
G1 X2.990 Y-21.294 E12.89183
G1 X2.990 Y-22.665 E12.90567
G1 X1.859 Y-22.770 E12.91714
G1 X6.554 Y-22.332 F7800.000
G1 X3.240 Y-22.641 E12.95077 F1800.000
G1 X3.240 Y-21.294 E12.96439
G1 X5.496 Y-19.992 E12.99070
G1 X5.496 Y-16.953 E13.02140
G1 X3.240 Y-15.651 E13.04771
G1 X3.240 Y-12.612 E13.07841
G1 X5.496 Y-11.310 E13.10473
G1 X5.496 Y-8.271 E13.13543
G1 X3.240 Y-6.969 E13.16174
G1 X3.240 Y-3.931 E13.19244
G1 X5.496 Y-2.628 E13.21876
G1 X5.496 Y0.410 E13.24946
G1 X3.240 Y1.713 E13.27577
G1 X3.240 Y4.751 E13.30647
G1 X5.496 Y6.053 E13.33278
G1 X5.496 Y9.092 E13.36348
G1 X3.240 Y10.394 E13.38980
G1 X3.240 Y13.433 E13.42050
G1 X5.496 Y14.735 E13.44681
G1 X5.496 Y17.774 E13.47751
G1 X3.240 Y19.076 E13.50383
G1 X3.240 Y20.009 E13.51326
