; generated by Slic3r 1.2.9 on 2016-07-14 at 19:09:15

; external perimeters extrusion width = 0.30mm
; perimeters extrusion width = 0.31mm
; infill extrusion width = 0.31mm
; solid infill extrusion width = 0.31mm
; top infill extrusion width = 0.31mm

M107
M104 S215 ; set temperature
G28 ; home all axes
G1 Z5 F5000 ; lift nozzle

M109 S215 ; wait for temperature to be reached
G21 ; set units to millimeters
G90 ; use absolute coordinates
M82 ; use absolute distances for extrusion
G92 E0
G1 E-2.00000 F2400.00000
G92 E0
G1 Z0.100 F7800.000
G1 X0.000 Y36.179 F7800.000
G1 E2.00000 F2400.00000
G1 X-60.000 Y36.179 E2.60620 F1800.000
G1 X-62.178 Y35.782 E2.62857
G1 X-64.077 Y34.642 E2.65094
G1 X-65.452 Y32.907 E2.67331
G1 X-66.179 Y30.000 E2.70358
G1 X-66.179 Y-30.000 E3.30978
G1 X-65.782 Y-32.178 E3.33215
G1 X-64.642 Y-34.077 E3.35452
G1 X-62.907 Y-35.452 E3.37689
G1 X-60.000 Y-36.179 E3.40717
G1 X50.000 Y-36.179 E4.51853
G1 X52.178 Y-35.782 E4.54090
G1 X54.077 Y-34.642 E4.56327 F1800.000
G1 X55.861 Y-31.954 E4.59587
G1 X65.861 Y-1.954 E4.91537
G1 X66.174 Y0.238 E4.93774
G1 X65.861 Y1.954 E4.95535
G1 X55.861 Y31.954 E5.27485
G1 X54.796 Y33.895 E5.29722
G1 X53.115 Y35.336 E5.31959
G1 X50.000 Y36.179 E5.35219
G1 X0.045 Y36.179 E5.85690
G1 F6240
G1 X-5.155 Y36.179 E3.95690
G1 E3.85690 F2400.00000
G92 E0
G1 X51.321 Y24.592 F7800.000
G1 E2.00000 F2400.00000
G1 X49.671 Y29.543 E2.05273 F1800.000
G1 X-59.366 Y29.543 E3.15435
G1 X-58.720 Y27.606 E3.17498
G1 X-54.066 Y27.688 E3.22201
G1 X-48.462 Y27.683 E3.27863
G1 X-42.950 Y27.571 E3.33433
G1 X-37.532 Y27.354 E3.38911
G1 X-32.213 Y27.036 E3.44295
G1 X-26.996 Y26.625 E3.49582
G1 X-21.885 Y26.130 E3.54770
G1 X-16.888 Y25.555 E3.59852
G1 X-12.011 Y24.907 E3.64823
G1 X-7.262 Y24.189 E3.69676
G1 X-2.648 Y23.406 E3.74404
G1 X0.351 Y22.848 E3.77485
G1 X3.285 Y22.262 E3.80509
G1 X7.560 Y21.336 E3.84928
G1 X11.681 Y20.354 E3.89208
G1 X15.641 Y19.320 E3.93343
G1 X18.192 Y18.603 E3.96020
G1 X20.667 Y17.866 E3.98629
G1 X24.235 Y16.724 E4.02414
G1 X27.627 Y15.541 E4.06044
G1 X30.840 Y14.320 E4.09517
G1 X33.869 Y13.065 E4.12829
G1 X36.712 Y11.780 E4.15981
G1 X39.365 Y10.469 E4.18971
G1 X41.823 Y9.135 E4.21796
G1 X43.356 Y8.234 E4.23592
G1 X44.798 Y7.329 E4.25313
G1 X45.490 Y6.873 E4.26151
G1 X46.801 Y5.963 E4.27763
G1 X48.025 Y5.051 E4.29305
G1 X49.158 Y4.140 E4.30774
G1 X49.695 Y3.681 E4.31487
G1 X50.691 Y2.772 E4.32849
G1 X51.595 Y1.866 E4.34143
G1 X52.407 Y0.966 E4.35367
G1 X53.126 Y0.081 E4.36519
G1 X53.757 Y-0.784 E4.37601
G1 X54.300 Y-1.625 E4.38612
G1 X54.754 Y-2.442 E4.39557
G1 X55.108 Y-3.234 E4.40433
G1 X55.247 Y-3.632 E4.40860
G1 X55.354 Y-4.022 E4.41268
G1 X55.430 Y-4.409 E4.41666
G1 X55.471 Y-4.792 E4.42056
G1 X55.477 Y-5.171 E4.42439
G1 X55.447 Y-5.545 E4.42818
G1 X55.380 Y-5.914 E4.43196
G1 X55.277 Y-6.276 E4.43577
G1 X55.140 Y-6.632 E4.43962
G1 X54.969 Y-6.982 E4.44356
G1 X54.766 Y-7.327 E4.44761
G1 X54.531 Y-7.669 E4.45179
G1 X54.262 Y-8.012 E4.45620
G1 X53.650 Y-8.677 E4.46533
G1 X53.291 Y-9.017 E4.47032
G1 X52.514 Y-9.677 E4.48062
G1 X52.079 Y-10.012 E4.48617
G1 X51.149 Y-10.669 E4.49768
G1 X50.121 Y-11.323 E4.50998
G1 X49.566 Y-11.650 E4.51650
G1 X48.391 Y-12.292 E4.53002
G1 X47.116 Y-12.924 E4.54440
G1 X46.435 Y-13.237 E4.55197
G1 X45.009 Y-13.847 E4.56764
G1 X43.479 Y-14.444 E4.58423
G1 X41.004 Y-15.309 E4.61073
G1 X38.324 Y-16.137 E4.63906
G1 X36.389 Y-16.678 E4.65936
G1 X33.352 Y-17.447 E4.69101
G1 X31.177 Y-17.945 E4.71356
G1 X27.768 Y-18.652 E4.74874
G1 X24.150 Y-19.319 E4.78590
G1 X20.329 Y-19.945 E4.82502
G1 X17.670 Y-20.339 E4.85218
G1 X14.924 Y-20.716 E4.88019
G1 X10.646 Y-21.247 E4.92374
G1 X7.688 Y-21.580 E4.95381
G1 X4.649 Y-21.895 E4.98468
G1 X-0.059 Y-22.334 E5.03245
G1 X-4.942 Y-22.732 E5.08195
G1 X-9.995 Y-23.089 E5.13313
G1 X-16.980 Y-23.504 E5.20383
G1 X-22.399 Y-23.772 E5.25864
G1 X-29.845 Y-24.073 E5.33393
G1 X-35.588 Y-24.257 E5.39199
G1 X-43.440 Y-24.446 E5.47133
G1 X-51.497 Y-24.573 E5.55275
G1 X-57.727 Y-24.627 E5.61570
G1 X-59.366 Y-29.543 E5.66805
G1 X49.671 Y-29.543 E6.76968
G1 X59.388 Y-0.392 E7.08013
G1 X59.518 Y-0.000 E7.08430 F1800.000
G1 X51.335 Y24.549 E7.34575
G1 X51.504 Y24.606 F7800.000
G1 X49.799 Y29.721 E7.40023 F1800.000
G1 X-59.614 Y29.721 E8.50566
G1 X-58.848 Y27.425 E8.53011
G1 X-54.064 Y27.509 E8.57845
G1 X-48.464 Y27.505 E8.63503
G1 X-42.955 Y27.393 E8.69070
G1 X-37.541 Y27.176 E8.74544
G1 X-32.225 Y26.858 E8.79925
G1 X-27.011 Y26.447 E8.85209
G1 X-21.904 Y25.952 E8.90393
G1 X-16.910 Y25.378 E8.95472
G1 X-12.036 Y24.730 E9.00440
G1 X-7.290 Y24.013 E9.05289
G1 X-2.679 Y23.230 E9.10014
G1 X0.317 Y22.672 E9.13094
G1 X3.249 Y22.088 E9.16114
G1 X7.521 Y21.162 E9.20530
G1 X11.638 Y20.180 E9.24806
G1 X15.595 Y19.148 E9.28938
G1 X18.142 Y18.432 E9.31611
G1 X20.614 Y17.696 E9.34218
G1 X24.178 Y16.555 E9.37998
G1 X27.566 Y15.373 E9.41624
G1 X30.774 Y14.154 E9.45091
G1 X33.799 Y12.901 E9.48398
G1 X36.636 Y11.619 E9.51544
G1 X39.282 Y10.310 E9.54527
G1 X41.735 Y8.979 E9.57346
G1 X43.263 Y8.082 E9.59136
G1 X44.702 Y7.179 E9.60852
G1 X45.390 Y6.725 E9.61686
G1 X46.697 Y5.818 E9.63293
G1 X47.916 Y4.910 E9.64829
G1 X49.044 Y4.002 E9.66291
G1 X49.577 Y3.547 E9.66999
G1 X50.567 Y2.643 E9.68354
G1 X51.466 Y1.743 E9.69639
G1 X52.271 Y0.850 E9.70854
G1 X52.985 Y-0.028 E9.71997
G1 X53.609 Y-0.885 E9.73068
G1 X54.147 Y-1.717 E9.74069
G1 X54.594 Y-2.522 E9.75000
G1 X54.941 Y-3.300 E9.75860
G1 X55.076 Y-3.686 E9.76273
G1 X55.180 Y-4.063 E9.76669
G1 X55.253 Y-4.436 E9.77053
G1 X55.293 Y-4.803 E9.77426
G1 X55.298 Y-5.165 E9.77792
G1 X55.269 Y-5.522 E9.78153
G1 X55.206 Y-5.873 E9.78514
G1 X55.108 Y-6.219 E9.78877
G1 X54.976 Y-6.561 E9.79247
G1 X54.812 Y-6.898 E9.79626
G1 X54.615 Y-7.231 E9.80017
G1 X54.387 Y-7.563 E9.80424
G1 X54.126 Y-7.897 E9.80852
G1 X53.523 Y-8.551 E9.81751
G1 X53.172 Y-8.884 E9.82240
G1 X52.402 Y-9.538 E9.83261
G1 X51.973 Y-9.868 E9.83808
G1 X51.049 Y-10.521 E9.84950
G1 X50.028 Y-11.170 E9.86173
G1 X49.477 Y-11.495 E9.86818
G1 X48.308 Y-12.134 E9.88165
G1 X47.039 Y-12.763 E9.89596
G1 X46.363 Y-13.073 E9.90348
G1 X44.941 Y-13.682 E9.91910
G1 X43.417 Y-14.276 E9.93562
G1 X40.948 Y-15.140 E9.96205
G1 X38.274 Y-15.966 E9.99033
G1 X36.343 Y-16.506 E10.01059
G1 X33.310 Y-17.273 E10.04220
G1 X31.138 Y-17.770 E10.06470
G1 X27.733 Y-18.477 E10.09984
G1 X24.119 Y-19.143 E10.13697
G1 X20.302 Y-19.768 E10.17605
G1 X17.645 Y-20.162 E10.20319
G1 X14.900 Y-20.539 E10.23118
G1 X10.625 Y-21.070 E10.27471
G1 X7.669 Y-21.403 E10.30476
G1 X4.632 Y-21.717 E10.33561
G1 X-0.074 Y-22.156 E10.38336
G1 X-4.956 Y-22.554 E10.43285
G1 X-10.007 Y-22.911 E10.48400
G1 X-16.990 Y-23.326 E10.55468
G1 X-22.407 Y-23.594 E10.60948
G1 X-29.851 Y-23.894 E10.68475
G1 X-35.593 Y-24.078 E10.74279
G1 X-43.443 Y-24.268 E10.82213
G1 X-51.499 Y-24.395 E10.90352
G1 X-57.856 Y-24.450 E10.96776
G1 X-59.614 Y-29.721 E11.02390
G1 X49.799 Y-29.721 E12.12933
G1 X59.557 Y-0.449 E12.44108
G1 X59.706 Y-0.000 E12.44586 F1800.000
G1 X51.519 Y24.563 E12.70745
G1 X51.688 Y24.620 F7800.000
G1 X49.928 Y29.900 E12.76368 F1800.000
G1 X-59.861 Y29.900 E13.87292
G1 X-58.976 Y27.244 E13.90120
G1 X-54.063 Y27.331 E13.95085
G1 X-48.466 Y27.326 E14.00739
G1 X-42.961 Y27.214 E14.06302
G1 X-37.550 Y26.997 E14.11773
G1 X-32.237 Y26.680 E14.17150
G1 X-27.027 Y26.270 E14.22431
G1 X-21.923 Y25.774 E14.27612
G1 X-16.932 Y25.201 E14.32688
G1 X-12.061 Y24.554 E14.37652
G1 X-7.318 Y23.837 E14.42498
G1 X-2.711 Y23.054 E14.47220
G1 X0.283 Y22.497 E14.50297
G1 X3.213 Y21.913 E14.53315
G1 X7.481 Y20.988 E14.57727
G1 X11.595 Y20.007 E14.62000
G1 X15.548 Y18.975 E14.66128
G1 X18.092 Y18.260 E14.68798
G1 X20.562 Y17.525 E14.71401
G1 X24.122 Y16.386 E14.75178
G1 X27.505 Y15.205 E14.78798
G1 X30.708 Y13.988 E14.82261
G1 X33.728 Y12.737 E14.85562
G1 X36.559 Y11.457 E14.88702
G1 X39.200 Y10.151 E14.91678
G1 X41.647 Y8.824 E14.94491
G1 X43.170 Y7.929 E14.96276
G1 X44.605 Y7.029 E14.97987
G1 X45.290 Y6.577 E14.98816
G1 X46.593 Y5.673 E15.00418
G1 X47.807 Y4.768 E15.01948
G1 X48.930 Y3.865 E15.03404
G1 X49.458 Y3.413 E15.04106
G1 X50.444 Y2.514 E15.05454
G1 X51.336 Y1.620 E15.06731
G1 X52.135 Y0.734 E15.07936
G1 X52.843 Y-0.136 E15.09070
G1 X53.462 Y-0.986 E15.10131
G1 X53.993 Y-1.809 E15.11121
G1 X54.435 Y-2.602 E15.12038
G1 X54.775 Y-3.366 E15.12883
G1 X54.906 Y-3.739 E15.13282
G1 X55.006 Y-4.104 E15.13665
G1 X55.076 Y-4.463 E15.14034
G1 X55.114 Y-4.814 E15.14392
G1 X55.120 Y-5.159 E15.14740
G1 X55.092 Y-5.499 E15.15084
G1 X55.031 Y-5.833 E15.15427
G1 X54.938 Y-6.163 E15.15774
G1 X54.812 Y-6.489 E15.16127
G1 X54.654 Y-6.813 E15.16491
G1 X54.464 Y-7.135 E15.16869
G1 X54.243 Y-7.457 E15.17264
G1 X53.989 Y-7.781 E15.17679
G1 X53.395 Y-8.426 E15.18565
G1 X53.053 Y-8.752 E15.19043
G1 X52.290 Y-9.399 E15.20054
G1 X51.867 Y-9.725 E15.20593
G1 X50.950 Y-10.373 E15.21728
G1 X49.935 Y-11.018 E15.22943
G1 X49.389 Y-11.339 E15.23583
G1 X48.226 Y-11.975 E15.24922
G1 X46.962 Y-12.601 E15.26347
G1 X46.290 Y-12.910 E15.27094
G1 X44.874 Y-13.516 E15.28651
G1 X43.355 Y-14.109 E15.30297
G1 X40.892 Y-14.970 E15.32934
G1 X38.224 Y-15.795 E15.35756
G1 X36.297 Y-16.333 E15.37777
G1 X33.268 Y-17.099 E15.40933
G1 X31.100 Y-17.596 E15.43180
G1 X27.699 Y-18.302 E15.46690
G1 X24.089 Y-18.967 E15.50399
G1 X20.274 Y-19.592 E15.54304
G1 X17.619 Y-19.986 E15.57016
G1 X14.877 Y-20.362 E15.59812
G1 X10.604 Y-20.893 E15.64163
G1 X7.650 Y-21.225 E15.67166
G1 X4.614 Y-21.540 E15.70250
G1 X-0.090 Y-21.978 E15.75023
G1 X-4.970 Y-22.375 E15.79969
G1 X-10.018 Y-22.732 E15.85083
G1 X-17.000 Y-23.148 E15.92149
G1 X-22.415 Y-23.416 E15.97627
G1 X-29.858 Y-23.716 E16.05153
G1 X-35.598 Y-23.900 E16.10955
G1 X-43.447 Y-24.089 E16.18887
G1 X-51.501 Y-24.216 E16.27026
G1 X-57.985 Y-24.273 E16.33577
G1 X-59.861 Y-29.900 E16.39570
G1 X49.928 Y-29.900 E17.50494
G1 X59.726 Y-0.505 E17.81799
G1 X59.895 Y-0.000 E17.82337 F1800.000
G1 X51.702 Y24.577 E18.08510
G1 X51.394 Y24.680 F7800.000
G1 X50.472 Y26.546 F7800.000
G1 X50.398 Y26.503 E18.08596 F1800.000
G1 X50.398 Y23.465 E18.11666
G1 X51.761 Y22.678 E18.13257
G1 X50.472 Y26.546 E18.17376
G1 X37.867 Y13.481 F7800.000
G1 X40.122 Y14.783 E18.20007 F1800.000
G1 X40.122 Y17.822 E18.23077
G1 X37.867 Y19.124 E18.25709
G1 X37.867 Y22.163 E18.28779
G1 X40.122 Y23.465 E18.31410
G1 X40.122 Y26.503 E18.34480
G1 X37.867 Y27.806 E18.37112
G1 X37.867 Y29.355 E18.38677
G1 X37.616 Y29.355 E18.38930
G1 X37.616 Y27.806 E18.40496
G1 X35.361 Y26.503 E18.43127
G1 X35.361 Y23.465 E18.46197
G1 X37.616 Y22.163 E18.48829
G1 X37.616 Y19.124 E18.51898
G1 X35.361 Y17.822 E18.54530
G1 X35.361 Y14.783 E18.57600
G1 X37.616 Y13.481 E18.60231
G1 X37.616 Y11.542 E18.62190
G1 X37.867 Y11.418 E18.62472
G1 X37.867 Y13.481 E18.64556
G1 X35.110 Y14.783 F7800.000
G1 X35.110 Y17.822 E18.67626 F1800.000
G1 X32.854 Y19.124 E18.70257
G1 X32.854 Y22.163 E18.73327
G1 X35.110 Y23.465 E18.75959
G1 X35.110 Y26.503 E18.79029
G1 X32.854 Y27.806 E18.81660
G1 X32.854 Y29.355 E18.83226
G1 X32.604 Y29.355 E18.83479
G1 X32.604 Y27.806 E18.85044
G1 X30.348 Y26.503 E18.87676
G1 X30.348 Y23.465 E18.90746
G1 X32.604 Y22.163 E18.93377
G1 X32.604 Y19.124 E18.96447
G1 X30.348 Y17.822 E18.99078
G1 X30.348 Y14.783 E19.02148
G1 X30.732 Y14.561 E19.02596
G1 X33.064 Y13.602 E19.05144
G1 X35.110 Y14.783 E19.07531
G1 X30.098 Y17.822 F7800.000
G1 X27.842 Y19.124 E19.10162 F1800.000
G1 X27.842 Y22.163 E19.13232
G1 X30.098 Y23.465 E19.15864
G1 X30.098 Y26.503 E19.18934
G1 X27.842 Y27.806 E19.21565
G1 X27.842 Y29.355 E19.23131
G1 X27.591 Y29.355 E19.23384
G1 X27.591 Y27.806 E19.24949
G1 X25.336 Y26.503 E19.27581
G1 X25.336 Y23.465 E19.30651
G1 X27.591 Y22.163 E19.33282
G1 X27.591 Y19.124 E19.36352
G1 X25.336 Y17.822 E19.38983
G1 X25.336 Y16.539 E19.40279
G1 X27.692 Y15.717 E19.42800
G1 X30.098 Y14.803 E19.45401
G1 X30.098 Y17.822 E19.48451
G1 X25.085 Y17.822 F7800.000
G1 X22.830 Y19.124 E19.51082 F1800.000
G1 X22.830 Y22.163 E19.54152
G1 X25.085 Y23.465 E19.56784
G1 X25.085 Y26.503 E19.59854
G1 X22.830 Y27.806 E19.62485
G1 X22.830 Y29.355 E19.64051
G1 X22.579 Y29.355 E19.64304
G1 X22.579 Y27.806 E19.65869
G1 X20.324 Y26.503 E19.68501
G1 X20.324 Y23.465 E19.71571
G1 X22.579 Y22.163 E19.74202
G1 X22.579 Y19.124 E19.77272
G1 X20.715 Y18.048 E19.79447
G1 X24.294 Y16.902 E19.83244
G1 X25.085 Y16.626 E19.84090
G1 X25.085 Y17.822 E19.85297
G1 X17.817 Y19.124 F7800.000
G1 X17.817 Y22.163 E19.88367 F1800.000
G1 X20.073 Y23.465 E19.90999
G1 X20.073 Y26.503 E19.94069
G1 X17.817 Y27.806 E19.96700
G1 X17.817 Y29.355 E19.98266
G1 X17.567 Y29.355 E19.98519
G1 X17.567 Y27.806 E20.00084
G1 X15.311 Y26.503 E20.02716
G1 X15.311 Y23.465 E20.05786
G1 X17.567 Y22.163 E20.08417
G1 X17.567 Y19.124 E20.11487
G1 X17.392 Y19.023 E20.11691
G1 X18.580 Y18.684 E20.12939
G1 X17.817 Y19.124 E20.13829
G1 X12.805 Y22.163 F7800.000
G1 X15.061 Y23.465 E20.16460 F1800.000
G1 X15.061 Y26.503 E20.19530
G1 X12.805 Y27.806 E20.22162
G1 X12.805 Y29.355 E20.23727
G1 X12.554 Y29.355 E20.23980
G1 X12.554 Y27.806 E20.25546
G1 X10.299 Y26.503 E20.28177
G1 X10.299 Y23.465 E20.31247
G1 X12.554 Y22.163 E20.33879
G1 X12.554 Y20.320 E20.35741
G1 X12.805 Y20.254 E20.36002
G1 X12.805 Y22.163 E20.37930
G1 X7.793 Y22.163 F7800.000
G1 X10.048 Y23.465 E20.40562 F1800.000
G1 X10.048 Y26.503 E20.43632
G1 X7.793 Y27.806 E20.46263
G1 X7.793 Y29.355 E20.47828
G1 X7.542 Y29.355 E20.48082
G1 X7.542 Y27.806 E20.49647
G1 X5.286 Y26.503 E20.52278
G1 X5.286 Y23.465 E20.55348
G1 X7.542 Y22.163 E20.57980
G1 X7.542 Y21.532 E20.58617
G1 X7.793 Y21.473 E20.58877
G1 X7.793 Y22.163 E20.59573
G1 X5.036 Y23.465 F7800.000
G1 X5.036 Y26.503 E20.62643 F1800.000
G1 X2.780 Y27.806 E20.65275
G1 X2.780 Y29.355 E20.66840
G1 X2.530 Y29.355 E20.67093
G1 X2.530 Y27.806 E20.68659
G1 X0.274 Y26.503 E20.71290
G1 X0.274 Y23.465 E20.74360
G1 X1.360 Y22.838 E20.75627
G1 X3.285 Y22.454 E20.77610
G1 X5.036 Y23.465 E20.79653
G1 X0.023 Y23.465 F7800.000
G1 X0.023 Y26.503 E20.82723 F1800.000
G1 X-2.232 Y27.806 E20.85354
G1 X-2.232 Y29.355 E20.86920
G1 X-2.483 Y29.355 E20.87173
G1 X-2.483 Y27.806 E20.88738
G1 X-4.738 Y26.503 E20.91370
G1 X-4.738 Y23.951 E20.93948
G1 X-2.615 Y23.591 E20.96124
G1 X-0.455 Y23.189 E20.98344
G1 X0.023 Y23.465 E20.98902
G1 X-4.989 Y26.503 F7800.000
G1 X-7.245 Y27.806 E21.01533 F1800.000
G1 X-7.245 Y29.355 E21.03099
G1 X-7.495 Y29.355 E21.03352
G1 X-7.495 Y27.806 E21.04917
G1 X-9.751 Y26.503 E21.07549
G1 X-9.751 Y24.755 E21.09315
G1 X-7.232 Y24.375 E21.11889
G1 X-4.989 Y23.994 E21.14187
G1 X-4.989 Y26.503 E21.16723
G1 X-10.001 Y26.503 F7800.000
G1 X-12.257 Y27.806 E21.19354 F1800.000
G1 X-12.257 Y29.355 E21.20920
G1 X-12.508 Y29.355 E21.21173
G1 X-12.508 Y27.806 E21.22738
G1 X-14.763 Y26.503 E21.25370
G1 X-14.763 Y25.462 E21.26422
G1 X-11.984 Y25.093 E21.29254
G1 X-10.001 Y24.793 E21.31280
G1 X-10.001 Y26.503 E21.33008
G1 X-15.014 Y26.503 F7800.000
G1 X-17.269 Y27.806 E21.35639 F1800.000
G1 X-17.269 Y29.355 E21.37205
G1 X-17.520 Y29.355 E21.37458
G1 X-17.520 Y27.806 E21.39023
G1 X-19.776 Y26.503 E21.41655
G1 X-19.776 Y26.076 E21.42086
G1 X-16.865 Y25.742 E21.45047
G1 X-15.014 Y25.496 E21.46933
G1 X-15.014 Y26.503 E21.47951
G1 X-20.026 Y26.503 F7800.000
G1 X-22.282 Y27.806 E21.50583 F1800.000
G1 X-22.282 Y29.355 E21.52148
G1 X-22.532 Y29.355 E21.52401
G1 X-22.532 Y27.806 E21.53967
G1 X-24.645 Y26.586 E21.56431
G1 X-21.866 Y26.316 E21.59253
G1 X-20.026 Y26.105 E21.61123
G1 X-20.026 Y26.503 E21.61526
G1 X-27.294 Y27.806 F7800.000
G1 X-27.294 Y29.355 E21.63092 F1800.000
G1 X-27.545 Y29.355 E21.63345
G1 X-27.545 Y27.806 E21.64910
G1 X-28.991 Y26.971 E21.66597
G1 X-26.979 Y26.812 E21.68636
G1 X-25.290 Y26.648 E21.70351
G1 X-27.294 Y27.806 E21.72689
G1 X-32.307 Y27.806 F7800.000
G1 X-32.307 Y29.355 E21.74255 F1800.000
G1 X-32.557 Y29.355 E21.74508
G1 X-32.557 Y27.806 E21.76073
G1 X-33.438 Y27.297 E21.77100
G1 X-31.156 Y27.141 E21.79411
G1 X-32.307 Y27.806 E21.80754
G1 X-37.319 Y27.806 F7800.000
G1 X-37.319 Y29.355 E21.82319 F1800.000
G1 X-37.570 Y29.355 E21.82573
G1 X-37.570 Y27.806 E21.84138
G1 X-37.994 Y27.561 E21.84633
G1 X-36.785 Y27.498 E21.85857
G1 X-37.319 Y27.806 E21.86480
G1 X-42.331 Y27.806 F7800.000
G1 X-42.331 Y29.355 E21.88045 F1800.000
