; generated by Slic3r 1.2.9 on 2016-07-14 at 19:10:28

; external perimeters extrusion width = 0.30mm
; perimeters extrusion width = 0.31mm
; infill extrusion width = 0.31mm
; solid infill extrusion width = 0.31mm
; top infill extrusion width = 0.31mm

M107
M104 S215 ; set temperature
G28 ; home all axes
G1 Z5 F5000 ; lift nozzle

M109 S215 ; wait for temperature to be reached
G21 ; set units to millimeters
G90 ; use absolute coordinates
M82 ; use absolute distances for extrusion
G92 E0
G1 E-2.00000 F2400.00000
G92 E0
G1 Z0.100 F7800.000
G1 X-4.266 Y26.471 F7800.000
G1 E2.00000 F2400.00000
G1 X-11.169 Y25.311 E2.07072 F1800.000
G1 X-19.796 Y23.762 E2.15927
G1 X-28.499 Y22.117 E2.24875
G1 X-39.392 Y19.995 E2.36088
G1 X-56.686 Y16.589 E2.53896
G1 X-58.746 Y15.778 E2.56133
G1 X-60.389 Y14.293 E2.58370
G1 X-61.402 Y12.325 E2.60608
G1 X-61.644 Y11.088 E2.61880
G1 X-64.662 Y-21.965 E2.95414
G1 X-64.465 Y-24.170 E2.97651
G1 X-63.503 Y-26.165 E2.99888
G1 X-61.899 Y-27.692 E3.02125
G1 X-58.863 Y-28.695 E3.05356
G1 X-50.273 Y-29.174 E3.14049
G1 X-37.029 Y-29.838 E3.27446
G1 X-25.883 Y-30.329 E3.38718
G1 X-12.466 Y-30.837 E3.52283
G1 X-1.284 Y-31.187 E3.63586
G1 X9.851 Y-31.468 E3.74840
G1 X20.883 Y-31.676 E3.85988
G1 X31.766 Y-31.803 E3.96984
G1 X42.518 Y-31.848 E4.07847
G1 X50.484 Y-31.826 E4.15896 F1800.000
G1 X52.661 Y-31.417 E4.18133
G1 X54.553 Y-30.268 E4.20370
G1 X56.313 Y-27.601 E4.23598
G1 X64.370 Y-3.428 E4.49342
G1 X64.683 Y-1.236 E4.51579
G1 X64.370 Y0.480 E4.53341
G1 X55.323 Y27.623 E4.82248
G1 X54.257 Y29.564 E4.84485
G1 X52.576 Y31.005 E4.86722
G1 X50.495 Y31.761 E4.88959
G1 X49.308 Y31.846 E4.90161
G1 X48.610 Y31.829 E4.90867
G1 X44.697 Y31.696 E4.94822
G1 X40.711 Y31.511 E4.98854
G1 X34.792 Y31.148 E5.04844
G1 X30.692 Y30.837 E5.08999
G1 X24.619 Y30.291 E5.15160
G1 X18.442 Y29.635 E5.21436
G1 X14.259 Y29.138 E5.25692
G1 X7.980 Y28.315 E5.32089
G1 X1.671 Y27.402 E5.38530
G1 X-4.222 Y26.478 E5.44557
G1 F6240
G1 X-9.350 Y25.617 E3.54557
G1 E3.44557 F2400.00000
G92 E0
G1 X25.555 Y-25.104 F7800.000
G1 E2.00000 F2400.00000
G1 X31.823 Y-25.168 E2.06333 F1800.000
G1 X42.515 Y-25.212 E2.17136
G1 X50.121 Y-25.191 E2.24821
G1 X58.027 Y-1.474 E2.50079 F1800.000
G1 X49.135 Y25.201 E2.78487
G1 X44.945 Y25.065 E2.82723
G1 X39.128 Y24.777 E2.88607
G1 X35.207 Y24.525 E2.92577
G1 X29.257 Y24.057 E2.98607
G1 X25.251 Y23.685 E3.02672
G1 X19.177 Y23.041 E3.08843
G1 X13.034 Y22.295 E3.15095
G1 X6.824 Y21.452 E3.21427
G1 X2.651 Y20.839 E3.25688
G1 X-3.660 Y19.847 E3.32142
G1 X-10.026 Y18.775 E3.38664
G1 X-16.445 Y17.631 E3.45253
G1 X-22.914 Y16.428 E3.51900
G1 X-29.423 Y15.181 E3.58596
G1 X-54.893 Y10.178 E3.84821
G1 X-51.009 Y-1.474 E3.97231
G1 X-57.886 Y-22.103 E4.19200
G1 X-45.534 Y-22.778 E4.31698
G1 X-32.282 Y-23.413 E4.45102
G1 X-18.927 Y-23.964 E4.58607
G1 X-5.546 Y-24.423 E4.72134
G1 X7.784 Y-24.783 E4.85606
G1 X18.794 Y-25.006 E4.96732
G1 X25.510 Y-25.103 E5.03519
G1 X25.508 Y-25.282 F7800.000
G1 X31.822 Y-25.347 E5.09898 F1800.000
G1 X42.515 Y-25.391 E5.20702
G1 X50.250 Y-25.369 E5.28517
G1 X58.215 Y-1.474 E5.53964 F1800.000
G1 X49.263 Y25.384 E5.82568
G1 X44.938 Y25.243 E5.86939
G1 X39.118 Y24.956 E5.92827
G1 X35.194 Y24.703 E5.96799
G1 X29.242 Y24.235 E6.02831
G1 X25.233 Y23.863 E6.06899
G1 X19.157 Y23.218 E6.13072
G1 X13.011 Y22.472 E6.19328
G1 X6.799 Y21.629 E6.25661
G1 X2.624 Y21.016 E6.29925
G1 X-3.688 Y20.023 E6.36380
G1 X-10.056 Y18.951 E6.42904
G1 X-16.477 Y17.807 E6.49494
G1 X-22.947 Y16.603 E6.56143
G1 X-29.457 Y15.356 E6.62839
G1 X-55.127 Y10.314 E6.89270
G1 X-51.198 Y-1.474 E7.01824
G1 X-58.129 Y-22.269 E7.23970
G1 X-45.543 Y-22.956 E7.36705
G1 X-32.290 Y-23.591 E7.50111
G1 X-18.934 Y-24.142 E7.63616
G1 X-5.551 Y-24.601 E7.77145
G1 X7.780 Y-24.962 E7.90619
G1 X18.791 Y-25.184 E8.01746
G1 X25.463 Y-25.281 E8.08488
G1 X25.461 Y-25.460 F7800.000
G1 X31.820 Y-25.525 E8.14913 F1800.000
G1 X42.515 Y-25.569 E8.25718
G1 X50.379 Y-25.547 E8.33663
G1 X58.403 Y-1.474 E8.59301 F1800.000
G1 X49.390 Y25.567 E8.88099
G1 X44.931 Y25.421 E8.92606
G1 X39.108 Y25.134 E8.98497
G1 X35.182 Y24.881 E9.02471
G1 X29.227 Y24.412 E9.08506
G1 X25.215 Y24.041 E9.12577
G1 X19.137 Y23.396 E9.18753
G1 X12.988 Y22.649 E9.25010
G1 X6.774 Y21.806 E9.31346
G1 X2.597 Y21.192 E9.35612
G1 X-3.717 Y20.200 E9.42069
G1 X-10.087 Y19.127 E9.48595
G1 X-16.509 Y17.983 E9.55186
G1 X-22.980 Y16.779 E9.61836
G1 X-29.491 Y15.531 E9.68534
G1 X-55.361 Y10.450 E9.95170
G1 X-51.386 Y-1.474 E10.07869
G1 X-58.373 Y-22.434 E10.30191
G1 X-45.552 Y-23.134 E10.43163
G1 X-32.298 Y-23.769 E10.56570
G1 X-18.941 Y-24.321 E10.70077
G1 X-5.557 Y-24.780 E10.83607
G1 X7.775 Y-25.140 E10.97081
G1 X18.788 Y-25.363 E11.08210
G1 X25.416 Y-25.460 E11.14908
G1 X25.614 Y-25.202 F7800.000
G1 X26.576 Y-24.295 F7800.000
G1 X25.501 Y-24.916 E11.16162 F1800.000
G1 X22.823 Y-24.877 E11.18868
G1 X21.815 Y-24.295 E11.20044
G1 X21.815 Y-21.256 E11.23114
G1 X24.070 Y-19.954 E11.25746
G1 X24.070 Y-16.915 E11.28816
G1 X21.815 Y-15.613 E11.31447
G1 X21.815 Y-12.574 E11.34517
G1 X24.070 Y-11.272 E11.37149
G1 X24.070 Y-8.233 E11.40219
G1 X21.815 Y-6.931 E11.42850
G1 X21.815 Y-3.893 E11.45920
G1 X24.070 Y-2.590 E11.48551
G1 X24.070 Y0.448 E11.51621
G1 X21.815 Y1.750 E11.54253
G1 X21.815 Y4.789 E11.57323
G1 X24.070 Y6.091 E11.59954
G1 X24.070 Y9.130 E11.63024
G1 X21.815 Y10.432 E11.65656
G1 X21.815 Y13.471 E11.68726
G1 X24.070 Y14.773 E11.71357
G1 X24.070 Y17.812 E11.74427
G1 X21.815 Y19.114 E11.77058
G1 X21.815 Y22.153 E11.80128
G1 X23.893 Y23.352 E11.82553
G1 X24.404 Y23.407 E11.83073
G1 X26.576 Y22.153 E11.85607
G1 X26.576 Y19.114 E11.88677
G1 X24.321 Y17.812 E11.91308
G1 X24.321 Y14.773 E11.94378
G1 X26.576 Y13.471 E11.97009
G1 X26.576 Y10.432 E12.00079
G1 X24.321 Y9.130 E12.02711
G1 X24.321 Y6.091 E12.05781
G1 X26.576 Y4.789 E12.08412
G1 X26.576 Y1.750 E12.11482
G1 X24.321 Y0.448 E12.14114
G1 X24.321 Y-2.590 E12.17184
G1 X26.576 Y-3.893 E12.19815
G1 X26.576 Y-6.931 E12.22885
G1 X24.321 Y-8.233 E12.25516
G1 X24.321 Y-11.272 E12.28586
G1 X26.576 Y-12.574 E12.31218
G1 X26.576 Y-15.613 E12.34288
G1 X24.321 Y-16.915 E12.36919
G1 X24.321 Y-19.954 E12.39989
G1 X26.576 Y-21.256 E12.42621
G1 X26.576 Y-24.295 E12.45691
G1 X31.589 Y-24.295 F7800.000
G1 X30.426 Y-24.966 E12.47047 F1800.000
G1 X27.946 Y-24.941 E12.49553
G1 X26.827 Y-24.295 E12.50858
G1 X26.827 Y-21.256 E12.53928
G1 X29.083 Y-19.954 E12.56560
G1 X29.083 Y-16.915 E12.59630
G1 X26.827 Y-15.613 E12.62261
G1 X26.827 Y-12.574 E12.65331
G1 X29.083 Y-11.272 E12.67962
G1 X29.083 Y-8.233 E12.71032
G1 X26.827 Y-6.931 E12.73664
G1 X26.827 Y-3.893 E12.76734
G1 X29.083 Y-2.590 E12.79365
G1 X29.083 Y0.448 E12.82435
G1 X26.827 Y1.750 E12.85067
G1 X26.827 Y4.789 E12.88137
G1 X29.083 Y6.091 E12.90768
G1 X29.083 Y9.130 E12.93838
G1 X26.827 Y10.432 E12.96469
G1 X26.827 Y13.471 E12.99539
G1 X29.083 Y14.773 E13.02171
G1 X29.083 Y17.812 E13.05241
G1 X26.827 Y19.114 E13.07872
G1 X26.827 Y22.153 E13.10942
G1 X29.083 Y23.455 E13.13574
G1 X29.083 Y23.852 E13.13975
G1 X29.333 Y23.874 E13.14229
G1 X29.333 Y23.455 E13.14653
G1 X31.589 Y22.153 E13.17284
G1 X31.589 Y19.114 E13.20354
G1 X29.333 Y17.812 E13.22986
G1 X29.333 Y14.773 E13.26056
G1 X31.589 Y13.471 E13.28687
G1 X31.589 Y10.432 E13.31757
G1 X29.333 Y9.130 E13.34388
G1 X29.333 Y6.091 E13.37458
G1 X31.589 Y4.789 E13.40090
G1 X31.589 Y1.750 E13.43160
G1 X29.333 Y0.448 E13.45791
G1 X29.333 Y-2.590 E13.48861
G1 X31.589 Y-3.893 E13.51493
G1 X31.589 Y-6.931 E13.54563
G1 X29.333 Y-8.233 E13.57194
G1 X29.333 Y-11.272 E13.60264
G1 X31.589 Y-12.574 E13.62895
G1 X31.589 Y-15.613 E13.65965
G1 X29.333 Y-16.915 E13.68597
G1 X29.333 Y-19.954 E13.71667
G1 X31.589 Y-21.256 E13.74298
G1 X31.589 Y-24.295 E13.77368
G1 X36.601 Y-24.295 F7800.000
G1 X35.388 Y-24.995 E13.78783 F1800.000
G1 X33.036 Y-24.985 E13.81160
G1 X31.839 Y-24.295 E13.82556
G1 X31.839 Y-21.256 E13.85626
G1 X34.095 Y-19.954 E13.88257
G1 X34.095 Y-16.915 E13.91327
G1 X31.839 Y-15.613 E13.93958
G1 X31.839 Y-12.574 E13.97028
G1 X34.095 Y-11.272 E13.99660
G1 X34.095 Y-8.233 E14.02730
G1 X31.839 Y-6.931 E14.05361
G1 X31.839 Y-3.893 E14.08431
G1 X34.095 Y-2.590 E14.11063
G1 X34.095 Y0.448 E14.14133
G1 X31.839 Y1.750 E14.16764
G1 X31.839 Y4.789 E14.19834
G1 X34.095 Y6.091 E14.22465
G1 X34.095 Y9.130 E14.25535
G1 X31.839 Y10.432 E14.28167
G1 X31.839 Y13.471 E14.31237
G1 X34.095 Y14.773 E14.33868
G1 X34.095 Y17.812 E14.36938
G1 X31.839 Y19.114 E14.39570
G1 X31.839 Y22.153 E14.42640
G1 X34.095 Y23.455 E14.45271
G1 X34.095 Y24.249 E14.46074
G1 X34.346 Y24.269 E14.46328
G1 X34.346 Y23.455 E14.47151
G1 X36.601 Y22.153 E14.49782
G1 X36.601 Y19.114 E14.52852
G1 X34.346 Y17.812 E14.55483
G1 X34.346 Y14.773 E14.58553
G1 X36.601 Y13.471 E14.61185
G1 X36.601 Y10.432 E14.64255
G1 X34.346 Y9.130 E14.66886
G1 X34.346 Y6.091 E14.69956
G1 X36.601 Y4.789 E14.72588
G1 X36.601 Y1.750 E14.75658
G1 X34.346 Y0.448 E14.78289
G1 X34.346 Y-2.590 E14.81359
G1 X36.601 Y-3.893 E14.83990
G1 X36.601 Y-6.931 E14.87060
G1 X34.346 Y-8.233 E14.89692
G1 X34.346 Y-11.272 E14.92762
G1 X36.601 Y-12.574 E14.95393
G1 X36.601 Y-15.613 E14.98463
G1 X34.346 Y-16.915 E15.01095
G1 X34.346 Y-19.954 E15.04165
G1 X36.601 Y-21.256 E15.06796
G1 X36.601 Y-24.295 E15.09866
G1 X41.614 Y-24.295 F7800.000
G1 X40.365 Y-25.015 E15.11323 F1800.000
G1 X38.084 Y-25.006 E15.13627
G1 X36.852 Y-24.295 E15.15065
G1 X36.852 Y-21.256 E15.18135
G1 X39.107 Y-19.954 E15.20766
G1 X39.107 Y-16.915 E15.23836
G1 X36.852 Y-15.613 E15.26467
G1 X36.852 Y-12.574 E15.29537
G1 X39.107 Y-11.272 E15.32169
G1 X39.107 Y-8.233 E15.35239
G1 X36.852 Y-6.931 E15.37870
G1 X36.852 Y-3.893 E15.40940
G1 X39.107 Y-2.590 E15.43572
G1 X39.107 Y0.448 E15.46642
G1 X36.852 Y1.750 E15.49273
G1 X36.852 Y4.789 E15.52343
G1 X39.107 Y6.091 E15.54974
G1 X39.107 Y9.130 E15.58044
G1 X36.852 Y10.432 E15.60676
G1 X36.852 Y13.471 E15.63746
G1 X39.107 Y14.773 E15.66377
G1 X39.107 Y17.812 E15.69447
G1 X36.852 Y19.114 E15.72079
G1 X36.852 Y22.153 E15.75149
G1 X39.107 Y23.455 E15.77780
G1 X39.107 Y24.588 E15.78925
G1 X39.358 Y24.601 E15.79179
G1 X39.358 Y23.455 E15.80336
G1 X41.614 Y22.153 E15.82968
G1 X41.614 Y19.114 E15.86038
G1 X39.358 Y17.812 E15.88669
G1 X39.358 Y14.773 E15.91739
G1 X41.614 Y13.471 E15.94371
G1 X41.614 Y10.432 E15.97441
G1 X39.358 Y9.130 E16.00072
G1 X39.358 Y6.091 E16.03142
G1 X41.614 Y4.789 E16.05773
G1 X41.614 Y1.750 E16.08843
G1 X39.358 Y0.448 E16.11475
G1 X39.358 Y-2.590 E16.14545
G1 X41.614 Y-3.893 E16.17176
G1 X41.614 Y-6.931 E16.20246
G1 X39.358 Y-8.233 E16.22878
G1 X39.358 Y-11.272 E16.25948
G1 X41.614 Y-12.574 E16.28579
G1 X41.614 Y-15.613 E16.31649
G1 X39.358 Y-16.915 E16.34280
G1 X39.358 Y-19.954 E16.37350
G1 X41.614 Y-21.256 E16.39982
G1 X41.614 Y-24.295 E16.43052
G1 X45.376 Y-25.016 F7800.000
G1 X43.125 Y-25.023 E16.45326 F1800.000
G1 X41.864 Y-24.295 E16.46797
G1 X41.864 Y-21.256 E16.49867
G1 X44.120 Y-19.954 E16.52498
G1 X44.120 Y-16.915 E16.55568
G1 X41.864 Y-15.613 E16.58200
G1 X41.864 Y-12.574 E16.61270
G1 X44.120 Y-11.272 E16.63901
G1 X44.120 Y-8.233 E16.66971
G1 X41.864 Y-6.931 E16.69602
G1 X41.864 Y-3.893 E16.72672
G1 X44.120 Y-2.590 E16.75304
G1 X44.120 Y0.448 E16.78374
G1 X41.864 Y1.750 E16.81005
G1 X41.864 Y4.789 E16.84075
G1 X44.120 Y6.091 E16.86707
G1 X44.120 Y9.130 E16.89777
G1 X41.864 Y10.432 E16.92408
G1 X41.864 Y13.471 E16.95478
G1 X44.120 Y14.773 E16.98109
G1 X44.120 Y17.812 E17.01179
G1 X41.864 Y19.114 E17.03811
G1 X41.864 Y22.153 E17.06881
G1 X44.120 Y23.455 E17.09512
G1 X44.120 Y24.836 E17.10908
G1 X44.370 Y24.848 E17.11161
G1 X44.370 Y23.455 E17.12569
G1 X46.626 Y22.153 E17.15200
G1 X46.626 Y19.114 E17.18270
G1 X44.370 Y17.812 E17.20902
G1 X44.370 Y14.773 E17.23972
G1 X46.626 Y13.471 E17.26603
G1 X46.626 Y10.432 E17.29673
G1 X44.370 Y9.130 E17.32305
G1 X44.370 Y6.091 E17.35374
G1 X46.626 Y4.789 E17.38006
G1 X46.626 Y1.750 E17.41076
G1 X44.370 Y0.448 E17.43707
G1 X44.370 Y-2.590 E17.46777
G1 X46.626 Y-3.893 E17.49409
G1 X46.626 Y-6.931 E17.52479
G1 X44.370 Y-8.233 E17.55110
G1 X44.370 Y-11.272 E17.58180
G1 X46.626 Y-12.574 E17.60811
G1 X46.626 Y-15.613 E17.63881
G1 X44.370 Y-16.915 E17.66513
G1 X44.370 Y-19.954 E17.69583
G1 X46.626 Y-21.256 E17.72214
G1 X46.626 Y-24.295 E17.75284
G1 X45.376 Y-25.016 E17.76743
G1 X49.986 Y-25.004 F7800.000
G1 X48.113 Y-25.009 E17.78634 F1800.000
G1 X46.877 Y-24.295 E17.80077
G1 X46.877 Y-21.256 E17.83147
G1 X49.132 Y-19.954 E17.85779
G1 X49.132 Y-16.915 E17.88849
G1 X46.877 Y-15.613 E17.91480
G1 X46.877 Y-12.574 E17.94550
G1 X49.132 Y-11.272 E17.97181
G1 X49.132 Y-8.233 E18.00251
G1 X46.877 Y-6.931 E18.02883
G1 X46.877 Y-3.893 E18.05953
G1 X49.132 Y-2.590 E18.08584
G1 X49.132 Y0.448 E18.11654
G1 X46.877 Y1.750 E18.14286
G1 X46.877 Y4.789 E18.17356
G1 X49.132 Y6.091 E18.19987
G1 X49.132 Y9.130 E18.23057
G1 X46.877 Y10.432 E18.25688
G1 X46.877 Y13.471 E18.28758
G1 X49.132 Y14.773 E18.31390
G1 X49.132 Y17.812 E18.34460
G1 X46.877 Y19.114 E18.37091
G1 X46.877 Y22.153 E18.40161
G1 X49.132 Y23.455 E18.42793
G1 X49.132 Y24.617 E18.43967
G1 X49.383 Y23.865 E18.44767
G1 X49.383 Y23.455 E18.45182
G1 X49.552 Y23.357 E18.45379
G1 X51.075 Y18.789 E18.50244
G1 X49.383 Y17.812 E18.52218
G1 X49.383 Y14.773 E18.55288
G1 X51.638 Y13.471 E18.57920
G1 X51.638 Y10.432 E18.60990
G1 X49.383 Y9.130 E18.63621
G1 X49.383 Y6.091 E18.66691
G1 X51.638 Y4.789 E18.69323
G1 X51.638 Y1.750 E18.72393
G1 X49.383 Y0.448 E18.75024
G1 X49.383 Y-2.590 E18.78094
G1 X51.638 Y-3.893 E18.80725
G1 X51.638 Y-6.931 E18.83795
G1 X49.383 Y-8.233 E18.86427
G1 X49.383 Y-11.272 E18.89497
G1 X51.638 Y-12.574 E18.92128
G1 X51.638 Y-15.613 E18.95198
G1 X49.383 Y-16.915 E18.97830
G1 X49.383 Y-19.954 E19.00900
G1 X51.300 Y-21.061 E19.03136
G1 X49.986 Y-25.004 E19.07335
G1 X54.536 Y-11.353 F7800.000
G1 X52.918 Y-16.207 E19.12504 F1800.000
G1 X51.889 Y-15.613 E19.13705
G1 X51.889 Y-12.574 E19.16775
G1 X54.145 Y-11.272 E19.19406
G1 X54.145 Y-8.233 E19.22476
G1 X51.889 Y-6.931 E19.25108
G1 X51.889 Y-3.893 E19.28178
G1 X54.145 Y-2.590 E19.30809
G1 X54.145 Y0.448 E19.33879
G1 X51.889 Y1.750 E19.36510
G1 X51.889 Y4.789 E19.39580
G1 X54.145 Y6.091 E19.42212
G1 X54.145 Y9.130 E19.45282
G1 X51.889 Y10.432 E19.47913
G1 X51.889 Y13.471 E19.50983
G1 X52.693 Y13.935 E19.51921
G1 X54.395 Y8.828 E19.57360
G1 X54.395 Y6.091 E19.60125
G1 X55.525 Y5.439 E19.61442
G1 X56.651 Y2.061 E19.65040
G1 X56.651 Y1.750 E19.65354
G1 X54.395 Y0.448 E19.67985
G1 X54.395 Y-2.590 E19.71055
G1 X56.651 Y-3.893 E19.73687
G1 X56.651 Y-5.009 E19.74814
G1 X55.857 Y-7.389 E19.77350
G1 X54.395 Y-8.233 E19.79055
G1 X54.395 Y-11.272 E19.82125
G1 X54.536 Y-11.353 E19.82289
G1 X57.052 Y-3.806 F7800.000
G1 X56.901 Y-4.257 E19.82769 F1800.000
G1 X56.901 Y-3.893 E19.83137
G1 X57.052 Y-3.806 E19.83313
G1 X21.564 Y-24.295 F7800.000
G1 X20.612 Y-24.844 E19.84424 F1800.000
G1 X17.669 Y-24.795 E19.87397
G1 X16.802 Y-24.295 E19.88408
G1 X16.802 Y-21.256 E19.91478
G1 X19.058 Y-19.954 E19.94110
G1 X19.058 Y-16.915 E19.97180
G1 X16.802 Y-15.613 E19.99811
G1 X16.802 Y-12.574 E20.02881
G1 X19.058 Y-11.272 E20.05513
G1 X19.058 Y-8.233 E20.08583
G1 X16.802 Y-6.931 E20.11214
G1 X16.802 Y-3.893 E20.14284
G1 X19.058 Y-2.590 E20.16915
G1 X19.058 Y0.448 E20.19985
G1 X16.802 Y1.750 E20.22617
G1 X16.802 Y4.789 E20.25687
G1 X19.058 Y6.091 E20.28318
G1 X19.058 Y9.130 E20.31388
G1 X16.802 Y10.432 E20.34020
G1 X16.802 Y13.471 E20.37090
G1 X19.058 Y14.773 E20.39721
G1 X19.058 Y17.812 E20.42791
G1 X16.802 Y19.114 E20.45422
G1 X16.802 Y22.153 E20.48492
G1 X17.703 Y22.673 E20.49543
G1 X20.170 Y22.957 E20.52052
G1 X21.564 Y22.153 E20.53679
G1 X21.564 Y19.114 E20.56749
G1 X19.309 Y17.812 E20.59380
G1 X19.309 Y14.773 E20.62450
G1 X21.564 Y13.471 E20.65081
G1 X21.564 Y10.432 E20.68151
G1 X19.309 Y9.130 E20.70783
G1 X19.309 Y6.091 E20.73853
G1 X21.564 Y4.789 E20.76484
G1 X21.564 Y1.750 E20.79554
G1 X19.309 Y0.448 E20.82186
G1 X19.309 Y-2.590 E20.85256
G1 X21.564 Y-3.893 E20.87887
G1 X21.564 Y-6.931 E20.90957
G1 X19.309 Y-8.233 E20.93588
G1 X19.309 Y-11.272 E20.96658
G1 X21.564 Y-12.574 E20.99290
G1 X21.564 Y-15.613 E21.02360
G1 X19.309 Y-16.915 E21.04991
G1 X19.309 Y-19.954 E21.08061
