; generated by Slic3r 1.2.9 on 2016-07-14 at 19:10:43

; external perimeters extrusion width = 0.30mm
; perimeters extrusion width = 0.31mm
; infill extrusion width = 0.31mm
; solid infill extrusion width = 0.31mm
; top infill extrusion width = 0.31mm

M107
M104 S215 ; set temperature
G28 ; home all axes
G1 Z5 F5000 ; lift nozzle

M109 S215 ; wait for temperature to be reached
G21 ; set units to millimeters
G90 ; use absolute coordinates
M82 ; use absolute distances for extrusion
G92 E0
G1 E-2.00000 F2400.00000
G92 E0
G1 Z0.100 F7800.000
G1 X19.733 Y-1.801 F7800.000
G1 E2.00000 F2400.00000
G1 X20.942 Y11.439 E2.13433 F1800.000
G1 X20.651 Y13.954 E2.15991
G1 X14.651 Y31.954 E2.35160
G1 X13.586 Y33.895 E2.37397
G1 X11.904 Y35.336 E2.39634
G1 X8.789 Y36.179 E2.42895
G1 X-14.739 Y36.179 E2.66666
G1 X-16.918 Y35.782 E2.68904
G1 X-18.816 Y34.642 E2.71141
G1 X-20.191 Y32.907 E2.73378
G1 X-20.918 Y30.000 E2.76405
G1 X-20.918 Y-30.000 E3.37025
G1 X-20.521 Y-32.178 E3.39262
G1 X-19.382 Y-34.077 E3.41499
G1 X-17.646 Y-35.452 E3.43736
G1 X-14.739 Y-36.179 E3.46763
G1 X8.789 Y-36.179 E3.70535
G1 X10.968 Y-35.782 E3.72772
G1 X12.866 Y-34.642 E3.75009 F1800.000
G1 X14.651 Y-31.954 E3.78269
G1 X17.633 Y-23.007 E3.87798
G1 X17.925 Y-21.615 E3.89235
G1 X19.729 Y-1.846 E4.09290
G1 F6240
G1 X20.202 Y3.332 E2.19290
G1 E2.09290 F2400.00000
G92 E0
G1 X8.752 Y28.668 F7800.000
G1 E2.00000 F2400.00000
G1 X8.460 Y29.543 E2.00932 F1800.000
G1 X-14.282 Y29.543 E2.23909
G1 X-14.282 Y6.894 E2.46792
G1 X-13.601 Y7.020 E2.47492
G1 X-0.770 Y9.442 E2.60684 F1800.000
G1 X14.191 Y12.350 E2.76082
G1 X8.766 Y28.625 E2.93416
G1 X8.935 Y28.682 F7800.000
G1 X8.589 Y29.721 E2.94523 F1800.000
G1 X-14.461 Y29.721 E3.17810
G1 X-14.461 Y6.679 E3.41090
G1 X-13.568 Y6.844 E3.42007
G1 X-0.736 Y9.266 E3.55201 F1800.000
G1 X14.425 Y12.213 E3.70805
G1 X8.949 Y28.639 E3.88298
G1 X9.119 Y28.696 F7800.000
G1 X8.717 Y29.900 E3.89581 F1800.000
G1 X-14.639 Y29.900 E4.13178
G1 X-14.639 Y6.465 E4.36856
G1 X-13.535 Y6.669 E4.37990
G1 X-0.703 Y9.091 E4.51184 F1800.000
G1 X14.658 Y12.077 E4.66994
G1 X9.133 Y28.653 E4.84647
G1 X8.825 Y28.756 F7800.000
G1 X12.904 Y12.291 F7800.000
G1 X12.904 Y13.481 E4.85850 F1800.000
G1 X13.501 Y13.826 E4.86546
G1 X11.883 Y18.679 E4.91715
G1 X10.398 Y17.822 E4.93448
G1 X10.398 Y14.783 E4.96518
G1 X12.654 Y13.481 E4.99149
G1 X12.654 Y12.242 E5.00401
G1 X12.904 Y12.291 E5.00658
G1 X7.892 Y11.317 F7800.000
G1 X7.892 Y13.481 E5.02845 F1800.000
G1 X10.147 Y14.783 E5.05476
G1 X10.147 Y17.822 E5.08546
G1 X7.892 Y19.124 E5.11178
G1 X7.892 Y22.163 E5.14248
G1 X10.147 Y23.465 E5.16879
G1 X10.147 Y23.887 E5.17306
G1 X9.067 Y27.127 E5.20756
G1 X7.892 Y27.806 E5.22128
G1 X7.892 Y29.355 E5.23693
G1 X7.641 Y29.355 E5.23946
G1 X7.641 Y27.806 E5.25512
G1 X5.386 Y26.503 E5.28143
G1 X5.386 Y23.465 E5.31213
G1 X7.641 Y22.163 E5.33845
G1 X7.641 Y19.124 E5.36915
G1 X5.386 Y17.822 E5.39546
G1 X5.386 Y14.783 E5.42616
G1 X7.641 Y13.481 E5.45247
G1 X7.641 Y11.268 E5.47483
G1 X7.892 Y11.317 E5.47741
G1 X3.009 Y10.368 F7800.000
G1 X2.879 Y10.442 E5.47892 F1800.000
G1 X2.879 Y13.481 E5.50962
G1 X5.135 Y14.783 E5.53594
G1 X5.135 Y17.822 E5.56664
G1 X2.879 Y19.124 E5.59295
G1 X2.879 Y22.163 E5.62365
G1 X5.135 Y23.465 E5.64996
G1 X5.135 Y26.503 E5.68066
G1 X2.879 Y27.806 E5.70698
G1 X2.879 Y29.355 E5.72263
G1 X2.629 Y29.355 E5.72516
G1 X2.629 Y27.806 E5.74082
G1 X0.373 Y26.503 E5.76713
G1 X0.373 Y23.465 E5.79783
G1 X2.629 Y22.163 E5.82415
G1 X2.629 Y19.124 E5.85485
G1 X0.373 Y17.822 E5.88116
G1 X0.373 Y14.783 E5.91186
G1 X2.629 Y13.481 E5.93817
G1 X2.629 Y10.442 E5.96887
G1 X2.241 Y10.218 E5.97340
G1 X3.009 Y10.368 E5.98131
G1 X-0.805 Y9.626 F7800.000
G1 X-0.741 Y9.639 E5.98197 F1800.000
G1 X-2.133 Y10.442 E5.99821
G1 X-2.133 Y13.481 E6.02891
G1 X0.123 Y14.783 E6.05523
G1 X0.123 Y17.822 E6.08593
G1 X-2.133 Y19.124 E6.11224
G1 X-2.133 Y22.163 E6.14294
G1 X0.123 Y23.465 E6.16925
G1 X0.123 Y26.503 E6.19995
G1 X-2.133 Y27.806 E6.22627
G1 X-2.133 Y29.355 E6.24192
G1 X-2.384 Y29.355 E6.24445
G1 X-2.384 Y27.806 E6.26011
G1 X-4.639 Y26.503 E6.28642
G1 X-4.639 Y23.465 E6.31712
G1 X-2.384 Y22.163 E6.34344
G1 X-2.384 Y19.124 E6.37414
G1 X-4.639 Y17.822 E6.40045
G1 X-4.639 Y14.783 E6.43115
G1 X-2.384 Y13.481 E6.45746
G1 X-2.384 Y10.442 E6.48816
G1 X-4.639 Y9.140 E6.51448
G1 X-4.639 Y8.902 E6.51688
G1 X-0.805 Y9.626 E6.55630
G1 X-4.890 Y8.855 F7800.000
G1 X-4.890 Y9.140 E6.55918 F1800.000
G1 X-7.145 Y10.442 E6.58549
G1 X-7.145 Y13.481 E6.61619
G1 X-4.890 Y14.783 E6.64251
G1 X-4.890 Y17.822 E6.67321
G1 X-7.145 Y19.124 E6.69952
G1 X-7.145 Y22.163 E6.73022
G1 X-4.890 Y23.465 E6.75653
G1 X-4.890 Y26.503 E6.78723
G1 X-7.145 Y27.806 E6.81355
G1 X-7.145 Y29.355 E6.82920
G1 X-7.396 Y29.355 E6.83173
G1 X-7.396 Y27.806 E6.84739
G1 X-9.652 Y26.503 E6.87370
G1 X-9.652 Y23.465 E6.90440
G1 X-7.396 Y22.163 E6.93072
G1 X-7.396 Y19.124 E6.96142
G1 X-9.652 Y17.822 E6.98773
G1 X-9.652 Y14.783 E7.01843
G1 X-7.396 Y13.481 E7.04474
G1 X-7.396 Y10.442 E7.07544
G1 X-9.652 Y9.140 E7.10176
G1 X-9.652 Y7.956 E7.11372
G1 X-4.890 Y8.855 E7.16268
G1 X-13.635 Y7.204 F7800.000
G1 X-9.902 Y7.909 E7.20106 F1800.000
G1 X-9.902 Y9.140 E7.21350
G1 X-12.158 Y10.442 E7.23982
G1 X-12.158 Y13.481 E7.27051
G1 X-9.902 Y14.783 E7.29683
G1 X-9.902 Y17.822 E7.32753
G1 X-12.158 Y19.124 E7.35384
G1 X-12.158 Y22.163 E7.38454
G1 X-9.902 Y23.465 E7.41086
G1 X-9.902 Y26.503 E7.44156
G1 X-12.158 Y27.806 E7.46787
G1 X-12.158 Y29.355 E7.48353
G1 X-12.408 Y29.355 E7.48606
G1 X-12.408 Y27.806 E7.50171
G1 X-14.094 Y26.832 E7.52138
G1 X-14.094 Y23.136 E7.55873
G1 X-12.408 Y22.163 E7.57839
G1 X-12.408 Y19.124 E7.60909
G1 X-14.094 Y18.151 E7.62876
G1 X-14.094 Y14.454 E7.66611
G1 X-12.408 Y13.481 E7.68578
G1 X-12.408 Y10.442 E7.71648
G1 X-14.094 Y9.469 E7.73615
G1 X-14.094 Y7.119 E7.75988
G1 X-13.635 Y7.204 E7.76460
G1 F6240
G1 X-14.094 Y7.119 E7.59405
G1 F6240
G1 X-14.094 Y9.469 E6.73561
G1 F6240
G1 X-12.408 Y10.442 E6.02426
G1 F6240
G1 X-12.408 Y10.879 E5.86460
G1 E5.76460 F2400.00000
G92 E0
G1 X-13.517 Y6.570 F7800.000
G1 X-7.571 Y-1.647 F7800.000
G1 X-4.543 Y-7.813 F7800.000
G1 X-8.982 Y-11.960 F7800.000
G1 X-9.518 Y-19.699 F7800.000
G1 X-6.108 Y-29.543 F7800.000
G1 E2.00000 F2400.00000
G1 X8.460 Y-29.543 E2.14719 F1800.000
G1 X11.150 Y-21.473 E2.23314
G1 X-1.188 Y-20.716 E2.35802 F1800.000
G1 X-14.282 Y-19.820 E2.49063
G1 X-14.282 Y-29.543 E2.58886
G1 X-6.153 Y-29.543 E2.67099
G1 X-6.153 Y-29.721 F7800.000
G1 X8.589 Y-29.721 E2.81993 F1800.000
G1 X11.393 Y-21.309 E2.90953
G1 X-1.176 Y-20.538 E3.03676 F1800.000
G1 X-14.461 Y-19.628 E3.17129
G1 X-14.461 Y-29.721 E3.27326
G1 X-6.198 Y-29.721 E3.35673
G1 X-6.198 Y-29.900 F7800.000
G1 X8.717 Y-29.900 E3.50743 F1800.000
G1 X11.636 Y-21.145 E3.60067
G1 X-1.165 Y-20.359 E3.73025 F1800.000
G1 X-7.450 Y-19.942 E3.79389
G1 X-14.639 Y-19.437 E3.86670
G1 X-14.639 Y-29.900 E3.97241
G1 X-6.243 Y-29.900 E4.05724
G1 X-6.048 Y-29.640 F7800.000
G1 X-4.890 Y-28.625 F7800.000
G1 X-6.154 Y-29.355 E4.07198 F1800.000
G1 X-8.388 Y-29.355 E4.09455
G1 X-9.652 Y-28.625 E4.10930
G1 X-9.652 Y-25.587 E4.14000
G1 X-7.396 Y-24.285 E4.16631
G1 X-7.396 Y-21.246 E4.19701
G1 X-8.902 Y-20.376 E4.21459
G1 X-5.985 Y-20.576 E4.24413
G1 X-7.145 Y-21.246 E4.25767
G1 X-7.145 Y-24.285 E4.28837
G1 X-4.890 Y-25.587 E4.31469
G1 X-4.890 Y-28.625 E4.34539
G1 X0.123 Y-28.625 F7800.000
G1 X-1.141 Y-29.355 E4.36013 F1800.000
G1 X-3.375 Y-29.355 E4.38270
G1 X-4.639 Y-28.625 E4.39745
G1 X-4.639 Y-25.587 E4.42815
G1 X-2.384 Y-24.285 E4.45446
G1 X-2.384 Y-21.246 E4.48516
G1 X-3.216 Y-20.765 E4.49488
G1 X-1.503 Y-20.882 E4.51222
G1 X-2.133 Y-21.246 E4.51957
G1 X-2.133 Y-24.285 E4.55027
G1 X0.123 Y-25.587 E4.57658
G1 X0.123 Y-28.625 E4.60728
G1 X5.135 Y-28.625 F7800.000
G1 X3.871 Y-29.355 E4.62203 F1800.000
G1 X1.637 Y-29.355 E4.64460
G1 X0.373 Y-28.625 E4.65934
G1 X0.373 Y-25.587 E4.69004
G1 X2.629 Y-24.285 E4.71636
G1 X2.629 Y-21.246 E4.74706
G1 X2.420 Y-21.125 E4.74950
G1 X3.024 Y-21.162 E4.75562
G1 X2.879 Y-21.246 E4.75731
G1 X2.879 Y-24.285 E4.78801
G1 X5.135 Y-25.587 E4.81432
G1 X5.135 Y-28.625 E4.84502
G1 X9.672 Y-25.312 F7800.000
G1 X8.325 Y-29.355 E4.88807 F1800.000
G1 X6.650 Y-29.355 E4.90500
G1 X5.386 Y-28.625 E4.91974
G1 X5.386 Y-25.587 E4.95044
G1 X7.641 Y-24.285 E4.97676
G1 X7.641 Y-21.446 E5.00544
G1 X7.892 Y-21.461 E5.00798
G1 X7.892 Y-24.285 E5.03650
G1 X9.672 Y-25.312 E5.05727
G1 X-9.902 Y-28.625 F7800.000
G1 X-11.166 Y-29.355 E5.07202 F1800.000
G1 X-13.400 Y-29.355 E5.09459
G1 X-14.094 Y-28.954 E5.10269
G1 X-14.094 Y-25.258 E5.14003
G1 X-12.408 Y-24.285 E5.15970
G1 X-12.408 Y-21.246 E5.19040
G1 X-14.094 Y-20.273 E5.21007
G1 X-14.094 Y-20.021 E5.21261
G1 X-10.466 Y-20.269 E5.24936
G1 X-12.158 Y-21.246 E5.26909
G1 X-12.158 Y-24.285 E5.29979
G1 X-9.902 Y-25.587 E5.32611
G1 X-9.902 Y-28.625 E5.35681
G1 F6240
G1 X-9.902 Y-25.587 E4.24655
G1 F6240
G1 X-11.774 Y-24.506 E3.45681
G1 E3.35681 F2400.00000
G92 E0
G1 Z0.400 F7800.000
G1 X8.741 Y11.481 F7800.000
G1 E2.00000 F2400.00000
G1 X13.947 Y12.492 E2.22562 F3600.000
G1 X8.325 Y29.356 E2.98192
G1 X-13.896 Y29.356 E3.92735
G1 X-13.896 Y7.155 E4.87193
G1 X-13.635 Y7.203 E4.88320
G1 X-0.805 Y9.625 E5.43871 F3600.000
G1 X8.697 Y11.472 E5.85056
G1 X8.745 Y11.226 F7800.000
G1 X14.275 Y12.301 E6.09024 F3600.000
G1 X8.506 Y29.607 E6.86637
G1 X-14.146 Y29.607 E7.83014
G1 X-14.146 Y6.854 E8.79820
G1 X-13.589 Y6.957 E8.82230
G1 X-0.758 Y9.379 E9.37787 F3600.000
G1 X8.701 Y11.217 E9.78783
G1 X8.747 Y10.979 F7800.000
G1 X14.593 Y12.115 E10.02604 F1800.000
G1 X8.681 Y29.850 E10.77381
G1 X-14.389 Y29.850 E11.69663
G1 X-14.389 Y6.562 E12.62815
G1 X-13.545 Y6.718 E12.66251
G1 X-0.712 Y9.140 E13.18488 F1800.000
G1 X8.703 Y10.970 E13.56853
G1 X8.845 Y11.262 F7800.000
G1 X7.767 Y11.508 F7800.000
G1 X7.767 Y13.264 E13.64322 F4800.000
G1 X10.398 Y14.783 E13.77251
G1 X12.654 Y13.481 E13.88332
G1 X13.273 Y13.839 E13.91377
G1 X11.736 Y18.450 E14.12056
G1 X10.273 Y17.605 E14.19247
G1 X10.273 Y15.000 E14.30328
G1 X7.641 Y13.481 E14.43257
G1 X5.386 Y14.783 E14.54338
G1 X2.754 Y13.264 E14.67266
G1 X2.754 Y10.659 E14.78347
G1 X2.426 Y10.470 E14.79957
G1 X7.767 Y11.508 E15.03103
G1 X13.668 Y12.655 F7800.000
G1 X13.354 Y13.596 E15.07322 F4800.000
G1 X12.779 Y13.264 E15.10148
G1 X12.779 Y12.482 E15.13473
G1 X13.668 Y12.655 E15.17326
G1 X-1.022 Y9.801 F7800.000
G1 X-2.133 Y10.442 E15.22784 F4800.000
G1 X-4.323 Y9.178 E15.33546
G1 X-1.022 Y9.801 E15.47841
G1 X-12.283 Y10.659 F7800.000
G1 X-12.283 Y13.264 E15.58922 F4800.000
G1 X-9.652 Y14.783 E15.71850
G1 X-7.396 Y13.481 E15.82932
G1 X-4.764 Y15.000 E15.95860
G1 X-4.764 Y17.605 E16.06941
G1 X-2.133 Y19.124 E16.19869
G1 X0.123 Y17.822 E16.30951
G1 X2.754 Y19.341 E16.43879
G1 X2.754 Y21.946 E16.54960
G1 X5.386 Y23.465 E16.67888
G1 X7.641 Y22.163 E16.78969
G1 X10.038 Y23.546 E16.90743
G1 X8.791 Y27.287 E17.07518
G1 X7.892 Y27.806 E17.11934
G1 X5.260 Y26.286 E17.24863
G1 X5.260 Y23.682 E17.35944
G1 X2.629 Y22.163 E17.48872
G1 X0.373 Y23.465 E17.59953
G1 X-2.258 Y21.946 E17.72881
G1 X-2.258 Y19.341 E17.83963
G1 X-4.890 Y17.822 E17.96891
G1 X-7.145 Y19.124 E18.07972
G1 X-9.777 Y17.605 E18.20900
G1 X-9.777 Y15.000 E18.31982
G1 X-12.408 Y13.481 E18.44910
G1 X-13.682 Y14.217 E18.51169
G1 X-13.682 Y9.851 E18.69742
G1 X-12.283 Y10.659 E18.76617
G1 X-13.674 Y7.412 F7800.000
G1 X-9.777 Y8.148 E18.93492 F4800.000
G1 X-9.777 Y8.923 E18.96788
G1 X-7.145 Y10.442 E19.09717
G1 X-4.890 Y9.140 E19.20798
G1 X-2.258 Y10.659 E19.33726
G1 X-2.258 Y13.264 E19.44807
G1 X0.373 Y14.783 E19.57736
G1 X2.629 Y13.481 E19.68817
G1 X5.260 Y15.000 E19.81745
G1 X5.260 Y17.605 E19.92826
G1 X7.892 Y19.124 E20.05754
G1 X10.147 Y17.822 E20.16836
G1 X11.655 Y18.692 E20.24245
G1 X10.118 Y23.303 E20.44924
G1 X7.767 Y21.946 E20.56479
G1 X7.767 Y19.341 E20.67560
G1 X5.135 Y17.822 E20.80489
G1 X2.879 Y19.124 E20.91570
G1 X0.248 Y17.605 E21.04498
G1 X0.248 Y15.000 E21.15579
G1 X-2.384 Y13.481 E21.28507
G1 X-4.639 Y14.783 E21.39589
G1 X-7.271 Y13.264 E21.52517
G1 X-7.271 Y10.659 E21.63598
G1 X-9.902 Y9.140 E21.76526
G1 X-12.158 Y10.442 E21.87608
G1 X-13.682 Y9.562 E21.95099
G1 X-13.674 Y7.412 E22.04244
G1 X-7.271 Y19.341 F7800.000
G1 X-7.271 Y21.946 E22.15325 F4800.000
G1 X-4.639 Y23.465 E22.28254
G1 X-2.384 Y22.163 E22.39335
G1 X0.248 Y23.682 E22.52263
G1 X0.248 Y26.286 E22.63344
G1 X2.879 Y27.806 E22.76272
G1 X5.135 Y26.503 E22.87354
G1 X7.767 Y28.023 E23.00282
G1 X7.767 Y29.143 E23.05049
G1 X2.754 Y29.143 E23.26375
G1 X2.754 Y28.023 E23.31142
G1 X0.123 Y26.503 E23.44070
G1 X-2.133 Y27.806 E23.55152
G1 X-4.764 Y26.286 E23.68080
G1 X-4.764 Y23.682 E23.79161
G1 X-7.396 Y22.163 E23.92089
G1 X-9.652 Y23.465 E24.03171
G1 X-12.283 Y21.946 E24.16099
G1 X-12.283 Y19.341 E24.27180
G1 X-13.682 Y18.533 E24.34055
G1 X-13.682 Y18.244 E24.35287
G1 X-12.158 Y19.124 E24.42778
G1 X-9.902 Y17.822 E24.53859
G1 X-7.271 Y19.341 E24.66787
G1 X-9.777 Y23.682 F7800.000
G1 X-9.777 Y26.286 E24.77868 F4800.000
G1 X-7.145 Y27.806 E24.90796
G1 X-4.890 Y26.503 E25.01878
G1 X-2.258 Y28.023 E25.14806
G1 X-2.258 Y29.143 E25.19573
G1 X-7.271 Y29.143 E25.40899
G1 X-7.271 Y28.023 E25.45666
G1 X-9.902 Y26.503 E25.58594
G1 X-12.158 Y27.806 E25.69676
G1 X-13.682 Y26.925 E25.77167
G1 X-13.682 Y22.898 E25.94301
G1 X-12.408 Y22.163 E26.00560
G1 X-9.777 Y23.682 E26.13489
G1 X-12.283 Y28.023 F7800.000
G1 X-12.283 Y29.143 E26.18256 F4800.000
G1 X-13.682 Y29.143 E26.24210
G1 X-13.682 Y27.215 E26.32415
G1 X-12.283 Y28.023 E26.39290
G1 F6240
G1 X-13.682 Y27.215 E25.80246
G1 F6240
G1 X-13.682 Y29.143 E25.09784
G1 F6240
G1 X-12.283 Y29.143 E24.58650
G1 F6240
G1 X-12.283 Y28.887 E24.49290
G1 E24.39290 F2400.00000
G92 E0
G1 X-7.131 Y7.765 F7800.000
G1 X-2.330 Y-5.787 F7800.000
G1 X-2.329 Y-5.943 F7800.000
G1 X-4.557 Y-8.027 F7800.000
G1 X-5.358 Y-19.983 F7800.000
G1 X-0.800 Y-20.927 F7800.000
G1 E2.00000 F2400.00000
G1 X-13.896 Y-20.033 E2.55845 F3600.000
G1 X-13.896 Y-29.356 E2.95511
G1 X8.325 Y-29.356 E3.90053
G1 X8.427 Y-29.051 E3.91423
G1 X10.896 Y-21.644 E4.24641 F3600.000
G1 X-0.755 Y-20.929 E4.74307
G1 X-0.740 Y-20.679 F7800.000
G1 X-14.146 Y-19.765 E5.31478 F3600.000
G1 X-14.146 Y-29.607 E5.73351
G1 X8.506 Y-29.607 E6.69728
G1 X8.665 Y-29.130 E6.71867
G1 X11.237 Y-21.414 E7.06472 F3600.000
G1 X-0.695 Y-20.682 E7.57334
G1 X-0.680 Y-20.439 F7800.000
G1 X-14.389 Y-19.505 E8.12298 F1800.000
G1 X-14.389 Y-29.850 E8.53679
G1 X8.681 Y-29.850 E9.45961
G1 X8.896 Y-29.207 E9.48672
G1 X11.568 Y-21.191 E9.82472 F1800.000
G1 X-0.635 Y-20.442 E10.31376
G1 X-0.847 Y-20.689 F7800.000
G1 X-6.538 Y-20.750 F7800.000
G1 X-8.485 Y-20.617 E10.39682 F4800.000
G1 X-7.396 Y-21.246 E10.45033
G1 X-6.538 Y-20.750 E10.49250
G1 X-12.283 Y-24.067 F7800.000
G1 X-12.283 Y-21.463 E10.60332 F4800.000
G1 X-10.571 Y-20.474 E10.68744
G1 X-11.019 Y-20.444 E10.70655
G1 X-12.408 Y-21.246 E10.77481
G1 X-13.682 Y-20.510 E10.83741
G1 X-13.682 Y-24.875 E11.02313
G1 X-12.283 Y-24.067 E11.09188
G1 X-9.777 Y-28.408 F7800.000
G1 X-9.777 Y-25.804 E11.20270 F4800.000
G1 X-7.145 Y-24.285 E11.33198
G1 X-4.890 Y-25.587 E11.44279
G1 X-2.258 Y-24.067 E11.57207
G1 X-2.258 Y-21.463 E11.68289
G1 X-1.608 Y-21.088 E11.71483
G1 X-2.056 Y-21.057 E11.73394
G1 X-2.384 Y-21.246 E11.75002
G1 X-2.799 Y-21.006 E11.77042
G1 X-6.089 Y-20.781 E11.91075
G1 X-7.271 Y-21.463 E11.96878
G1 X-7.271 Y-24.067 E12.07960
G1 X-9.902 Y-25.587 E12.20888
G1 X-12.158 Y-24.285 E12.31969
G1 X-13.682 Y-25.165 E12.39460
G1 X-13.682 Y-29.143 E12.56387
G1 X-11.050 Y-29.143 E12.67588
G1 X-9.777 Y-28.408 E12.73842
G1 X-9.652 Y-28.625 F7800.000
G1 X-10.548 Y-29.143 E12.78248 F4800.000
G1 X-8.755 Y-29.143 E12.85881
G1 X-9.652 Y-28.625 E12.90287
G1 X0.248 Y-28.408 F7800.000
G1 X0.248 Y-25.804 E13.01368 F4800.000
G1 X2.879 Y-24.285 E13.14297
G1 X5.135 Y-25.587 E13.25378
G1 X7.767 Y-24.067 E13.38306
G1 X7.767 Y-21.666 E13.48526
G1 X2.918 Y-21.368 E13.69191
G1 X2.754 Y-21.463 E13.69999
G1 X2.754 Y-24.067 E13.81080
G1 X0.123 Y-25.587 E13.94008
G1 X-2.133 Y-24.285 E14.05089
G1 X-4.764 Y-25.804 E14.18017
G1 X-4.764 Y-28.408 E14.29099
G1 X-6.037 Y-29.143 E14.35352
G1 X-5.536 Y-29.143 E14.37485
G1 X-4.639 Y-28.625 E14.41891
