; generated by Slic3r 1.2.9 on 2016-07-17 at 16:14:26

; external perimeters extrusion width = 0.40mm
; perimeters extrusion width = 0.67mm
; infill extrusion width = 0.67mm
; solid infill extrusion width = 0.67mm
; top infill extrusion width = 0.67mm

M107
M104 S215 ; set temperature
G28 ; home all axes
G1 Y-60 Z5 F5000 ; lift nozzle


M109 S215 ; wait for temperature to be reached
G21 ; set units to millimeters
G90 ; use absolute coordinates
M82 ; use absolute distances for extrusion
G92 E0
G1 E-3.00000 F2400.00000
G92 E0
G1 Z0.300 F6000.000
G1 X-0.726 Y51.859 F6000.000
G1 E3.00000 F2400.00000
G1 X-30.726 Y46.859 E4.58897 F1800.000
G1 X-32.464 Y46.168 E4.68664
G1 X-33.760 Y44.821 E4.78431
G1 X-34.419 Y42.500 E4.91037
G1 X-34.419 Y-47.500 E9.61241
G1 X-34.023 Y-49.327 E9.71009
G1 X-32.908 Y-50.827 E9.80776
G1 X-31.272 Y-51.732 E9.90543
G1 X-30.000 Y-51.919 E9.97258
G1 X30.000 Y-51.919 E13.10728
G1 X31.827 Y-51.523 E13.20495
G1 X33.327 Y-50.408 E13.30262
G1 X34.232 Y-48.772 E13.40030
G1 X34.419 Y-47.500 E13.46745
G1 X34.419 Y42.500 E18.16949
G1 X34.023 Y44.327 E18.26716
G1 X32.908 Y45.827 E18.36484
G1 X30.726 Y46.859 E18.49089
G1 X0.726 Y51.859 E20.07986
G1 X-0.666 Y51.859 E20.15263
G1 F4800
G1 X-6.585 Y50.874 E17.30263
G1 E17.15263 F2400.00000
G92 E0
G1 X-29.423 Y42.011 F6000.000
G1 E3.00000 F2400.00000
G1 X-29.423 Y-46.819 E7.64089 F1800.000
G1 X-27.134 Y-46.437 E7.76211
G1 X-26.892 Y-43.212 E7.93105
G1 X-26.423 Y-38.065 E8.20107
G1 X-26.066 Y-34.692 E8.37828
G1 X-25.466 Y-29.734 E8.63923
G1 X-25.026 Y-26.493 E8.81010
G1 X-24.308 Y-21.743 E9.06110
G1 X-23.524 Y-17.126 E9.30575
G1 X-22.677 Y-12.651 E9.54368
G1 X-22.077 Y-9.747 E9.69860
G1 X-21.131 Y-5.521 E9.92486
G1 X-20.131 Y-1.451 E10.14386
G1 X-19.080 Y2.459 E10.35535
G1 X-17.981 Y6.201 E10.55914
G1 X-16.838 Y9.773 E10.75506
G1 X-15.654 Y13.169 E10.94295
G1 X-14.432 Y16.383 E11.12261
G1 X-13.597 Y18.428 E11.23802
G1 X-12.321 Y21.334 E11.40382
G1 X-11.453 Y23.172 E11.51000
G1 X-10.133 Y25.761 E11.66185
G1 X-9.238 Y27.385 E11.75875
G1 X-7.886 Y29.649 E11.89648
G1 X-7.428 Y30.367 E11.94098
G1 X-6.519 Y31.723 E12.02626
G1 X-6.059 Y32.373 E12.06789
G1 X-5.147 Y33.597 E12.14760
G1 X-4.686 Y34.181 E12.18649
G1 X-3.775 Y35.270 E12.26067
G1 X-3.291 Y35.811 E12.29859
G1 X-2.406 Y36.737 E12.36555
G1 X-1.946 Y37.185 E12.39908
G1 X-1.047 Y37.995 E12.46228
G1 X-0.595 Y38.373 E12.49310
G1 X0.280 Y39.047 E12.55079
G1 X0.719 Y39.358 E12.57888
G1 X1.563 Y39.903 E12.63136
G1 X2.382 Y40.358 E12.68034
G1 X2.801 Y40.558 E12.70457
G1 X3.588 Y40.859 E12.74862
G1 X3.995 Y40.971 E12.77064
G1 X4.391 Y41.049 E12.79173
G1 X4.785 Y41.091 E12.81243
G1 X5.175 Y41.097 E12.83283
G1 X5.561 Y41.066 E12.85304
G1 X5.941 Y40.997 E12.87321
G1 X6.314 Y40.891 E12.89347
G1 X6.680 Y40.750 E12.91397
G1 X7.039 Y40.575 E12.93485
G1 X7.400 Y40.362 E12.95673
G1 X8.078 Y39.863 E13.00071
G1 X8.431 Y39.554 E13.02523
G1 X9.099 Y38.880 E13.07482
G1 X9.442 Y38.490 E13.10195
G1 X10.106 Y37.654 E13.15775
G1 X10.767 Y36.718 E13.21758
G1 X11.100 Y36.208 E13.24944
G1 X11.751 Y35.130 E13.31520
G1 X12.079 Y34.547 E13.35016
G1 X12.718 Y33.318 E13.42251
G1 X13.344 Y31.989 E13.49930
G1 X13.655 Y31.280 E13.53970
G1 X14.259 Y29.801 E13.62320
G1 X14.849 Y28.218 E13.71145
G1 X15.705 Y25.666 E13.85211
G1 X16.527 Y22.895 E14.00311
G1 X17.057 Y20.924 E14.10973
G1 X17.817 Y17.795 E14.27793
G1 X18.303 Y15.589 E14.39596
G1 X18.770 Y13.290 E14.51855
G1 X19.437 Y9.671 E14.71076
G1 X19.859 Y7.143 E14.84470
G1 X20.458 Y3.188 E15.05369
G1 X20.835 Y0.439 E15.19863
G1 X21.367 Y-3.841 E15.42395
G1 X21.859 Y-8.308 E15.65876
G1 X22.165 Y-11.389 E15.82051
G1 X22.454 Y-14.549 E15.98630
G1 X22.851 Y-19.433 E16.24230
G1 X23.094 Y-22.784 E16.41786
G1 X23.425 Y-27.945 E16.68805
G1 X23.624 Y-31.475 E16.87274
G1 X23.892 Y-36.893 E17.15616
G1 X24.124 Y-42.456 E17.44703
G1 X24.248 Y-45.956 E17.63002
G1 X29.423 Y-46.819 E17.90413
G1 X29.423 Y42.011 E22.54502
G1 X-0.000 Y46.915 E24.10341
G1 X-29.364 Y42.021 E25.65867
G1 X-29.800 Y42.331 F6000.000
G1 X-29.800 Y-47.264 E29.40912 F1800.000
G1 X-26.780 Y-46.761 E29.53728
G1 X-26.516 Y-43.244 E29.68491
G1 X-26.048 Y-38.102 E29.90101
G1 X-25.691 Y-34.735 E30.04277
G1 X-25.092 Y-29.782 E30.25162
G1 X-24.652 Y-26.547 E30.38829
G1 X-23.936 Y-21.802 E30.58914
G1 X-23.153 Y-17.193 E30.78486
G1 X-22.306 Y-12.725 E30.97522
G1 X-21.709 Y-9.827 E31.09909
G1 X-20.764 Y-5.607 E31.28008
G1 X-19.766 Y-1.545 E31.45521
G1 X-18.717 Y2.357 E31.62432
G1 X-17.621 Y6.091 E31.78723
G1 X-16.480 Y9.653 E31.94381
G1 X-15.299 Y13.039 E32.09393
G1 X-14.081 Y16.245 E32.23747
G1 X-13.249 Y18.281 E32.32954
G1 X-11.978 Y21.178 E32.46196
G1 X-11.114 Y23.005 E32.54658
G1 X-9.800 Y25.584 E32.66775
G1 X-8.910 Y27.198 E32.74487
G1 X-7.565 Y29.451 E32.85472
G1 X-7.112 Y30.160 E32.88995
G1 X-6.208 Y31.509 E32.95791
G1 X-5.754 Y32.152 E32.99087
G1 X-4.848 Y33.367 E33.05432
G1 X-4.394 Y33.943 E33.08504
G1 X-3.490 Y35.023 E33.14398
G1 X-3.014 Y35.555 E33.17385
G1 X-2.138 Y36.472 E33.22694
G1 X-1.688 Y36.910 E33.25323
G1 X-0.800 Y37.711 E33.30327
G1 X-0.359 Y38.079 E33.32734
G1 X0.504 Y38.744 E33.37294
G1 X0.931 Y39.045 E33.39479
G1 X1.757 Y39.579 E33.43599
G1 X2.555 Y40.023 E33.47421
G1 X2.950 Y40.211 E33.49250
G1 X3.706 Y40.500 E33.52641
G1 X4.081 Y40.604 E33.54269
G1 X4.448 Y40.675 E33.55832
G1 X4.808 Y40.714 E33.57350
G1 X5.163 Y40.720 E33.58835
G1 X5.512 Y40.691 E33.60300
G1 X5.856 Y40.629 E33.61763
G1 X6.194 Y40.533 E33.63237
G1 X6.529 Y40.404 E33.64739
G1 X6.860 Y40.242 E33.66281
G1 X7.192 Y40.047 E33.67892
G1 X7.842 Y39.569 E33.71268
G1 X8.173 Y39.279 E33.73110
G1 X8.823 Y38.622 E33.76981
G1 X9.153 Y38.248 E33.79068
G1 X9.804 Y37.427 E33.83455
G1 X10.455 Y36.506 E33.88175
G1 X10.781 Y36.007 E33.90671
G1 X11.425 Y34.941 E33.95887
G1 X11.747 Y34.367 E33.98638
G1 X12.380 Y33.151 E34.04379
G1 X13.001 Y31.833 E34.10479
G1 X13.307 Y31.133 E34.13674
G1 X13.907 Y29.664 E34.20320
G1 X14.494 Y28.092 E34.27340
G1 X15.346 Y25.552 E34.38556
G1 X16.164 Y22.792 E34.50607
G1 X16.691 Y20.830 E34.59110
G1 X17.449 Y17.710 E34.72550
G1 X17.933 Y15.511 E34.81978
G1 X18.400 Y13.218 E34.91773
G1 X19.066 Y9.606 E35.07146
G1 X19.487 Y7.084 E35.17852
G1 X20.085 Y3.134 E35.34574
G1 X20.461 Y0.390 E35.46166
G1 X20.992 Y-3.885 E35.64198
G1 X21.484 Y-8.347 E35.82993
G1 X21.790 Y-11.425 E35.95938
G1 X22.078 Y-14.581 E36.09207
G1 X22.475 Y-19.462 E36.29704
G1 X22.718 Y-22.810 E36.43758
G1 X23.048 Y-27.968 E36.65393
G1 X23.248 Y-31.495 E36.80179
G1 X23.516 Y-36.910 E37.02876
G1 X23.747 Y-42.470 E37.26171
G1 X23.881 Y-46.277 E37.42118
G1 X29.800 Y-47.264 E37.67235
G1 X29.800 Y42.331 E41.42281
G1 X0.000 Y47.297 E42.68745
G1 X-29.741 Y42.340 E43.94958
G1 X-29.581 Y41.996 F6000.000
G1 X-27.746 Y41.823 F6000.000
G1 X-28.962 Y37.285 E44.19503 F1800.000
G1 X-28.962 Y41.621 E44.42153
G1 X-27.746 Y41.823 E44.48593
G1 X-8.954 Y28.759 F6000.000
G1 X-11.597 Y28.051 E44.62887 F1800.000
G1 X-16.983 Y33.438 E45.02687
G1 X-15.293 Y39.745 E45.36801
G1 X-18.854 Y43.305 E45.63107
G1 X-18.092 Y43.432 E45.67141
G1 X-14.849 Y40.189 E45.91102
G1 X-8.542 Y41.879 E46.25217
G1 X-3.217 Y36.555 E46.64556
G1 X-4.123 Y35.571 E46.71542
G1 X-5.044 Y34.472 E46.79034
G1 X-5.513 Y33.877 E46.82992
G1 X-6.432 Y32.644 E46.91026
G1 X-6.898 Y31.984 E46.95249
G1 X-7.814 Y30.619 E47.03834
G1 X-8.278 Y29.891 E47.08347
G1 X-8.954 Y28.759 E47.15233
G1 X-14.175 Y20.855 F6000.000
G1 X-20.482 Y19.165 E47.49347 F1800.000
G1 X-25.869 Y24.552 E47.89147
G1 X-24.179 Y30.859 E48.23261
G1 X-28.962 Y35.642 E48.58600
G1 X-28.962 Y36.531 E48.63243
G1 X-23.735 Y31.304 E49.01865
G1 X-17.428 Y32.994 E49.35979
G1 X-12.041 Y27.607 E49.75779
G1 X-13.731 Y21.300 E50.09893
G1 X-13.111 Y20.680 E50.14470
G1 X-13.382 Y20.063 E50.17993
G1 X-14.175 Y20.855 E50.23850
G1 X-17.965 Y7.763 F6000.000
G1 X-18.181 Y7.090 E50.27542 F1800.000
G1 X-23.061 Y11.970 E50.63598
G1 X-28.962 Y10.388 E50.95516
G1 X-28.962 Y23.398 E51.63485
G1 X-26.313 Y24.108 E51.77811
G1 X-20.927 Y18.721 E52.17611
G1 X-22.617 Y12.414 E52.51725
G1 X-17.965 Y7.763 E52.86091
G1 X-23.129 Y-12.562 F6000.000
G1 X-23.315 Y-13.545 E52.91319 F1800.000
G1 X-28.250 Y-8.610 E53.27783
G1 X-26.560 Y-2.303 E53.61897
G1 X-28.962 Y0.099 E53.79644
G1 X-28.962 Y0.988 E53.84287
G1 X-26.116 Y-1.859 E54.05317
G1 X-20.299 Y-0.300 E54.36780
G1 X-20.577 Y-1.336 E54.42383
G1 X-21.580 Y-5.416 E54.64335
G1 X-22.528 Y-9.650 E54.87006
G1 X-23.129 Y-12.562 E55.02537
G1 X-25.442 Y-21.193 F6000.000
G1 X-28.962 Y-22.136 E55.21577 F1800.000
G1 X-28.962 Y-9.126 E55.89546
G1 X-28.694 Y-9.054 E55.90994
G1 X-23.456 Y-14.292 E56.29696
G1 X-23.911 Y-16.691 E56.42452
G1 X-24.998 Y-20.748 E56.64395
G1 X-24.663 Y-21.083 E56.66864
G1 X-24.789 Y-21.845 E56.70902
G1 X-25.442 Y-21.193 E56.75722
G1 X-27.351 Y-43.174 F6000.000
G1 X-27.482 Y-44.921 E56.84872 F1800.000
G1 X-28.962 Y-43.441 E56.95805
G1 X-28.962 Y-35.544 E57.37065
G1 X-28.941 Y-35.465 E57.37490
G1 X-28.962 Y-35.444 E57.37646
G1 X-28.962 Y-34.555 E57.42289
G1 X-28.497 Y-35.021 E57.45727
G1 X-26.505 Y-34.487 E57.56498
G1 X-26.882 Y-38.020 E57.75062
G1 X-27.351 Y-43.174 E58.02100
G1 X-27.567 Y-46.042 F6000.000
G1 X-28.962 Y-46.275 E58.09491 F1800.000
G1 X-28.962 Y-44.330 E58.19652
G1 X-27.544 Y-45.747 E58.30126
G1 X-27.567 Y-46.042 E58.31671
G1 X-22.536 Y14.382 F6000.000
G1 X-7.534 Y39.774 F6000.000
G1 X7.003 Y43.253 F6000.000
G1 X23.275 Y21.411 F6000.000
G1 X25.111 Y0.994 F6000.000
G1 X25.860 Y-12.642 F6000.000
G1 X26.194 Y-20.862 F6000.000
G1 X26.312 Y-24.279 F6000.000
G1 X26.368 Y-26.013 F6000.000
G1 X26.368 Y-26.021 F6000.000
G1 X26.421 Y-27.764 F6000.000
G1 X25.245 Y-27.451 F6000.000
G1 X24.098 Y-31.731 E58.54821 F1800.000
G1 X23.760 Y-25.965 E58.84995
G1 X25.245 Y-27.451 E58.95971
G1 X28.962 Y-26.130 F6000.000
G1 X25.689 Y-27.006 E59.13672 F1800.000
G1 X23.699 Y-25.016 E59.28380
G1 X23.311 Y-19.398 E59.57802
G1 X22.931 Y-14.736 E59.82238
G1 X28.744 Y-13.178 E60.13680
G1 X28.962 Y-13.396 E60.15288
G1 X28.962 Y-26.130 E60.81815
G1 X28.962 Y-39.139 F6000.000
G1 X28.962 Y-46.275 E61.19094 F1800.000
G1 X26.831 Y-45.920 E61.30381
G1 X26.808 Y-45.896 E61.30554
G1 X28.498 Y-39.589 E61.64668
G1 X24.278 Y-35.370 E61.95842
G1 X24.232 Y-34.435 E62.00732
G1 X28.942 Y-39.145 E62.35530
G1 X28.962 Y-39.139 E62.35639
G1 X28.962 Y-3.622 F6000.000
G1 X28.962 Y-4.510 E62.40282 F1800.000
G1 X25.492 Y-1.040 E62.65921
G1 X21.612 Y-2.080 E62.86905
G1 X21.292 Y0.499 E63.00479
G1 X20.914 Y3.253 E63.15006
G1 X20.314 Y7.215 E63.35940
G1 X19.765 Y10.435 E63.53005
G1 X22.239 Y11.098 E63.66389
G1 X27.626 Y5.711 E64.06189
G1 X25.936 Y-0.596 E64.40303
G1 X28.962 Y-3.622 E64.62660
G1 X28.962 Y6.395 F6000.000
G1 X28.070 Y6.156 E64.67483 F1800.000
G1 X22.684 Y11.542 E65.07283
G1 X24.374 Y17.850 E65.41397
G1 X18.987 Y23.236 E65.81197
G1 X17.052 Y22.718 E65.91663
G1 X16.145 Y25.804 E66.08471
G1 X15.284 Y28.372 E66.22620
G1 X14.688 Y29.969 E66.31522
G1 X14.079 Y31.460 E66.39939
G1 X13.764 Y32.179 E66.44042
G1 X13.131 Y33.523 E66.51801
G1 X12.604 Y34.536 E66.57766
G1 X15.735 Y35.374 E66.74700
G1 X21.121 Y29.988 E67.14500
G1 X19.431 Y23.681 E67.48614
G1 X24.818 Y18.294 E67.88414
G1 X28.962 Y19.404 E68.10828
G1 X28.962 Y6.395 E68.78797
G1 X27.873 Y32.122 F6000.000
G1 X21.566 Y30.432 E69.12911 F1800.000
G1 X16.179 Y35.819 E69.52711
G1 X17.869 Y42.126 E69.86825
G1 X16.257 Y43.738 E69.98738
G1 X17.323 Y43.561 E70.04385
G1 X18.313 Y42.570 E70.11702
G1 X20.212 Y43.079 E70.21972
G1 X26.920 Y41.961 E70.57499
G1 X28.962 Y39.919 E70.72590
G1 X28.962 Y34.973 E70.98426
G1 X28.317 Y32.566 E71.11445
G1 X28.962 Y31.921 E71.16211
G1 X28.962 Y31.033 E71.20853
G1 X27.873 Y32.122 E71.28901
G1 X28.962 Y41.621 F6000.000
G1 X28.962 Y40.807 E71.33151 F1800.000
G1 X27.986 Y41.783 E71.40363
G1 X28.962 Y41.621 E71.45534
G1 X7.603 Y43.094 F6000.000
G1 X0.307 Y43.270 F6000.000
G1 X-2.718 Y42.135 F6000.000
G1 X-4.693 Y41.230 F6000.000
G1 X-5.496 Y40.836 F6000.000
G1 X-6.099 Y40.531 F6000.000
G1 X-2.702 Y37.039 F6000.000
G1 X-2.733 Y37.062 F6000.000
G1 X-2.783 Y37.009 E71.45914 F1800.000
G1 X-8.098 Y42.324 E71.85179
G1 X-7.319 Y45.228 E72.00887
G1 X-0.000 Y46.448 E72.39654
G1 X5.594 Y45.515 E72.69282
G1 X5.731 Y45.378 E72.70294
G1 X4.704 Y41.546 E72.91022
G1 X4.322 Y41.505 E72.93030
G1 X3.889 Y41.420 E72.95334
G1 X3.444 Y41.297 E72.97743
G1 X2.619 Y40.982 E73.02358
G1 X2.171 Y40.768 E73.04953
G1 X1.326 Y40.298 E73.10006
G1 X0.461 Y39.740 E73.15384
G1 X0.006 Y39.418 E73.18293
G1 X-0.883 Y38.733 E73.24159
G1 X-1.350 Y38.344 E73.27334
G1 X-2.261 Y37.521 E73.33746
G1 X-2.733 Y37.062 E73.37188
G1 F4800
G1 X-2.261 Y37.521 E73.05893
G1 F4800
G1 X-1.350 Y38.344 E72.47596
G1 F4800
G1 X-0.883 Y38.733 E72.18728
G1 F4800
G1 X0.006 Y39.418 E71.65400
G1 F4800
G1 X0.461 Y39.740 E71.38952
G1 F4800
G1 X1.326 Y40.298 E70.90053
G1 F4800
G1 X2.022 Y40.686 E70.52188
G1 E70.37188 F2400.00000
G92 E0
G1 Z0.500 F6000.000
G1 X-29.307 Y41.913 F6000.000
G1 E3.00000 F2400.00000
G1 X-29.307 Y-46.682 E7.62866 F1200.000
G1 X-27.243 Y-46.338 E7.73802
G1 X-27.007 Y-43.203 E7.90229
G1 X-26.538 Y-38.054 E8.17239
G1 X-26.181 Y-34.679 E8.34970
G1 X-25.581 Y-29.719 E8.61074
G1 X-25.140 Y-26.477 E8.78169
G1 X-24.422 Y-21.724 E9.03279
G1 X-23.638 Y-17.106 E9.27755
G1 X-22.790 Y-12.629 E9.51559
G1 X-22.190 Y-9.723 E9.67061
G1 X-21.244 Y-5.495 E9.89698
G1 X-20.243 Y-1.422 E10.11611
G1 X-19.191 Y2.490 E10.32774
G1 X-18.092 Y6.235 E10.53167
G1 X-16.948 Y9.810 E10.72774
G1 X-15.762 Y13.208 E10.91579
G1 X-14.539 Y16.426 E11.09561
G1 X-13.703 Y18.473 E11.21117
G1 X-12.426 Y21.382 E11.37713
G1 X-11.557 Y23.222 E11.48348
G1 X-10.235 Y25.815 E11.63552
G1 X-9.338 Y27.443 E11.73263
G1 X-7.984 Y29.709 E11.87055
G1 X-7.525 Y30.430 E11.91520
G1 X-6.614 Y31.788 E12.00063
G1 X-6.153 Y32.441 E12.04241
G1 X-5.239 Y33.667 E12.12228
G1 X-4.776 Y34.254 E12.16134
G1 X-3.862 Y35.345 E12.23569
G1 X-3.399 Y35.865 E12.27209
G1 X-2.488 Y36.819 E12.34098
G1 X-2.025 Y37.269 E12.37474
G1 X-1.123 Y38.083 E12.43818
G1 X-0.667 Y38.464 E12.46923
G1 X0.212 Y39.140 E12.52716
G1 X0.654 Y39.453 E12.55550
G1 X1.504 Y40.002 E12.60831
G1 X2.329 Y40.461 E12.65768
G1 X2.755 Y40.664 E12.68234
G1 X3.552 Y40.969 E12.72691
G1 X3.968 Y41.084 E12.74945
G1 X4.374 Y41.163 E12.77103
G1 X4.778 Y41.207 E12.79227
G1 X5.179 Y41.213 E12.81324
G1 X5.576 Y41.180 E12.83404
G1 X5.967 Y41.109 E12.85480
G1 X6.350 Y41.001 E12.87563
G1 X6.726 Y40.856 E12.89666
G1 X7.094 Y40.677 E12.91803
G1 X7.464 Y40.459 E12.94046
G1 X8.150 Y39.954 E12.98500
G1 X8.510 Y39.638 E13.01000
G1 X9.184 Y38.959 E13.05998
G1 X9.531 Y38.564 E13.08744
G1 X10.199 Y37.723 E13.14356
G1 X10.863 Y36.783 E13.20367
G1 X11.198 Y36.269 E13.23575
G1 X11.851 Y35.188 E13.30171
G1 X12.180 Y34.602 E13.33686
G1 X12.821 Y33.369 E13.40943
G1 X13.449 Y32.036 E13.48641
G1 X13.761 Y31.325 E13.52697
G1 X14.366 Y29.843 E13.61064
G1 X14.958 Y28.257 E13.69908
G1 X15.816 Y25.700 E13.83995
G1 X16.639 Y22.926 E13.99114
G1 X17.168 Y20.952 E14.09791
G1 X17.929 Y17.821 E14.26624
G1 X18.415 Y15.613 E14.38439
G1 X18.884 Y13.312 E14.50709
G1 X19.551 Y9.691 E14.69940
G1 X19.973 Y7.161 E14.83343
G1 X20.572 Y3.204 E15.04252
G1 X20.949 Y0.454 E15.18754
G1 X21.481 Y-3.827 E15.41293
G1 X21.974 Y-8.296 E15.64781
G1 X22.280 Y-11.378 E15.80962
G1 X22.569 Y-14.539 E15.97547
G1 X22.966 Y-19.424 E16.23152
G1 X23.209 Y-22.777 E16.40714
G1 X23.540 Y-27.938 E16.67737
G1 X23.740 Y-31.469 E16.86211
G1 X24.008 Y-36.888 E17.14557
G1 X24.239 Y-42.451 E17.43649
G1 X24.360 Y-45.858 E17.61457
G1 X29.307 Y-46.682 E17.87663
G1 X29.307 Y41.913 E22.50529
G1 X-0.000 Y46.798 E24.05757
G1 X-29.248 Y41.923 E25.60671
G1 X-29.800 Y42.331 F6000.000
G1 X-29.800 Y-47.264 E28.26688 F600.000
G1 X-26.780 Y-46.761 E28.35778
G1 X-26.516 Y-43.244 E28.46250
G1 X-26.048 Y-38.102 E28.61578
G1 X-25.691 Y-34.735 E28.71633
G1 X-25.092 Y-29.782 E28.86446
G1 X-24.652 Y-26.547 E28.96140
G1 X-23.936 Y-21.802 E29.10386
G1 X-23.153 Y-17.193 E29.24269
G1 X-22.306 Y-12.725 E29.37771
G1 X-21.709 Y-9.827 E29.46557
G1 X-20.764 Y-5.607 E29.59394
G1 X-19.766 Y-1.545 E29.71817
G1 X-18.717 Y2.357 E29.83811
G1 X-17.621 Y6.091 E29.95366
G1 X-16.480 Y9.653 E30.06472
G1 X-15.299 Y13.039 E30.17120
G1 X-14.081 Y16.245 E30.27302
