; generated by Slic3r 1.2.9 on 2016-07-14 at 19:09:56

; external perimeters extrusion width = 0.30mm
; perimeters extrusion width = 0.31mm
; infill extrusion width = 0.31mm
; solid infill extrusion width = 0.31mm
; top infill extrusion width = 0.31mm

M107
M104 S215 ; set temperature
G28 ; home all axes
G1 Z5 F5000 ; lift nozzle

M109 S215 ; wait for temperature to be reached
G21 ; set units to millimeters
G90 ; use absolute coordinates
M82 ; use absolute distances for extrusion
G92 E0
G1 E-2.00000 F2400.00000
G92 E0
G1 Z0.100 F7800.000
G1 X0.000 Y36.179 F7800.000
G1 E2.00000 F2400.00000
G1 X-55.971 Y36.179 E2.56549 F1800.000
G1 X-58.150 Y35.782 E2.58786
G1 X-60.048 Y34.642 E2.61023
G1 X-61.423 Y32.907 E2.63261
G1 X-62.150 Y30.000 E2.66288
G1 X-62.150 Y-30.000 E3.26908
G1 X-61.753 Y-32.178 E3.29145
G1 X-60.614 Y-34.077 E3.31382
G1 X-58.878 Y-35.452 E3.33619
G1 X-55.971 Y-36.179 E3.36646
G1 X54.029 Y-36.179 E4.47782
G1 X56.207 Y-35.782 E4.50019
G1 X58.106 Y-34.642 E4.52256 F1800.000
G1 X59.890 Y-31.954 E4.55517
G1 X61.833 Y-26.127 E4.61722
G1 X62.149 Y-24.054 E4.63841
G1 X61.159 Y27.262 E5.15697
G1 X60.843 Y29.097 E5.17578
G1 X59.890 Y31.954 E5.20620
G1 X58.825 Y33.895 E5.22857
G1 X57.144 Y35.336 E5.25094
G1 X54.029 Y36.179 E5.28355
G1 X0.045 Y36.179 E5.82896
G1 F6240
G1 X-5.155 Y36.179 E3.92896
G1 E3.82896 F2400.00000
G92 E0
G1 X19.980 Y29.543 F7800.000
G1 E2.00000 F2400.00000
G1 X-55.337 Y29.543 E2.76095 F1800.000
G1 X-49.665 Y12.526 E2.94218
G1 X-24.077 Y17.552 E3.20564
G1 X-17.563 Y18.800 E3.27264 F1800.000
G1 X-11.089 Y20.005 E3.33918
G1 X-4.662 Y21.150 E3.40514
G1 X1.714 Y22.223 E3.47045
G1 X8.033 Y23.217 E3.53509
G1 X12.208 Y23.830 E3.57771
G1 X18.437 Y24.676 E3.64123
G1 X24.594 Y25.423 E3.70389
G1 X30.680 Y26.069 E3.76573
G1 X34.699 Y26.441 E3.80651
G1 X40.662 Y26.911 E3.86694
G1 X44.596 Y27.164 E3.90677
G1 X50.428 Y27.452 E3.96576
G1 X54.354 Y27.580 E4.00544
G1 X53.699 Y29.543 E4.02635
G1 X20.025 Y29.543 E4.36657
G1 X20.025 Y29.721 F7800.000
G1 X-55.585 Y29.721 E5.13048 F1800.000
G1 X-49.785 Y12.321 E5.31579
G1 X-24.043 Y17.377 E5.58083
G1 X-17.530 Y18.625 E5.64783 F1800.000
G1 X-11.057 Y19.829 E5.71435
G1 X-4.631 Y20.974 E5.78030
G1 X1.742 Y22.047 E5.84560
G1 X8.060 Y23.041 E5.91021
G1 X12.232 Y23.653 E5.95282
G1 X18.460 Y24.498 E6.01631
G1 X24.614 Y25.246 E6.07895
G1 X30.698 Y25.891 E6.14076
G1 X34.715 Y26.263 E6.18151
G1 X40.675 Y26.733 E6.24192
G1 X44.606 Y26.986 E6.28172
G1 X50.435 Y27.273 E6.34068
G1 X54.599 Y27.409 E6.38277
G1 X53.828 Y29.721 E6.40740
G1 X20.070 Y29.721 E6.74846
G1 X20.070 Y29.900 F7800.000
G1 X-55.832 Y29.900 E7.51533 F1800.000
G1 X-49.904 Y12.116 E7.70473
G1 X-24.009 Y17.201 E7.97136
G1 X-17.497 Y18.449 E8.03834 F1800.000
G1 X-11.025 Y19.653 E8.10485
G1 X-4.601 Y20.798 E8.17078
G1 X1.771 Y21.871 E8.23606
G1 X8.087 Y22.864 E8.30066
G1 X12.257 Y23.477 E8.34325
G1 X18.483 Y24.321 E8.40672
G1 X24.634 Y25.068 E8.46933
G1 X30.716 Y25.713 E8.53111
G1 X34.730 Y26.086 E8.57184
G1 X40.687 Y26.555 E8.63222
G1 X44.616 Y26.808 E8.67200
G1 X50.442 Y27.095 E8.73093
G1 X54.844 Y27.239 E8.77543
G1 X53.957 Y29.900 E8.80377
G1 X20.115 Y29.900 E9.14568
G1 X19.920 Y29.640 F7800.000
G1 X18.413 Y24.862 F7800.000
G1 X14.328 Y24.307 E9.18733 F1800.000
G1 X14.328 Y26.503 E9.20952
G1 X16.583 Y27.806 E9.23583
G1 X16.583 Y29.355 E9.25149
G1 X16.834 Y29.355 E9.25402
G1 X16.834 Y27.806 E9.26967
G1 X19.089 Y26.503 E9.29599
G1 X19.089 Y24.944 E9.31175
G1 X18.413 Y24.862 E9.31863
G1 X24.102 Y25.552 F7800.000
G1 X19.340 Y24.974 E9.36709 F1800.000
G1 X19.340 Y26.503 E9.38254
G1 X21.596 Y27.806 E9.40885
G1 X21.596 Y29.355 E9.42451
G1 X21.846 Y29.355 E9.42704
G1 X21.846 Y27.806 E9.44269
G1 X24.102 Y26.503 E9.46901
G1 X24.102 Y25.552 E9.47862
G1 X24.573 Y25.610 F7800.000
G1 X24.352 Y25.583 E9.48086 F1800.000
G1 X24.352 Y26.503 E9.49016
G1 X26.608 Y27.806 E9.51647
G1 X26.608 Y29.355 E9.53213
G1 X26.859 Y29.355 E9.53466
G1 X26.859 Y27.806 E9.55031
G1 X29.114 Y26.503 E9.57663
G1 X29.114 Y26.091 E9.58079
G1 X24.573 Y25.610 E9.62693
G1 X30.662 Y26.256 F7800.000
G1 X29.365 Y26.118 E9.64011 F1800.000
G1 X29.365 Y26.503 E9.64401
G1 X31.620 Y27.806 E9.67032
G1 X31.620 Y29.355 E9.68598
G1 X31.871 Y29.355 E9.68851
G1 X31.871 Y27.806 E9.70416
G1 X34.017 Y26.567 E9.72920
G1 X30.662 Y26.256 E9.76324
G1 X34.683 Y26.628 F7800.000
G1 X34.576 Y26.619 E9.76433 F1800.000
G1 X36.633 Y27.806 E9.78832
G1 X36.633 Y29.355 E9.80397
G1 X36.883 Y29.355 E9.80650
G1 X36.883 Y27.806 E9.82216
G1 X38.414 Y26.922 E9.84001
G1 X34.683 Y26.628 E9.87781
G1 X40.649 Y27.098 F7800.000
G1 X40.384 Y27.077 E9.88050 F1800.000
G1 X41.645 Y27.806 E9.89521
G1 X41.645 Y29.355 E9.91087
G1 X41.896 Y29.355 E9.91340
G1 X41.896 Y27.806 E9.92905
G1 X42.873 Y27.241 E9.94045
G1 X40.649 Y27.098 E9.96298
G1 X47.450 Y27.493 F7800.000
G1 X45.991 Y27.421 E9.97774 F1800.000
G1 X46.658 Y27.806 E9.98551
G1 X46.658 Y29.355 E10.00117
G1 X46.908 Y29.355 E10.00370
G1 X46.908 Y27.806 E10.01935
G1 X47.450 Y27.493 E10.02567
G1 X52.113 Y27.695 F7800.000
G1 X51.440 Y27.673 E10.03248 F1800.000
G1 X51.670 Y27.806 E10.03516
G1 X51.670 Y29.355 E10.05082
G1 X51.921 Y29.355 E10.05335
G1 X51.921 Y27.806 E10.06900
G1 X52.113 Y27.695 E10.07125
G1 X12.181 Y24.016 F7800.000
G1 X9.315 Y23.595 E10.10051 F1800.000
G1 X9.315 Y26.503 E10.12990
G1 X11.571 Y27.806 E10.15621
G1 X11.571 Y29.355 E10.17187
G1 X11.821 Y29.355 E10.17440
G1 X11.821 Y27.806 E10.19005
G1 X14.077 Y26.503 E10.21637
G1 X14.077 Y24.273 E10.23890
G1 X12.181 Y24.016 E10.25823
G1 X8.005 Y23.403 F7800.000
G1 X5.180 Y22.958 E10.28712 F1800.000
G1 X4.303 Y23.465 E10.29735
G1 X4.303 Y26.503 E10.32805
G1 X6.558 Y27.806 E10.35437
G1 X6.558 Y29.355 E10.37002
G1 X6.809 Y29.355 E10.37255
G1 X6.809 Y27.806 E10.38821
G1 X9.065 Y26.503 E10.41452
G1 X9.065 Y23.558 E10.44428
G1 X8.005 Y23.403 E10.45510
G1 X1.683 Y22.409 F7800.000
G1 X1.247 Y22.335 E10.45957 F1800.000
G1 X-0.710 Y23.465 E10.48239
G1 X-0.710 Y26.503 E10.51309
G1 X1.546 Y27.806 E10.53941
G1 X1.546 Y29.355 E10.55506
G1 X1.797 Y29.355 E10.55759
G1 X1.797 Y27.806 E10.57325
G1 X4.052 Y26.503 E10.59956
G1 X4.052 Y23.465 E10.63026
G1 X2.425 Y22.525 E10.64925
G1 X1.683 Y22.409 E10.65683
G1 X-3.216 Y21.584 F7800.000
G1 X-3.466 Y21.541 E10.65940 F1800.000
G1 X-3.466 Y22.163 E10.66567
G1 X-5.722 Y23.465 E10.69199
G1 X-5.722 Y26.503 E10.72269
G1 X-3.466 Y27.806 E10.74900
G1 X-3.466 Y29.355 E10.76466
G1 X-3.216 Y29.355 E10.76719
G1 X-3.216 Y27.806 E10.78284
G1 X-0.960 Y26.503 E10.80916
G1 X-0.960 Y23.465 E10.83986
G1 X-3.216 Y22.163 E10.86617
G1 X-3.216 Y21.584 E10.87202
G1 X-8.228 Y20.705 F7800.000
G1 X-8.479 Y20.660 E10.87459 F1800.000
G1 X-8.479 Y22.163 E10.88977
G1 X-10.734 Y23.465 E10.91608
G1 X-10.734 Y26.503 E10.94678
G1 X-8.479 Y27.806 E10.97310
G1 X-8.479 Y29.355 E10.98875
G1 X-8.228 Y29.355 E10.99128
G1 X-8.228 Y27.806 E11.00694
G1 X-5.973 Y26.503 E11.03325
G1 X-5.973 Y23.465 E11.06395
G1 X-8.228 Y22.163 E11.09027
G1 X-8.228 Y20.705 E11.10499
G1 X-13.241 Y19.795 F7800.000
G1 X-13.491 Y19.749 E11.10757 F1800.000
G1 X-13.491 Y22.163 E11.13196
G1 X-15.747 Y23.465 E11.15827
G1 X-15.747 Y26.503 E11.18897
G1 X-13.491 Y27.806 E11.21529
G1 X-13.491 Y29.355 E11.23094
G1 X-13.241 Y29.355 E11.23347
G1 X-13.241 Y27.806 E11.24913
G1 X-10.985 Y26.503 E11.27544
G1 X-10.985 Y23.465 E11.30614
G1 X-13.241 Y22.163 E11.33245
G1 X-13.241 Y19.795 E11.35637
G1 X-17.908 Y18.925 F7800.000
G1 X-19.315 Y18.656 E11.37084 F1800.000
G1 X-18.504 Y19.124 E11.38031
G1 X-18.504 Y22.163 E11.41101
G1 X-20.759 Y23.465 E11.43732
G1 X-20.759 Y26.503 E11.46802
G1 X-18.504 Y27.806 E11.49434
G1 X-18.504 Y29.355 E11.50999
G1 X-18.253 Y29.355 E11.51252
G1 X-18.253 Y27.806 E11.52818
G1 X-15.997 Y26.503 E11.55449
G1 X-15.997 Y23.465 E11.58519
G1 X-18.253 Y22.163 E11.61150
G1 X-18.253 Y19.124 E11.64220
G1 X-17.908 Y18.925 E11.64622
G1 X-24.113 Y17.736 F7800.000
G1 X-25.772 Y17.411 E11.66331 F1800.000
G1 X-25.772 Y17.822 E11.66746
G1 X-23.516 Y19.124 E11.69377
G1 X-23.516 Y22.163 E11.72447
G1 X-25.772 Y23.465 E11.75079
G1 X-25.772 Y26.503 E11.78149
G1 X-23.516 Y27.806 E11.80780
G1 X-23.516 Y29.355 E11.82346
G1 X-23.265 Y29.355 E11.82599
G1 X-23.265 Y27.806 E11.84164
G1 X-21.010 Y26.503 E11.86796
G1 X-21.010 Y23.465 E11.89866
G1 X-23.265 Y22.163 E11.92497
G1 X-23.265 Y19.124 E11.95567
G1 X-21.672 Y18.204 E11.97426
G1 X-24.113 Y17.736 E11.99937
G1 X-26.022 Y17.361 F7800.000
G1 X-30.784 Y16.426 E12.04840 F1800.000
G1 X-30.784 Y17.822 E12.06250
G1 X-28.528 Y19.124 E12.08881
G1 X-28.528 Y22.163 E12.11951
G1 X-30.784 Y23.465 E12.14583
G1 X-30.784 Y26.503 E12.17653
G1 X-28.528 Y27.806 E12.20284
G1 X-28.528 Y29.355 E12.21850
G1 X-28.278 Y29.355 E12.22103
G1 X-28.278 Y27.806 E12.23668
G1 X-26.022 Y26.503 E12.26300
G1 X-26.022 Y23.465 E12.29370
G1 X-28.278 Y22.163 E12.32001
G1 X-28.278 Y19.124 E12.35071
G1 X-26.022 Y17.822 E12.37702
G1 X-26.022 Y17.361 E12.38168
G1 X-31.035 Y16.377 F7800.000
G1 X-35.796 Y15.442 E12.43070 F1800.000
G1 X-35.796 Y17.822 E12.45475
G1 X-33.541 Y19.124 E12.48107
G1 X-33.541 Y22.163 E12.51177
G1 X-35.796 Y23.465 E12.53808
G1 X-35.796 Y26.503 E12.56878
G1 X-33.541 Y27.806 E12.59509
G1 X-33.541 Y29.355 E12.61075
G1 X-33.290 Y29.355 E12.61328
G1 X-33.290 Y27.806 E12.62893
G1 X-31.035 Y26.503 E12.65525
G1 X-31.035 Y23.465 E12.68595
G1 X-33.290 Y22.163 E12.71226
G1 X-33.290 Y19.124 E12.74296
G1 X-31.035 Y17.822 E12.76928
G1 X-31.035 Y16.377 E12.78387
G1 X-36.047 Y15.392 F7800.000
G1 X-40.387 Y14.540 E12.82857 F1800.000
G1 X-40.809 Y14.783 E12.83348
G1 X-40.809 Y17.822 E12.86418
G1 X-38.553 Y19.124 E12.89049
G1 X-38.553 Y22.163 E12.92119
G1 X-40.809 Y23.465 E12.94751
G1 X-40.809 Y26.503 E12.97821
G1 X-38.553 Y27.806 E13.00452
G1 X-38.553 Y29.355 E13.02018
G1 X-38.302 Y29.355 E13.02271
G1 X-38.302 Y27.806 E13.03836
G1 X-36.047 Y26.503 E13.06468
G1 X-36.047 Y23.465 E13.09538
G1 X-38.302 Y22.163 E13.12169
G1 X-38.302 Y19.124 E13.15239
G1 X-36.047 Y17.822 E13.17870
G1 X-36.047 Y15.392 E13.20325
G1 X-42.044 Y14.215 F7800.000
G1 X-44.128 Y13.805 E13.22470 F1800.000
G1 X-45.821 Y14.783 E13.24446
G1 X-45.821 Y17.822 E13.27516
G1 X-43.565 Y19.124 E13.30147
G1 X-43.565 Y22.163 E13.33217
G1 X-45.821 Y23.465 E13.35848
G1 X-45.821 Y26.503 E13.38918
G1 X-43.565 Y27.806 E13.41550
G1 X-43.565 Y29.355 E13.43115
G1 X-43.315 Y29.355 E13.43369
G1 X-43.315 Y27.806 E13.44934
G1 X-41.059 Y26.503 E13.47565
G1 X-41.059 Y23.465 E13.50635
G1 X-43.315 Y22.163 E13.53267
G1 X-43.315 Y19.124 E13.56337
G1 X-41.059 Y17.822 E13.58968
G1 X-41.059 Y14.783 E13.62038
G1 X-42.044 Y14.215 E13.63187
G1 X-48.327 Y12.981 F7800.000
G1 X-48.578 Y12.931 E13.63445 F1800.000
G1 X-48.578 Y13.481 E13.64000
G1 X-50.073 Y14.344 E13.65744
G1 X-50.833 Y16.626 E13.68175
G1 X-50.833 Y17.822 E13.69383
G1 X-48.578 Y19.124 E13.72014
G1 X-48.578 Y22.163 E13.75084
G1 X-50.833 Y23.465 E13.77716
G1 X-50.833 Y26.503 E13.80785
G1 X-48.578 Y27.806 E13.83417
G1 X-48.578 Y29.355 E13.84982
G1 X-48.327 Y29.355 E13.85236
G1 X-48.327 Y27.806 E13.86801
G1 X-46.072 Y26.503 E13.89432
G1 X-46.072 Y23.465 E13.92502
G1 X-48.327 Y22.163 E13.95134
G1 X-48.327 Y19.124 E13.98204
G1 X-46.072 Y17.822 E14.00835
G1 X-46.072 Y14.783 E14.03905
G1 X-48.327 Y13.481 E14.06537
G1 X-48.327 Y12.981 E14.07042
G1 X-51.084 Y17.822 F7800.000
G1 X-51.084 Y17.378 E14.07490 F1800.000
G1 X-51.267 Y17.928 E14.08076
G1 X-51.084 Y17.822 E14.08289
G1 X-51.084 Y23.465 F7800.000
G1 X-52.786 Y22.483 E14.10274 F1800.000
G1 X-54.403 Y27.336 E14.15443
G1 X-53.590 Y27.806 E14.16392
G1 X-53.590 Y29.355 E14.17957
G1 X-53.340 Y29.355 E14.18211
G1 X-53.340 Y27.806 E14.19776
G1 X-51.084 Y26.503 E14.22407
G1 X-51.084 Y23.465 E14.25477
G1 F6240
G1 X-51.084 Y26.503 E13.14452
G1 F6240
G1 X-52.956 Y27.584 E12.35477
G1 E12.25477 F2400.00000
G92 E0
G1 X-4.584 Y20.699 F7800.000
G1 X9.562 Y-0.475 F7800.000
G1 X17.622 Y0.019 F7800.000
G1 X20.385 Y0.175 F7800.000
G1 X22.554 Y0.294 F7800.000
G1 X22.113 Y-23.950 F7800.000
G1 X51.403 Y-24.643 F7800.000
G1 E2.00000 F2400.00000
G1 X41.626 Y-24.636 E2.09878 F1800.000
G1 X33.052 Y-24.568 E2.18541
G1 X26.486 Y-24.481 E2.25175
G1 X15.494 Y-24.274 E2.36283
G1 X2.175 Y-23.930 E2.49744
G1 X-11.210 Y-23.487 E2.63275
G1 X-24.581 Y-22.950 E2.76795
G1 X-37.861 Y-22.328 E2.90227
G1 X-44.443 Y-21.987 E2.96886
G1 X-52.666 Y-21.529 E3.05206
G1 X-55.337 Y-29.543 E3.13741
G1 X53.699 Y-29.543 E4.23903
G1 X55.336 Y-24.632 E4.29133
G1 X51.448 Y-24.643 E4.33062 F1800.000
G1 X51.448 Y-24.464 F7800.000
G1 X41.627 Y-24.457 E4.42984 F1800.000
G1 X33.054 Y-24.389 E4.51646
G1 X26.489 Y-24.302 E4.58279
G1 X15.498 Y-24.095 E4.69385
G1 X2.180 Y-23.751 E4.82846
G1 X-11.203 Y-23.308 E4.96375
G1 X-24.573 Y-22.772 E5.09893
G1 X-37.853 Y-22.150 E5.23325
G1 X-44.434 Y-21.809 E5.29983
G1 X-52.792 Y-21.343 E5.38440
G1 X-55.585 Y-29.721 E5.47363
G1 X53.828 Y-29.721 E6.57906
G1 X55.584 Y-24.453 E6.63517
G1 X51.493 Y-24.464 E6.67651 F1800.000
G1 X51.492 Y-24.286 F7800.000
G1 X41.628 Y-24.279 E6.77617 F1800.000
G1 X33.056 Y-24.211 E6.86278
G1 X26.492 Y-24.124 E6.92910
G1 X15.502 Y-23.917 E7.04016
G1 X2.185 Y-23.573 E7.17475
G1 X-11.197 Y-23.130 E7.31003
G1 X-24.565 Y-22.593 E7.44520
G1 X-37.844 Y-21.972 E7.57950
G1 X-44.424 Y-21.631 E7.64608
G1 X-52.918 Y-21.157 E7.73202
G1 X-55.832 Y-29.900 E7.82514
G1 X53.957 Y-29.900 E8.93437
G1 X55.832 Y-24.274 E8.99429
G1 X51.537 Y-24.286 E9.03768 F1800.000
G1 X51.342 Y-24.546 F7800.000
G1 X54.914 Y-25.305 F7800.000
G1 X54.427 Y-25.587 E9.04337 F1800.000
G1 X54.427 Y-26.767 E9.05529
G1 X54.914 Y-25.305 E9.07086
G1 X53.719 Y-28.889 F7800.000
G1 X54.176 Y-27.519 E9.08545 F1800.000
G1 X54.176 Y-25.587 E9.10497
G1 X52.860 Y-24.827 E9.12033
G1 X50.721 Y-24.833 E9.14194
G1 X49.414 Y-25.587 E9.15718
G1 X49.414 Y-28.625 E9.18788
G1 X50.678 Y-29.355 E9.20263
G1 X52.912 Y-29.355 E9.22519
G1 X53.719 Y-28.889 E9.23461
G1 X49.164 Y-28.625 F7800.000
G1 X49.164 Y-25.587 E9.26531 F1800.000
G1 X47.870 Y-24.840 E9.28040
G1 X45.705 Y-24.834 E9.30228
G1 X44.402 Y-25.587 E9.31748
G1 X44.402 Y-28.625 E9.34818
G1 X45.666 Y-29.355 E9.36293
G1 X47.900 Y-29.355 E9.38550
G1 X49.164 Y-28.625 E9.40024
G1 X44.151 Y-28.625 F7800.000
G1 X44.151 Y-25.587 E9.43094 F1800.000
G1 X42.835 Y-24.827 E9.44630
G1 X40.724 Y-24.817 E9.46763
G1 X39.390 Y-25.587 E9.48319
G1 X39.390 Y-28.625 E9.51389
G1 X40.653 Y-29.355 E9.52864
G1 X42.887 Y-29.355 E9.55121
G1 X44.151 Y-28.625 E9.56595
G1 X39.139 Y-28.625 F7800.000
G1 X39.139 Y-25.587 E9.59665 F1800.000
G1 X37.764 Y-24.793 E9.61269
G1 X35.779 Y-24.777 E9.63275
G1 X34.377 Y-25.587 E9.64910
G1 X34.377 Y-28.625 E9.67980
G1 X35.641 Y-29.355 E9.69455
G1 X37.875 Y-29.355 E9.71712
G1 X39.139 Y-28.625 E9.73187
G1 X34.127 Y-28.625 F7800.000
G1 X34.127 Y-25.587 E9.76257 F1800.000
G1 X32.678 Y-24.751 E9.77946
G1 X30.855 Y-24.727 E9.79789
G1 X29.365 Y-25.587 E9.81527
G1 X29.365 Y-28.625 E9.84597
G1 X30.629 Y-29.355 E9.86071
G1 X32.863 Y-29.355 E9.88328
G1 X34.127 Y-28.625 E9.89803
G1 X29.114 Y-28.625 F7800.000
G1 X29.114 Y-25.587 E9.92873 F1800.000
G1 X27.548 Y-24.683 E9.94700
G1 X25.960 Y-24.659 E9.96305
G1 X24.352 Y-25.587 E9.98180
G1 X24.352 Y-28.625 E10.01250
G1 X25.616 Y-29.355 E10.02724
G1 X27.850 Y-29.355 E10.04981
G1 X29.114 Y-28.625 E10.06456
G1 X24.102 Y-28.625 F7800.000
G1 X24.102 Y-25.587 E10.09526 F1800.000
G1 X22.378 Y-24.591 E10.11537
G1 X21.106 Y-24.567 E10.12823
G1 X19.340 Y-25.587 E10.14883
G1 X19.340 Y-28.625 E10.17953
G1 X20.604 Y-29.355 E10.19427
G1 X22.838 Y-29.355 E10.21684
G1 X24.102 Y-28.625 E10.23159
G1 X19.089 Y-28.625 F7800.000
G1 X19.089 Y-25.587 E10.26229 F1800.000
G1 X17.196 Y-24.494 E10.28437
G1 X16.252 Y-24.476 E10.29392
G1 X14.328 Y-25.587 E10.31636
G1 X14.328 Y-28.625 E10.34706
G1 X15.592 Y-29.355 E10.36181
G1 X17.825 Y-29.355 E10.38438
G1 X19.089 Y-28.625 E10.39912
G1 X14.077 Y-28.625 F7800.000
G1 X14.077 Y-25.587 E10.42982 F1800.000
G1 X11.971 Y-24.371 E10.45440
G1 X11.445 Y-24.357 E10.45971
G1 X9.315 Y-25.587 E10.48456
G1 X9.315 Y-28.625 E10.51526
G1 X10.579 Y-29.355 E10.53000
G1 X12.813 Y-29.355 E10.55257
G1 X14.077 Y-28.625 E10.56732
G1 X9.065 Y-28.625 F7800.000
G1 X9.065 Y-25.587 E10.59802 F1800.000
G1 X6.809 Y-24.285 E10.62433
G1 X6.809 Y-24.237 E10.62481
