; generated by Slic3r 1.2.9 on 2016-07-14 at 19:11:04

; external perimeters extrusion width = 0.30mm
; perimeters extrusion width = 0.31mm
; infill extrusion width = 0.31mm
; solid infill extrusion width = 0.31mm
; top infill extrusion width = 0.31mm

M107
M104 S215 ; set temperature
G28 ; home all axes
G1 Z5 F5000 ; lift nozzle

M109 S215 ; wait for temperature to be reached
G21 ; set units to millimeters
G90 ; use absolute coordinates
M82 ; use absolute distances for extrusion
G92 E0
G1 E-2.00000 F2400.00000
G92 E0
G1 Z0.100 F7800.000
G1 X-3.763 Y19.647 F7800.000
G1 E2.00000 F2400.00000
G1 X-17.902 Y16.939 E2.14544 F1800.000
G1 X-19.966 Y16.140 E2.16781
G1 X-21.617 Y14.663 E2.19018
G1 X-22.641 Y12.700 E2.21255
G1 X-22.918 Y10.871 E2.23125
G1 X-22.918 Y-14.803 E2.49064
G1 X-22.521 Y-16.982 E2.51301
G1 X-21.382 Y-18.880 E2.53539
G1 X-19.646 Y-20.255 E2.55776
G1 X-17.184 Y-20.966 E2.58365
G1 X-9.867 Y-21.480 E2.65776
G1 X-3.562 Y-21.899 E2.72160
G1 X9.417 Y-22.695 E2.85298
G1 X11.615 Y-22.424 E2.87535
G1 X13.576 Y-21.395 E2.89772 F1800.000
G1 X15.048 Y-19.742 E2.92009
G1 X15.633 Y-18.480 E2.93414
G1 X22.651 Y2.572 E3.15834
G1 X22.963 Y4.764 E3.18072
G1 X22.651 Y6.480 E3.19833
G1 X18.651 Y18.480 E3.32614
G1 X17.585 Y20.422 E3.34851
G1 X15.904 Y21.863 E3.37088
G1 X13.823 Y22.618 E3.39325
G1 X11.627 Y22.595 E3.41544
G1 X-3.719 Y19.656 E3.57330
G1 F6240
G1 X-8.826 Y18.677 E1.67330
G1 E1.57330 F2400.00000
G92 E0
G1 X8.931 Y15.311 F7800.000
G1 E2.00000 F2400.00000
G1 X-2.598 Y13.070 E2.11866 F1800.000
G1 X-16.282 Y10.491 E2.25935
G1 X-16.282 Y-14.377 E2.51060
G1 X-3.130 Y-15.277 E2.64380
G1 X9.449 Y-16.049 E2.77112
G1 X16.308 Y4.526 E2.99025
G1 X12.482 Y16.001 E3.11245 F1800.000
G1 X8.975 Y15.320 E3.14855
G1 X8.941 Y15.495 F7800.000
G1 X-2.631 Y13.245 E3.26766 F1800.000
G1 X-9.080 Y12.018 E3.33398
G1 X-16.461 Y10.640 E3.40984
G1 X-16.461 Y-14.544 E3.66428
G1 X-3.141 Y-15.455 E3.79917
G1 X9.575 Y-16.236 E3.92788
G1 X9.624 Y-16.088 E3.92946
G1 X16.496 Y4.526 E4.14899 F1800.000
G1 X12.602 Y16.207 E4.27338
G1 X8.985 Y15.503 E4.31061
G1 X8.951 Y15.679 F7800.000
G1 X-2.665 Y13.421 E4.43017 F1800.000
G1 X-9.113 Y12.193 E4.49648
G1 X-16.639 Y10.788 E4.57384
G1 X-16.639 Y-14.710 E4.83146
G1 X-9.436 Y-15.216 E4.90441
G1 X-3.152 Y-15.634 E4.96804
G1 X9.701 Y-16.422 E5.09814
G1 X9.794 Y-16.144 E5.10110
G1 X16.684 Y4.526 E5.32124 F1800.000
G1 X12.722 Y16.412 E5.44782
G1 X8.995 Y15.687 E5.48618
G1 X8.853 Y15.395 F7800.000
G1 X13.410 Y12.624 F7800.000
G1 X13.410 Y10.893 E5.50366 F1800.000
G1 X14.125 Y10.481 E5.51200
G1 X13.410 Y12.624 E5.53482
G1 X16.110 Y4.526 F7800.000
G1 X15.472 Y6.440 E5.55521 F1800.000
G1 X13.410 Y5.250 E5.57925
G1 X13.410 Y2.211 E5.60995
G1 X15.027 Y1.278 E5.62881
G1 X16.110 Y4.526 E5.66341
G1 X13.468 Y-3.398 F7800.000
G1 X13.410 Y-3.432 E5.66408 F1800.000
G1 X13.410 Y-3.572 E5.66549
G1 X13.468 Y-3.398 E5.66734
G1 X10.982 Y-10.856 F7800.000
G1 X10.904 Y-10.811 E5.66824 F1800.000
G1 X10.904 Y-7.773 E5.69894
G1 X12.274 Y-6.982 E5.71492
G1 X13.160 Y-4.323 E5.74323
G1 X13.160 Y-3.432 E5.75224
G1 X10.904 Y-2.129 E5.77856
G1 X10.904 Y0.909 E5.80926
G1 X13.160 Y2.211 E5.83557
G1 X13.160 Y5.250 E5.86627
G1 X10.904 Y6.552 E5.89258
G1 X10.904 Y9.591 E5.92328
G1 X13.160 Y10.893 E5.94960
G1 X13.160 Y13.376 E5.97468
G1 X12.930 Y14.064 E5.98201
G1 X10.904 Y15.234 E6.00565
G1 X10.904 Y15.503 E6.00837
G1 X10.654 Y15.455 E6.01095
G1 X10.654 Y15.234 E6.01318
G1 X8.398 Y13.932 E6.03950
G1 X8.398 Y10.893 E6.07019
G1 X10.654 Y9.591 E6.09651
G1 X10.654 Y6.552 E6.12721
G1 X8.398 Y5.250 E6.15352
G1 X8.398 Y2.211 E6.18422
G1 X10.654 Y0.909 E6.21054
G1 X10.654 Y-2.129 E6.24124
G1 X8.398 Y-3.432 E6.26755
G1 X8.398 Y-6.470 E6.29825
G1 X10.654 Y-7.773 E6.32457
G1 X10.654 Y-10.811 E6.35526
G1 X8.398 Y-12.113 E6.38158
G1 X8.398 Y-15.152 E6.41228
G1 X9.364 Y-15.710 E6.42355
G1 X10.982 Y-10.856 E6.47524
G1 X8.147 Y-15.152 F7800.000
G1 X8.147 Y-12.113 E6.50594 F1800.000
G1 X5.892 Y-10.811 E6.53226
G1 X5.892 Y-7.773 E6.56296
G1 X8.147 Y-6.470 E6.58927
G1 X8.147 Y-3.432 E6.61997
G1 X5.892 Y-2.129 E6.64628
G1 X5.892 Y0.909 E6.67698
G1 X8.147 Y2.211 E6.70330
G1 X8.147 Y5.250 E6.73400
G1 X5.892 Y6.552 E6.76031
G1 X5.892 Y9.591 E6.79101
G1 X8.147 Y10.893 E6.81733
G1 X8.147 Y13.932 E6.84803
G1 X6.805 Y14.707 E6.86368
G1 X3.673 Y14.098 E6.89592
G1 X3.386 Y13.932 E6.89928
G1 X3.386 Y10.893 E6.92998
G1 X5.641 Y9.591 E6.95629
G1 X5.641 Y6.552 E6.98699
G1 X3.386 Y5.250 E7.01330
G1 X3.386 Y2.211 E7.04400
G1 X5.641 Y0.909 E7.07032
G1 X5.641 Y-2.129 E7.10102
G1 X3.386 Y-3.432 E7.12733
G1 X3.386 Y-6.470 E7.15803
G1 X5.641 Y-7.773 E7.18435
G1 X5.641 Y-10.811 E7.21505
G1 X3.386 Y-12.113 E7.24136
G1 X3.386 Y-15.152 E7.27206
G1 X4.038 Y-15.529 E7.27967
G1 X7.163 Y-15.721 E7.31130
G1 X8.147 Y-15.152 E7.32279
G1 X3.135 Y-15.152 F7800.000
G1 X3.135 Y-12.113 E7.35349 F1800.000
G1 X0.879 Y-10.811 E7.37980
G1 X0.879 Y-7.773 E7.41050
G1 X3.135 Y-6.470 E7.43682
G1 X3.135 Y-3.432 E7.46752
G1 X0.879 Y-2.129 E7.49383
G1 X0.879 Y0.909 E7.52453
G1 X3.135 Y2.211 E7.55084
G1 X3.135 Y5.250 E7.58154
G1 X0.879 Y6.552 E7.60786
G1 X0.879 Y9.591 E7.63856
G1 X3.135 Y10.893 E7.66487
G1 X3.135 Y13.932 E7.69557
G1 X3.055 Y13.978 E7.69650
G1 X-1.627 Y13.068 E7.74469
G1 X-1.627 Y10.893 E7.76666
G1 X0.629 Y9.591 E7.79297
G1 X0.629 Y6.552 E7.82367
G1 X-1.627 Y5.250 E7.84999
G1 X-1.627 Y2.211 E7.88069
G1 X0.629 Y0.909 E7.90700
G1 X0.629 Y-2.129 E7.93770
G1 X-1.627 Y-3.432 E7.96402
G1 X-1.627 Y-6.470 E7.99472
G1 X0.629 Y-7.773 E8.02103
G1 X0.629 Y-10.811 E8.05173
G1 X-1.627 Y-12.113 E8.07804
G1 X-1.627 Y-15.152 E8.10874
G1 X-1.570 Y-15.185 E8.10940
G1 X2.632 Y-15.443 E8.15194
G1 X3.135 Y-15.152 E8.15781
G1 X-1.877 Y-15.152 F7800.000
G1 X-1.877 Y-12.113 E8.18851 F1800.000
G1 X-4.133 Y-10.811 E8.21482
G1 X-4.133 Y-7.773 E8.24552
G1 X-1.877 Y-6.470 E8.27184
G1 X-1.877 Y-3.432 E8.30254
G1 X-4.133 Y-2.129 E8.32885
G1 X-4.133 Y0.909 E8.35955
G1 X-1.877 Y2.211 E8.38586
G1 X-1.877 Y5.250 E8.41656
G1 X-4.133 Y6.552 E8.44288
G1 X-4.133 Y9.591 E8.47358
G1 X-1.877 Y10.893 E8.49989
G1 X-1.877 Y13.019 E8.52137
G1 X-6.639 Y12.117 E8.57033
G1 X-6.639 Y10.893 E8.58270
G1 X-4.384 Y9.591 E8.60902
G1 X-4.384 Y6.552 E8.63972
G1 X-6.639 Y5.250 E8.66603
G1 X-6.639 Y2.211 E8.69673
G1 X-4.384 Y0.909 E8.72304
G1 X-4.384 Y-2.129 E8.75374
G1 X-6.639 Y-3.432 E8.78006
G1 X-6.639 Y-6.470 E8.81076
G1 X-4.384 Y-7.773 E8.83707
G1 X-4.384 Y-10.811 E8.86777
G1 X-6.639 Y-12.113 E8.89409
G1 X-6.639 Y-14.849 E8.92172
G1 X-3.117 Y-15.090 E8.95739
G1 X-1.899 Y-15.165 E8.96972
G1 X-1.877 Y-15.152 E8.96997
G1 X-6.890 Y-12.113 F7800.000
G1 X-9.145 Y-10.811 E8.99629 F1800.000
G1 X-9.145 Y-7.773 E9.02699
G1 X-6.890 Y-6.470 E9.05330
G1 X-6.890 Y-3.432 E9.08400
G1 X-9.145 Y-2.129 E9.11032
G1 X-9.145 Y0.909 E9.14101
G1 X-6.890 Y2.211 E9.16733
G1 X-6.890 Y5.250 E9.19803
G1 X-9.145 Y6.552 E9.22434
G1 X-9.145 Y9.591 E9.25504
G1 X-6.890 Y10.893 E9.28136
G1 X-6.890 Y12.070 E9.29325
G1 X-11.652 Y11.173 E9.34221
G1 X-11.652 Y10.893 E9.34503
G1 X-9.396 Y9.591 E9.37135
G1 X-9.396 Y6.552 E9.40205
G1 X-11.652 Y5.250 E9.42836
G1 X-11.652 Y2.211 E9.45906
G1 X-9.396 Y0.909 E9.48537
G1 X-9.396 Y-2.129 E9.51607
G1 X-11.652 Y-3.432 E9.54239
G1 X-11.652 Y-6.470 E9.57309
G1 X-9.396 Y-7.773 E9.59940
G1 X-9.396 Y-10.811 E9.63010
G1 X-11.652 Y-12.113 E9.65642
G1 X-11.652 Y-14.506 E9.68059
G1 X-6.890 Y-14.832 E9.72881
G1 X-6.890 Y-12.113 E9.75627
G1 X-11.902 Y-12.113 F7800.000
G1 X-14.158 Y-10.811 E9.78259 F1800.000
G1 X-14.158 Y-7.773 E9.81329
G1 X-11.902 Y-6.470 E9.83960
G1 X-11.902 Y-3.432 E9.87030
G1 X-14.158 Y-2.129 E9.89662
G1 X-14.158 Y0.909 E9.92732
G1 X-11.902 Y2.211 E9.95363
G1 X-11.902 Y5.250 E9.98433
G1 X-14.158 Y6.552 E10.01064
G1 X-14.158 Y9.591 E10.04134
G1 X-11.902 Y10.893 E10.06766
G1 X-11.902 Y11.126 E10.07001
G1 X-15.796 Y10.392 E10.11004
G1 X-14.408 Y9.591 E10.12622
G1 X-14.408 Y6.552 E10.15692
G1 X-16.094 Y5.579 E10.17659
G1 X-16.094 Y1.883 E10.21394
G1 X-14.408 Y0.909 E10.23361
G1 X-14.408 Y-2.129 E10.26431
G1 X-16.094 Y-3.103 E10.28398
G1 X-16.094 Y-6.799 E10.32132
G1 X-14.408 Y-7.773 E10.34099
G1 X-14.408 Y-10.811 E10.37169
G1 X-16.094 Y-11.785 E10.39136
G1 X-16.094 Y-14.202 E10.41578
G1 X-11.902 Y-14.489 E10.45824
G1 X-11.902 Y-12.113 E10.48223
G1 F6240
G1 X-11.902 Y-14.489 E9.61432
G1 F6240
G1 X-14.720 Y-14.296 E8.58223
G1 E8.48223 F2400.00000
G92 E0
G1 Z0.400 F7800.000
G1 X12.058 Y-7.633 F7800.000
G1 E2.00000 F2400.00000
G1 X16.111 Y4.526 E2.54532 F3600.000
G1 X12.357 Y15.787 E3.05034
G1 X-2.563 Y12.887 E3.69702
G1 X-15.896 Y10.374 E4.27427
G1 X-15.896 Y-14.217 E5.32052
G1 X-3.117 Y-15.091 E5.86547
G1 X9.317 Y-15.854 E6.39551
G1 X9.746 Y-14.569 E6.45314
G1 X12.043 Y-7.676 E6.76227 F3600.000
G1 X12.281 Y-7.755 F7800.000
G1 X16.375 Y4.526 E7.31306 F3600.000
G1 X12.525 Y16.075 E7.83100
G1 X-2.610 Y13.133 E8.48701
G1 X-16.146 Y10.582 E9.07306
G1 X-16.146 Y-14.451 E10.13811
G1 X-3.133 Y-15.341 E10.69306
G1 X9.494 Y-16.116 E11.23133
G1 X9.984 Y-14.648 E11.29716
G1 X12.267 Y-7.798 E11.60437 F3600.000
G1 X12.498 Y-7.875 F7800.000
G1 X16.631 Y4.526 E12.12724 F1800.000
G1 X12.688 Y16.354 E12.62596
G1 X-2.656 Y13.372 E13.25122
G1 X-16.389 Y10.783 E13.81023
G1 X-16.389 Y-14.678 E14.82868
G1 X-3.149 Y-15.584 E15.35953
G1 X9.666 Y-16.370 E15.87309
G1 X10.214 Y-14.725 E15.94245
G1 X12.483 Y-7.917 E16.22948 F1800.000
G1 X12.299 Y-7.650 F7800.000
G1 X8.273 Y-14.935 F7800.000
G1 X8.273 Y-12.331 E16.34029 F4800.000
G1 X10.743 Y-10.904 E16.46164
G1 X11.937 Y-7.321 E16.62235
G1 X10.779 Y-7.990 E16.67926
G1 X10.779 Y-10.594 E16.79008
G1 X8.147 Y-12.113 E16.91936
G1 X5.892 Y-10.811 E17.03017
G1 X3.260 Y-12.331 E17.15945
G1 X3.260 Y-14.935 E17.27027
G1 X2.738 Y-15.237 E17.29594
G1 X3.191 Y-15.265 E17.31526
G1 X3.386 Y-15.152 E17.32483
G1 X3.627 Y-15.291 E17.33668
G1 X7.269 Y-15.515 E17.49192
G1 X8.273 Y-14.935 E17.54125
G1 X9.177 Y-15.602 F7800.000
G1 X8.398 Y-15.152 E17.57952 F4800.000
G1 X7.722 Y-15.543 E17.61274
G1 X9.167 Y-15.631 E17.67436
G1 X9.177 Y-15.602 E17.67568
G1 X-1.752 Y-14.935 F7800.000
G1 X-1.752 Y-12.331 E17.78649 F4800.000
G1 X0.879 Y-10.811 E17.91577
G1 X3.135 Y-12.113 E18.02659
G1 X5.766 Y-10.594 E18.15587
G1 X5.766 Y-7.990 E18.26668
G1 X8.398 Y-6.470 E18.39596
G1 X10.654 Y-7.773 E18.50678
G1 X12.057 Y-6.962 E18.57571
G1 X13.251 Y-3.379 E18.73643
G1 X13.160 Y-3.432 E18.74092
G1 X10.904 Y-2.129 E18.85173
G1 X8.273 Y-3.649 E18.98101
G1 X8.273 Y-6.253 E19.09183
G1 X5.641 Y-7.773 E19.22111
G1 X3.386 Y-6.470 E19.33192
G1 X0.754 Y-7.990 E19.46120
G1 X0.754 Y-10.594 E19.57202
G1 X-1.877 Y-12.113 E19.70130
G1 X-4.133 Y-10.811 E19.81211
G1 X-6.765 Y-12.331 E19.94139
G1 X-6.765 Y-14.628 E20.03914
G1 X-1.793 Y-14.959 E20.25111
G1 X-1.752 Y-14.935 E20.25314
G1 X-11.777 Y-12.331 F7800.000
G1 X-9.145 Y-10.811 E20.38242 F4800.000
G1 X-6.890 Y-12.113 E20.49323
G1 X-4.258 Y-10.594 E20.62252
G1 X-4.258 Y-7.990 E20.73333
G1 X-1.627 Y-6.470 E20.86261
G1 X0.629 Y-7.773 E20.97342
G1 X3.260 Y-6.253 E21.10271
G1 X3.260 Y-3.649 E21.21352
G1 X5.892 Y-2.129 E21.34280
G1 X8.147 Y-3.432 E21.45361
G1 X10.779 Y-1.912 E21.58289
G1 X10.779 Y0.692 E21.69371
G1 X13.410 Y2.211 E21.82299
G1 X14.840 Y1.386 E21.89321
G1 X15.886 Y4.526 E22.03403
G1 X15.325 Y6.211 E22.10957
G1 X13.285 Y5.033 E22.20978
G1 X13.285 Y2.428 E22.32059
G1 X10.654 Y0.909 E22.44987
G1 X8.398 Y2.211 E22.56069
G1 X5.766 Y0.692 E22.68997
G1 X5.766 Y-1.912 E22.80078
G1 X3.135 Y-3.432 E22.93006
G1 X0.879 Y-2.129 E23.04088
G1 X-1.752 Y-3.649 E23.17016
G1 X-1.752 Y-6.253 E23.28097
G1 X-4.384 Y-7.773 E23.41025
G1 X-6.639 Y-6.470 E23.52106
G1 X-9.271 Y-7.990 E23.65035
G1 X-9.271 Y-10.594 E23.76116
G1 X-11.902 Y-12.113 E23.89044
G1 X-14.158 Y-10.811 E24.00125
G1 X-15.683 Y-11.692 E24.07616
G1 X-15.683 Y-14.018 E24.17514
G1 X-11.777 Y-14.285 E24.34170
G1 X-11.777 Y-12.331 E24.42485
G1 X-14.283 Y-10.594 F7800.000
G1 X-14.283 Y-7.990 E24.53566 F4800.000
G1 X-11.652 Y-6.470 E24.66495
G1 X-9.396 Y-7.773 E24.77576
G1 X-6.765 Y-6.253 E24.90504
G1 X-6.765 Y-3.649 E25.01585
G1 X-4.133 Y-2.129 E25.14514
G1 X-1.877 Y-3.432 E25.25595
G1 X0.754 Y-1.912 E25.38523
G1 X0.754 Y0.692 E25.49604
G1 X3.386 Y2.211 E25.62532
G1 X5.641 Y0.909 E25.73614
G1 X8.273 Y2.428 E25.86542
G1 X8.273 Y5.033 E25.97623
G1 X10.904 Y6.552 E26.10551
G1 X13.160 Y5.250 E26.21633
G1 X15.244 Y6.453 E26.31872
G1 X13.848 Y10.640 E26.50650
G1 X13.410 Y10.893 E26.52801
G1 X10.779 Y9.374 E26.65729
G1 X10.779 Y6.769 E26.76810
G1 X8.147 Y5.250 E26.89739
G1 X5.892 Y6.552 E27.00820
G1 X3.260 Y5.033 E27.13748
G1 X3.260 Y2.428 E27.24829
G1 X0.629 Y0.909 E27.37757
G1 X-1.627 Y2.211 E27.48839
G1 X-4.258 Y0.692 E27.61767
G1 X-4.258 Y-1.912 E27.72848
G1 X-6.890 Y-3.432 E27.85776
G1 X-9.145 Y-2.129 E27.96858
G1 X-11.777 Y-3.649 E28.09786
G1 X-11.777 Y-6.253 E28.20867
G1 X-14.408 Y-7.773 E28.33795
G1 X-15.683 Y-7.037 E28.40055
G1 X-15.683 Y-11.402 E28.58627
G1 X-14.283 Y-10.594 E28.65502
G1 X-9.271 Y-1.912 F7800.000
G1 X-9.271 Y0.692 E28.76584 F4800.000
G1 X-6.639 Y2.211 E28.89512
G1 X-4.384 Y0.909 E29.00593
G1 X-1.752 Y2.428 E29.13521
G1 X-1.752 Y5.033 E29.24603
G1 X0.879 Y6.552 E29.37531
G1 X3.135 Y5.250 E29.48612
G1 X5.766 Y6.769 E29.61540
G1 X5.766 Y9.374 E29.72621
G1 X8.398 Y10.893 E29.85550
G1 X10.654 Y9.591 E29.96631
G1 X13.285 Y11.110 E30.09559
G1 X13.285 Y12.330 E30.14748
G1 X12.654 Y14.224 E30.23243
G1 X10.904 Y15.234 E30.31838
G1 X8.273 Y13.715 E30.44766
G1 X8.273 Y11.110 E30.55847
G1 X5.641 Y9.591 E30.68776
G1 X3.386 Y10.893 E30.79857
G1 X0.754 Y9.374 E30.92785
G1 X0.754 Y6.769 E31.03866
G1 X-1.877 Y5.250 E31.16794
G1 X-4.133 Y6.552 E31.27876
G1 X-6.765 Y5.033 E31.40804
G1 X-6.765 Y2.428 E31.51885
G1 X-9.396 Y0.909 E31.64813
G1 X-11.652 Y2.211 E31.75895
G1 X-14.283 Y0.692 E31.88823
G1 X-14.283 Y-1.912 E31.99904
G1 X-15.683 Y-2.720 E32.06779
G1 X-15.683 Y-3.010 E32.08011
G1 X-14.158 Y-2.129 E32.15502
G1 X-11.902 Y-3.432 E32.26583
G1 X-9.271 Y-1.912 E32.39511
G1 X-11.777 Y2.428 F7800.000
G1 X-11.777 Y5.033 E32.50592 F4800.000
G1 X-9.145 Y6.552 E32.63520
G1 X-6.890 Y5.250 E32.74602
G1 X-4.258 Y6.769 E32.87530
G1 X-4.258 Y9.374 E32.98611
G1 X-1.627 Y10.893 E33.11539
G1 X0.629 Y9.591 E33.22621
G1 X3.260 Y11.110 E33.35549
G1 X3.260 Y13.715 E33.46630
G1 X3.487 Y13.846 E33.47746
G1 X-1.752 Y12.827 E33.70456
G1 X-1.752 Y11.110 E33.77762
G1 X-4.384 Y9.591 E33.90690
G1 X-6.639 Y10.893 E34.01771
G1 X-9.271 Y9.374 E34.14699
G1 X-9.271 Y6.769 E34.25781
G1 X-11.902 Y5.250 E34.38709
G1 X-14.158 Y6.552 E34.49790
G1 X-15.683 Y5.672 E34.57281
G1 X-15.683 Y1.645 E34.74415
G1 X-14.408 Y0.909 E34.80675
G1 X-11.777 Y2.428 E34.93603
G1 X-14.283 Y6.769 F7800.000
G1 X-14.283 Y9.374 E35.04684 F4800.000
G1 X-11.652 Y10.893 E35.17612
G1 X-9.396 Y9.591 E35.28694
G1 X-6.765 Y11.110 E35.41622
G1 X-6.765 Y11.878 E35.44889
G1 X-12.231 Y10.848 E35.68557
G1 X-14.408 Y9.591 E35.79254
G1 X-15.514 Y10.229 E35.84686
G1 X-15.683 Y10.197 E35.85415
G1 X-15.683 Y5.961 E36.03438
G1 X-14.283 Y6.769 E36.10314
G1 X10.288 Y15.168 F7800.000
G1 X7.085 Y14.545 E36.24198 F4800.000
G1 X8.147 Y13.932 E36.29418
G1 X10.288 Y15.168 E36.39936
G1 F6240
G1 X8.147 Y13.932 E35.49607
G1 F6240
G1 X7.085 Y14.545 E35.04783
G1 F6240
G1 X8.558 Y14.831 E34.49936
G1 E34.39936 F2400.00000
G92 E0
G1 Z0.700 F7800.000
G1 X-1.484 Y-15.191 F7800.000
G1 E2.00000 F2400.00000
G1 X9.317 Y-15.854 E2.46042 F3600.000
G1 X10.448 Y-12.463 E2.61247
G1 X16.111 Y4.526 E3.37442 F3600.000
G1 X12.357 Y15.787 E3.87944
G1 X-2.563 Y12.887 E4.52612
G1 X-15.596 Y10.429 E5.09038
G1 X-15.596 Y-14.238 E6.13991
G1 X-1.529 Y-15.188 E6.73977
G1 X-1.544 Y-15.439 F7800.000
G1 X9.494 Y-16.116 E7.21029 F3600.000
G1 X10.685 Y-12.543 E7.37054
G1 X16.375 Y4.526 E8.13604 F3600.000
G1 X12.525 Y16.075 E8.65398
G1 X-2.610 Y13.133 E9.30999
G1 X-15.846 Y10.637 E9.88307
G1 X-15.846 Y-14.472 E10.95139
G1 X-1.589 Y-15.436 E11.55937
G1 X-1.604 Y-15.679 F7800.000
G1 X9.666 Y-16.370 E12.01101 F1800.000
G1 X10.916 Y-12.620 E12.16914
G1 X16.631 Y4.526 E12.89206 F1800.000
G1 X12.688 Y16.354 E13.39078
G1 X-2.656 Y13.372 E14.01604
G1 X-16.089 Y10.839 E14.56285
G1 X-16.089 Y-14.699 E15.58438
G1 X-1.649 Y-15.676 E16.16332
G1 X-1.438 Y-15.429 F7800.000
