; generated by Slic3r 1.2.9 on 2016-07-17 at 16:16:00

; external perimeters extrusion width = 0.40mm
; perimeters extrusion width = 0.67mm
; infill extrusion width = 0.67mm
; solid infill extrusion width = 0.67mm
; top infill extrusion width = 0.67mm

M107
M104 S215 ; set temperature
G28 ; home all axes
G1 Y-60 Z5 F5000 ; lift nozzle


M109 S215 ; wait for temperature to be reached
G21 ; set units to millimeters
G90 ; use absolute coordinates
M82 ; use absolute distances for extrusion
G92 E0
G1 E-3.00000 F2400.00000
G92 E0
G1 Z0.300 F6000.000
G1 X24.592 Y-0.704 F6000.000
G1 E3.00000 F2400.00000
G1 X25.034 Y8.119 E3.46153 F1800.000
G1 X25.440 Y17.005 E3.92628
G1 X25.809 Y25.931 E4.39303
G1 X26.098 Y33.777 E4.80320
G1 X25.767 Y35.617 E4.90087
G1 X24.704 Y37.155 E4.99854
G1 X22.409 Y38.290 E5.13234
G1 X-0.741 Y42.148 E6.35849
G1 X-2.194 Y42.148 E6.43439
G1 X-22.409 Y38.779 E7.50507
G1 X-24.146 Y38.088 E7.60274
G1 X-25.442 Y36.741 E7.70042
G1 X-26.066 Y34.979 E7.79809
G1 X-26.033 Y33.645 E7.86781
G1 X-24.971 Y27.793 E8.17855
G1 X-23.330 Y19.113 E8.64003
G1 X-12.169 Y-38.480 E11.70497
G1 X-11.433 Y-40.199 E11.80265
G1 X-10.052 Y-41.459 E11.90032
G1 X-7.831 Y-42.058 E12.02053
G1 X17.869 Y-42.058 E13.36322
G1 X19.696 Y-41.663 E13.46089
G1 X21.197 Y-40.547 E13.55857
G1 X22.101 Y-38.911 E13.65624
G1 X22.277 Y-37.957 E13.70689
G1 X22.924 Y-28.656 E14.19401
G1 X23.472 Y-20.196 E14.63696
G1 X24.114 Y-9.439 E15.19992
G1 X24.588 Y-0.764 E15.65383
G1 F4800
G1 X24.889 Y5.228 E12.80383
G1 E12.65383 F2400.00000
G92 E0
G1 X-7.352 Y-37.062 F6000.000
G1 E3.00000 F2400.00000
G1 X17.332 Y-37.062 E4.28960 F1800.000
G1 X17.939 Y-28.320 E4.74745
G1 X18.485 Y-19.886 E5.18897
G1 X19.002 Y-11.315 E5.63759
G1 X19.487 Y-2.628 E6.09217
G1 X19.937 Y6.153 E6.55152
G1 X20.351 Y15.004 E7.01443
G1 X20.728 Y23.900 E7.47962
G1 X21.086 Y33.445 E7.97866
G1 X-1.468 Y37.204 E9.17325
G1 X-21.010 Y33.947 E10.20831
G1 X-20.059 Y28.706 E10.48658
G1 X-18.424 Y20.054 E10.94661
G1 X-10.727 Y-19.248 E13.03893
G1 X-9.072 Y-27.881 E13.49820
G1 X-7.363 Y-37.003 E13.98308
G1 X-7.665 Y-37.439 F6000.000
G1 X17.683 Y-37.439 E15.04415 F1800.000
G1 X18.316 Y-28.345 E15.42577
G1 X18.862 Y-19.910 E15.77960
G1 X19.379 Y-11.337 E16.13912
G1 X19.863 Y-2.648 E16.50341
G1 X20.314 Y6.135 E16.87153
G1 X20.728 Y14.987 E17.24250
G1 X21.105 Y23.885 E17.61530
G1 X21.476 Y33.763 E18.02908
G1 X-1.468 Y37.587 E19.00274
G1 X-21.449 Y34.256 E19.85072
G1 X-20.430 Y28.638 E20.08976
G1 X-18.794 Y19.983 E20.45846
G1 X-11.098 Y-19.319 E22.13491
G1 X-9.442 Y-27.951 E22.50283
G1 X-7.676 Y-37.380 E22.90440
G1 X-7.331 Y-37.218 F6000.000
G1 X15.791 Y-35.512 F6000.000
G1 X10.405 Y-30.125 E23.30240 F1800.000
G1 X4.097 Y-31.815 E23.64355
G1 X-1.289 Y-26.428 E24.04155
G1 X0.401 Y-20.121 E24.38269
G1 X-4.986 Y-14.734 E24.78069
G1 X-10.835 Y-16.301 E25.09704
G1 X-8.575 Y-28.028 E25.72096
G1 X-8.041 Y-28.562 E25.76045
G1 X-1.734 Y-26.872 E26.10159
G1 X3.653 Y-32.259 E26.49959
G1 X2.490 Y-36.601 E26.73445
G1 X15.499 Y-36.601 E27.41414
G1 X15.791 Y-35.512 E27.47308
G1 X17.024 Y-34.856 F6000.000
G1 X17.480 Y-28.289 E27.81700 F1800.000
G1 X17.912 Y-21.608 E28.16675
G1 X12.983 Y-22.929 E28.43335
G1 X7.597 Y-17.542 E28.83134
G1 X9.287 Y-11.235 E29.17249
G1 X3.900 Y-5.848 E29.57049
G1 X-2.407 Y-7.538 E29.91163
G1 X-7.794 Y-2.152 E30.30963
G1 X-6.104 Y4.155 E30.65077
G1 X-11.491 Y9.542 E31.04877
G1 X-15.676 Y8.421 E31.27515
G1 X-13.255 Y-3.940 E31.93321
G1 X-8.238 Y-2.596 E32.20458
G1 X-2.852 Y-7.983 E32.60258
G1 X-4.542 Y-14.290 E32.94372
G1 X0.845 Y-19.677 E33.34172
G1 X7.152 Y-17.987 E33.68286
G1 X12.539 Y-23.373 E34.08086
G1 X10.849 Y-29.681 E34.42200
G1 X16.236 Y-35.067 E34.82000
G1 X17.024 Y-34.856 E34.86267
G1 X18.542 Y-11.288 F6000.000
G1 X18.572 Y-10.747 E34.89101 F1800.000
G1 X16.482 Y-8.657 E35.04543
G1 X18.172 Y-2.349 E35.38657
G1 X12.786 Y3.037 E35.78457
G1 X6.478 Y1.347 E36.12571
G1 X1.092 Y6.734 E36.52371
G1 X2.782 Y13.041 E36.86485
G1 X-2.605 Y18.428 E37.26285
G1 X-8.912 Y16.738 E37.60399
G1 X-14.299 Y22.125 E38.00199
G1 X-12.609 Y28.432 E38.34314
G1 X-17.996 Y33.818 E38.74114
G1 X-20.401 Y33.174 E38.87126
G1 X-19.606 Y28.790 E39.10402
G1 X-18.093 Y20.783 E39.52977
G1 X-14.743 Y21.680 E39.71093
G1 X-9.356 Y16.294 E40.10893
G1 X-11.046 Y9.986 E40.45008
G1 X-5.660 Y4.600 E40.84807
G1 X0.647 Y6.290 E41.18922
G1 X6.034 Y0.903 E41.58722
G1 X4.344 Y-5.404 E41.92836
G1 X9.731 Y-10.791 E42.32636
G1 X16.038 Y-9.101 E42.66750
G1 X18.524 Y-11.587 E42.85118
G1 X18.542 Y-11.288 E42.86682
G1 X19.069 Y-1.784 F6000.000
G1 X19.477 Y6.176 E43.28322 F1800.000
G1 X19.721 Y11.401 E43.55649
G1 X15.364 Y10.233 E43.79215
G1 X9.977 Y15.620 E44.19015
G1 X11.667 Y21.927 E44.53129
G1 X6.281 Y27.314 E44.92929
G1 X-0.026 Y25.624 E45.27043
G1 X-5.413 Y31.010 E45.66843
G1 X-3.991 Y36.316 E45.95543
G1 X-17.374 Y34.086 E46.66427
G1 X-12.165 Y28.876 E47.04920
G1 X-5.857 Y30.566 E47.39034
G1 X-0.471 Y25.179 E47.78834
G1 X-2.161 Y18.872 E48.12948
G1 X3.226 Y13.485 E48.52748
G1 X9.533 Y15.175 E48.86862
G1 X14.920 Y9.789 E49.26662
G1 X13.230 Y3.482 E49.60776
G1 X18.617 Y-1.905 E50.00576
G1 X19.069 Y-1.784 E50.03021
G1 X20.235 Y23.134 F6000.000
G1 X18.863 Y24.506 E50.13153 F1800.000
G1 X20.522 Y30.697 E50.46640
G1 X20.527 Y30.838 E50.47381
G1 X17.848 Y33.518 E50.67176
G1 X10.025 Y34.822 E51.08615
G1 X8.859 Y34.509 E51.14917
G1 X8.252 Y35.117 E51.19408
G1 X7.185 Y35.295 E51.25055
G1 X8.415 Y34.065 E51.34141
G1 X6.725 Y27.758 E51.68255
G1 X12.112 Y22.371 E52.08055
G1 X18.419 Y24.061 E52.42169
G1 X20.198 Y22.282 E52.55317
G1 X20.235 Y23.134 E52.59775
G1 X20.611 Y33.057 F6000.000
G1 X18.915 Y33.340 E52.68759 F1800.000
G1 X20.560 Y31.695 E52.80914
G1 X20.611 Y33.057 E52.88036
M106 S178.5
G1 F4800
G1 X20.560 Y31.695 E52.23278
G1 F4800
G1 X18.915 Y33.340 E51.12771
G1 F4800
G1 X20.611 Y33.057 E50.31090
G1 E49.88036 F2400.00000
G92 E0
G1 Z0.500 F6000.000
G1 X-7.302 Y-36.697 F6000.000
G1 E3.00000 F2400.00000
G1 X17.243 Y-36.697 E4.28235 F1200.000
G1 X17.824 Y-28.312 E4.72146
G1 X18.370 Y-19.879 E5.16296
G1 X18.887 Y-11.308 E5.61155
G1 X19.371 Y-2.621 E6.06610
G1 X19.822 Y6.159 E6.52543
G1 X20.236 Y15.009 E6.98831
G1 X20.613 Y23.905 E7.45348
G1 X20.967 Y33.348 E7.94719
G1 X-1.468 Y37.087 E9.13546
G1 X-20.875 Y33.852 E10.16340
G1 X-19.946 Y28.727 E10.43553
G1 X-18.310 Y20.076 E10.89555
G1 X-16.616 Y11.361 E11.35939
G1 X-11.035 Y-17.055 E12.87231
G1 X-8.958 Y-27.859 E13.44712
G1 X-7.313 Y-36.638 E13.91373
G1 X-7.711 Y-37.189 F6000.000
G1 X17.701 Y-37.189 E14.66825 F600.000
G1 X18.316 Y-28.345 E14.93149
G1 X18.862 Y-19.910 E15.18246
G1 X19.379 Y-11.337 E15.43746
G1 X19.863 Y-2.648 E15.69585
G1 X20.314 Y6.135 E15.95696
G1 X20.728 Y14.987 E16.22008
G1 X21.105 Y23.885 E16.48451
G1 X21.476 Y33.763 E16.77800
G1 X-1.468 Y37.587 E17.46862
G1 X-21.449 Y34.256 E18.07008
G1 X-20.430 Y28.638 E18.23963
G1 X-18.794 Y19.983 E18.50115
G1 X-17.099 Y11.266 E18.76481
G1 X-11.518 Y-17.149 E19.62460
G1 X-9.442 Y-27.951 E19.95121
G1 X-7.722 Y-37.130 E20.22850
G1 X-7.378 Y-36.968 F6000.000
G1 X3.491 Y-31.652 F6000.000
G1 X2.282 Y-36.163 E20.47245 F3000.000
G1 X-6.859 Y-36.163 E20.95001
G1 X-8.183 Y-29.095 E21.32570
G1 X-8.041 Y-28.562 E21.35448
G1 X-1.734 Y-26.872 E21.69563
G1 X0.238 Y-19.514 E22.09363
G1 X-4.379 Y-14.897 E22.43477
G1 X-2.407 Y-7.538 E22.83277
G1 X3.900 Y-5.848 E23.17391
G1 X5.872 Y1.510 E23.57191
G1 X1.254 Y6.127 E23.91305
G1 X3.226 Y13.485 E24.31105
G1 X9.533 Y15.175 E24.65219
G1 X11.505 Y22.534 E25.05019
G1 X6.888 Y27.151 E25.39134
G1 X8.859 Y34.509 E25.78933
G1 X9.584 Y34.704 E25.82854
G1 X18.611 Y33.199 E26.30665
G1 X20.361 Y31.449 E26.43599
G1 X20.355 Y31.288 E26.44436
G1 X18.419 Y24.061 E26.83527
G1 X12.112 Y22.371 E27.17641
G1 X10.140 Y15.013 E27.57441
G1 X14.757 Y10.396 E27.91556
G1 X12.786 Y3.037 E28.31355
G1 X6.478 Y1.347 E28.65470
G1 X4.507 Y-6.011 E29.05270
G1 X9.124 Y-10.628 E29.39384
G1 X7.152 Y-17.987 E29.79184
G1 X0.845 Y-19.677 E30.13298
G1 X-1.127 Y-27.035 E30.53098
G1 X3.491 Y-31.652 E30.87212
G1 X15.629 Y-34.905 F6000.000
G1 X15.292 Y-36.163 E30.94016 F3000.000
G1 X2.933 Y-36.163 E31.58586
G1 X4.097 Y-31.815 E31.82102
G1 X10.405 Y-30.125 E32.16216
G1 X12.376 Y-22.766 E32.56016
G1 X7.759 Y-18.149 E32.90131
G1 X9.731 Y-10.791 E33.29931
G1 X16.038 Y-9.101 E33.64045
G1 X18.010 Y-1.743 E34.03845
G1 X13.393 Y2.875 E34.37959
G1 X15.364 Y10.233 E34.77759
G1 X19.530 Y11.349 E35.00290
G1 X19.288 Y6.185 E35.27300
G1 X18.877 Y-1.835 E35.69258
G1 X18.617 Y-1.905 E35.70666
G1 X16.645 Y-9.264 E36.10466
G1 X18.370 Y-10.988 E36.23209
G1 X17.720 Y-21.660 E36.79067
G1 X12.983 Y-22.929 E37.04685
G1 X11.012 Y-30.287 E37.44485
G1 X15.629 Y-34.905 E37.78599
G1 X16.832 Y-34.908 F6000.000
G1 X16.745 Y-36.163 E37.85172 F3000.000
G1 X15.942 Y-36.163 E37.89365
G1 X16.236 Y-35.067 E37.95289
G1 X16.832 Y-34.908 E37.98513
G1 X-4.986 Y-14.734 F6000.000
G1 X-10.648 Y-16.251 E38.29139 F3000.000
G1 X-13.076 Y-3.892 E38.94943
G1 X-8.238 Y-2.596 E39.21107
G1 X-6.267 Y4.762 E39.60907
G1 X-10.884 Y9.379 E39.95022
G1 X-8.912 Y16.738 E40.34822
G1 X-2.605 Y18.428 E40.68936
G1 X-0.633 Y25.786 E41.08736
G1 X-5.251 Y30.403 E41.42850
G1 X-3.705 Y36.173 E41.74055
G1 X-1.468 Y36.546 E41.85904
G1 X7.948 Y34.976 E42.35775
G1 X8.252 Y34.672 E42.38023
G1 X6.281 Y27.314 E42.77823
G1 X-0.026 Y25.624 E43.11937
G1 X-1.998 Y18.265 E43.51737
G1 X2.619 Y13.648 E43.85852
G1 X0.647 Y6.290 E44.25651
G1 X-5.660 Y4.600 E44.59766
G1 X-7.631 Y-2.759 E44.99566
G1 X-3.014 Y-7.376 E45.33680
G1 X-4.986 Y-14.734 E45.73480
G1 X-11.491 Y9.542 F6000.000
G1 X-15.503 Y8.467 E45.95182 F3000.000
G1 X-17.910 Y20.832 E46.60994
G1 X-14.743 Y21.680 E46.78122
G1 X-12.772 Y29.039 E47.17922
G1 X-17.389 Y33.656 E47.52036
G1 X-17.322 Y33.903 E47.53374
G1 X-4.385 Y36.059 E48.21895
G1 X-5.857 Y30.566 E48.51607
G1 X-12.165 Y28.876 E48.85721
G1 X-14.136 Y21.518 E49.25521
G1 X-9.519 Y16.900 E49.59635
G1 X-11.491 Y9.542 E49.99435
G1 X-18.267 Y33.746 F6000.000
G1 X-20.218 Y33.223 E50.09989 F3000.000
G1 X-20.253 Y33.415 E50.11008
G1 X-18.267 Y33.746 E50.21528
G1 X20.079 Y23.926 F6000.000
G1 X20.035 Y22.889 E50.26949 F3000.000
G1 X19.026 Y23.899 E50.34407
G1 X20.250 Y28.465 E50.59108
G1 X20.079 Y23.926 E50.82842
M106 S183.6
G1 F4800
G1 X20.250 Y28.465 E48.67058
G1 F4800
G1 X19.872 Y27.058 E47.97842
G1 E47.82842 F2400.00000
G92 E0
G1 Z0.700 F6000.000
G1 X-7.339 Y-36.497 F6000.000
G1 E3.00000 F2400.00000
G1 X17.257 Y-36.497 E4.28501 F1200.000
G1 X17.824 Y-28.312 E4.71364
G1 X18.370 Y-19.879 E5.15514
G1 X18.887 Y-11.308 E5.60373
G1 X19.371 Y-2.621 E6.05828
G1 X19.822 Y6.159 E6.51761
G1 X20.236 Y15.009 E6.98049
G1 X20.613 Y23.905 E7.44566
G1 X20.967 Y33.348 E7.93937
G1 X-1.468 Y37.087 E9.12764
G1 X-20.875 Y33.852 E10.15558
G1 X-19.946 Y28.727 E10.42771
G1 X-18.310 Y20.076 E10.88773
G1 X-16.616 Y11.361 E11.35157
G1 X-11.035 Y-17.055 E12.86449
G1 X-8.958 Y-27.859 E13.43930
G1 X-7.350 Y-36.438 E13.89528
G1 X-7.748 Y-36.989 F6000.000
G1 X17.716 Y-36.989 E14.65133 F600.000
G1 X18.316 Y-28.345 E14.90861
G1 X18.862 Y-19.910 E15.15958
G1 X19.379 Y-11.337 E15.41459
G1 X19.863 Y-2.648 E15.67298
G1 X20.314 Y6.135 E15.93408
G1 X20.728 Y14.987 E16.19721
G1 X21.105 Y23.885 E16.46163
G1 X21.476 Y33.763 E16.75512
G1 X-1.468 Y37.587 E17.44574
G1 X-21.449 Y34.256 E18.04721
G1 X-20.430 Y28.638 E18.21675
G1 X-18.794 Y19.983 E18.47828
G1 X-17.099 Y11.266 E18.74193
G1 X-11.518 Y-17.149 E19.60173
G1 X-9.442 Y-27.951 E19.92834
G1 X-7.759 Y-36.930 E20.19958
G1 X-7.414 Y-36.768 F6000.000
G1 X10.849 Y-29.681 F6000.000
G1 X12.539 Y-23.373 E20.54073 F3000.000
G1 X17.698 Y-21.991 E20.81978
G1 X17.741 Y-21.329 E20.85444
G1 X12.376 Y-22.766 E21.14461
G1 X7.759 Y-18.149 E21.48575
G1 X0.401 Y-20.121 E21.88375
G1 X-1.289 Y-26.428 E22.22489
G1 X-8.329 Y-28.315 E22.60568
G1 X-8.213 Y-28.934 E22.63860
G1 X-1.127 Y-27.035 E23.02191
G1 X3.491 Y-31.652 E23.36305
G1 X10.849 Y-29.681 E23.76105
G1 X15.791 Y-35.512 F6000.000
G1 X16.809 Y-35.239 E23.81608 F3000.000
G1 X16.855 Y-34.576 E23.85079
G1 X15.629 Y-34.905 E23.91709
G1 X11.012 Y-30.287 E24.25823
G1 X3.653 Y-32.259 E24.65623
G1 X2.661 Y-35.963 E24.85654
G1 X15.671 Y-35.963 E25.53623
G1 X15.791 Y-35.512 E25.56063
G1 X7.597 Y-17.542 F6000.000
G1 X9.287 Y-11.235 E25.90177 F3000.000
G1 X16.645 Y-9.264 E26.29977
G1 X18.370 Y-10.988 E26.42720
G1 X18.860 Y-2.165 E26.88888
G1 X18.172 Y-2.349 E26.92608
G1 X16.482 Y-8.657 E27.26722
G1 X9.124 Y-10.628 E27.66522
G1 X4.507 Y-6.011 E28.00636
G1 X-2.852 Y-7.983 E28.40436
G1 X-4.542 Y-14.290 E28.74550
G1 X-10.709 Y-15.942 E29.07908
G1 X-10.588 Y-16.560 E29.11198
G1 X-4.379 Y-14.897 E29.44779
G1 X0.238 Y-19.514 E29.78893
G1 X7.597 Y-17.542 E30.18693
G1 X4.344 Y-5.404 F6000.000
G1 X6.034 Y0.903 E30.52807 F3000.000
G1 X13.393 Y2.875 E30.92607
G1 X18.010 Y-1.743 E31.26721
G1 X18.894 Y-1.506 E31.31503
G1 X19.288 Y6.185 E31.71735
G1 X19.514 Y11.020 E31.97023
G1 X14.920 Y9.789 E32.21874
G1 X13.230 Y3.482 E32.55988
G1 X5.872 Y1.510 E32.95788
G1 X1.254 Y6.127 E33.29902
G1 X-6.104 Y4.155 E33.69702
G1 X-7.794 Y-2.152 E34.03817
G1 X-13.136 Y-3.583 E34.32712
G1 X-13.015 Y-4.201 E34.36002
G1 X-7.631 Y-2.759 E34.65121
G1 X-3.014 Y-7.376 E34.99235
G1 X4.344 Y-5.404 E35.39035
G1 X1.092 Y6.734 F6000.000
G1 X2.782 Y13.041 E35.73150 F3000.000
G1 X10.140 Y15.013 E36.12950
G1 X14.757 Y10.396 E36.47064
G1 X19.545 Y11.679 E36.72961
G1 X20.035 Y22.889 E37.31587
G1 X19.026 Y23.899 E37.39045
G1 X11.667 Y21.927 E37.78845
G1 X9.977 Y15.620 E38.12959
G1 X2.619 Y13.648 E38.52759
G1 X-1.998 Y18.265 E38.86873
G1 X-9.356 Y16.294 E39.26673
G1 X-11.046 Y9.986 E39.60787
G1 X-15.564 Y8.776 E39.85221
G1 X-15.443 Y8.158 E39.88511
G1 X-10.884 Y9.379 E40.13168
G1 X-6.267 Y4.762 E40.47282
G1 X1.092 Y6.734 E40.87082
G1 X-2.161 Y18.872 F6000.000
G1 X-0.471 Y25.179 E41.21197 F3000.000
G1 X6.888 Y27.151 E41.60997
G1 X11.505 Y22.534 E41.95111
G1 X18.863 Y24.506 E42.34911
G1 X20.303 Y29.877 E42.63964
G1 X20.361 Y31.449 E42.72181
G1 X18.611 Y33.199 E42.85115
G1 X10.333 Y34.579 E43.28962
G1 X8.415 Y34.065 E43.39333
G1 X6.725 Y27.758 E43.73448
G1 X-0.633 Y25.786 E44.13248
G1 X-5.251 Y30.403 E44.47362
G1 X-12.609 Y28.432 E44.87162
G1 X-14.299 Y22.125 E45.21276
G1 X-17.968 Y21.141 E45.41123
G1 X-17.851 Y20.522 E45.44415
G1 X-14.136 Y21.518 E45.64508
G1 X-9.519 Y16.900 E45.98623
G1 X-2.161 Y18.872 E46.38423
G1 X-5.413 Y31.010 F6000.000
G1 X-4.045 Y36.116 E46.66038 F3000.000
G1 X-20.253 Y33.415 E47.51886
G1 X-20.162 Y32.913 E47.54551
G1 X-17.389 Y33.656 E47.69552
G1 X-12.772 Y29.039 E48.03666
G1 X-5.413 Y31.010 E48.43466
G1 X8.836 Y34.828 F6000.000
G1 X7.948 Y34.976 E48.48169 F3000.000
G1 X8.252 Y34.672 E48.50417
G1 X8.836 Y34.828 E48.53573
M106 S181.05
G1 F4800
G1 X8.252 Y34.672 E48.24879
G1 F4800
G1 X7.948 Y34.976 E48.04436
G1 F4800
G1 X8.836 Y34.828 E47.61683
G1 E45.53573 F2400.00000
G92 E0
G1 Z0.900 F6000.000
G1 X-7.376 Y-36.297 F6000.000
G1 E3.00000 F2400.00000
G1 X17.271 Y-36.297 E4.28766 F1200.000
G1 X17.824 Y-28.312 E4.70582
G1 X18.370 Y-19.879 E5.14732
G1 X18.887 Y-11.308 E5.59591
G1 X19.371 Y-2.621 E6.05046
G1 X19.822 Y6.159 E6.50979
G1 X20.236 Y15.009 E6.97267
G1 X20.613 Y23.905 E7.43784
G1 X20.967 Y33.348 E7.93155
G1 X-1.468 Y37.087 E9.11983
G1 X-20.875 Y33.852 E10.14776
G1 X-19.946 Y28.727 E10.41989
G1 X-18.310 Y20.076 E10.87991
G1 X-16.616 Y11.361 E11.34375
G1 X-11.035 Y-17.055 E12.85667
G1 X-8.958 Y-27.859 E13.43148
G1 X-7.387 Y-36.238 E13.87684
G1 X-7.785 Y-36.789 F6000.000
G1 X17.730 Y-36.789 E14.63441 F600.000
G1 X18.316 Y-28.345 E14.88574
G1 X18.862 Y-19.910 E15.13671
G1 X19.379 Y-11.337 E15.39172
G1 X19.863 Y-2.648 E15.65010
G1 X20.314 Y6.135 E15.91121
G1 X20.728 Y14.987 E16.17433
G1 X21.105 Y23.885 E16.43876
G1 X21.476 Y33.763 E16.73225
G1 X-1.468 Y37.587 E17.42287
G1 X-21.449 Y34.256 E18.02433
G1 X-20.430 Y28.638 E18.19388
G1 X-18.794 Y19.983 E18.45540
G1 X-17.099 Y11.266 E18.71906
G1 X-11.518 Y-17.149 E19.57885
G1 X-9.442 Y-27.951 E19.90546
G1 X-7.796 Y-36.730 E20.17067
G1 X-7.451 Y-36.568 F6000.000
G1 X15.791 Y-35.512 F6000.000
G1 X10.405 Y-30.125 E20.56867 F3000.000
G1 X4.097 Y-31.815 E20.90981
G1 X-1.289 Y-26.428 E21.30781
G1 X0.401 Y-20.121 E21.64895
G1 X-4.986 Y-14.734 E22.04695
