; generated by Slic3r 1.2.9 on 2016-07-17 at 16:14:41

; external perimeters extrusion width = 0.40mm
; perimeters extrusion width = 0.67mm
; infill extrusion width = 0.67mm
; solid infill extrusion width = 0.67mm
; top infill extrusion width = 0.67mm

M107
M104 S215 ; set temperature
G28 ; home all axes
G1 Y-60 Z5 F5000 ; lift nozzle


M109 S215 ; wait for temperature to be reached
G21 ; set units to millimeters
G90 ; use absolute coordinates
M82 ; use absolute distances for extrusion
G92 E0
G1 E-3.00000 F2400.00000
G92 E0
G1 Z0.300 F6000.000
G1 X-21.667 Y5.471 F6000.000
G1 E3.00000 F2400.00000
G1 X-22.741 Y1.362 E3.22191 F1800.000
G1 X-23.743 Y-2.840 E3.44760
G1 X-24.687 Y-7.194 E3.68036
G1 X-25.288 Y-10.207 E3.84087
G1 X-26.127 Y-14.802 E4.08489
G1 X-26.897 Y-19.507 E4.33397
G1 X-27.602 Y-24.370 E4.59069
G1 X-28.033 Y-27.681 E4.76517
G1 X-28.615 Y-32.749 E5.03164
G1 X-28.960 Y-36.190 E5.21233
G1 X-29.269 Y-39.707 E5.39679
G1 X-29.549 Y-43.434 E5.59207
G1 X-29.275 Y-45.283 E5.68974
G1 X-28.261 Y-46.854 E5.78741
G1 X-26.688 Y-47.865 E5.88508
G1 X-25.097 Y-48.145 E5.96947
G1 X25.182 Y-47.660 E8.59646
G1 X27.006 Y-47.247 E8.69413
G1 X28.495 Y-46.117 E8.79181
G1 X29.384 Y-44.473 E8.88948
G1 X29.557 Y-43.101 E8.96173
G1 X29.342 Y-37.231 E9.26861
G1 X29.097 Y-31.686 E9.55859
G1 X28.815 Y-26.272 E9.84179
G1 X28.494 Y-21.022 E10.11662
G1 X28.134 Y-15.929 E10.38337
G1 X27.733 Y-11.000 E10.64172
G1 X27.291 Y-6.262 E10.89034
G1 X26.804 Y-1.664 E11.13189
G1 X26.279 Y2.734 E11.36331
G1 X25.712 Y6.948 E11.58542
G1 X25.103 Y10.973 E11.79809
G1 X24.455 Y14.775 E11.99959
G1 X23.990 Y17.250 E12.13119
G1 X23.270 Y20.717 E12.31620
G1 X22.753 Y22.977 E12.43733
G1 X21.963 Y26.102 E12.60572
G1 X21.392 Y28.143 E12.71642
G1 X20.534 Y30.921 E12.86831
G1 X19.909 Y32.747 E12.96920
G1 X19.278 Y34.435 E13.06331
G1 X18.653 Y35.965 E13.14969
G1 X18.319 Y36.729 E13.19324
G1 X17.632 Y38.190 E13.27760
G1 X16.878 Y39.639 E13.36292
G1 X16.512 Y40.290 E13.40191
G1 X15.820 Y41.435 E13.47184
G1 X14.995 Y42.665 E13.54921
G1 X14.276 Y43.628 E13.61200
G1 X13.868 Y44.128 E13.64572
G1 X13.012 Y45.074 E13.71237
G1 X12.557 Y45.519 E13.74558
G1 X12.080 Y45.943 E13.77895
G1 X11.576 Y46.347 E13.81271
G1 X11.038 Y46.727 E13.84710
G1 X10.461 Y47.080 E13.88245
G1 X10.156 Y47.244 E13.90054
G1 X9.839 Y47.398 E13.91895
G1 X9.173 Y47.672 E13.95658
G1 X8.466 Y47.892 E13.99526
G1 X8.052 Y47.988 E14.01748
G1 X7.298 Y48.103 E14.05732
G1 X6.969 Y48.130 E14.07459
G1 X6.542 Y48.144 E14.09692
G1 X5.797 Y48.114 E14.13585
G1 X5.082 Y48.020 E14.17355
G1 X4.731 Y47.952 E14.19223
G1 X3.766 Y47.688 E14.24448
G1 X3.159 Y47.469 E14.27817
G1 X2.582 Y47.223 E14.31099
G1 X2.027 Y46.954 E14.34319
G1 X1.491 Y46.666 E14.37497
G1 X0.458 Y46.038 E14.43815
G1 X-0.476 Y45.397 E14.49731
G1 X-0.999 Y45.007 E14.53138
G1 X-2.134 Y44.084 E14.60784
G1 X-3.099 Y43.213 E14.67576
G1 X-3.625 Y42.704 E14.71397
G1 X-4.668 Y41.616 E14.79271
G1 X-5.752 Y40.375 E14.87880
G1 X-6.756 Y39.124 E14.96263
G1 X-7.683 Y37.881 E15.04360
G1 X-8.200 Y37.151 E15.09037
G1 X-9.218 Y35.633 E15.18585
G1 X-10.185 Y34.090 E15.28096
G1 X-11.109 Y32.516 E15.37634
G1 X-11.584 Y31.671 E15.42699
G1 X-12.521 Y29.917 E15.53089
G1 X-13.443 Y28.082 E15.63820
G1 X-14.370 Y26.121 E15.75149
G1 X-15.677 Y23.142 E15.92144
G1 X-16.541 Y21.028 E16.04080
G1 X-17.402 Y18.796 E16.16578
G1 X-18.228 Y16.526 E16.29198
G1 X-19.035 Y14.179 E16.42164
G1 X-19.822 Y11.756 E16.55472
G1 X-20.587 Y9.259 E16.69118
G1 X-21.651 Y5.529 E16.89381
G1 F4800
G1 X-22.741 Y1.362 E14.84774
G1 F4800
G1 X-23.134 Y-0.285 E14.04381
G1 E13.89381 F2400.00000
G92 E0
G1 X3.760 Y19.999 F6000.000
G1 E3.00000 F2400.00000
G1 X4.766 Y19.446 E3.06000 F1800.000
G1 X5.878 Y19.160 E3.12001
G1 X7.027 Y19.160 E3.18001
G1 X8.087 Y19.433 E3.23721
G1 X9.146 Y19.999 E3.29994
G1 X10.012 Y20.831 E3.36267
G1 X10.598 Y21.755 E3.41987
G1 X10.954 Y22.851 E3.48006
G1 X11.015 Y24.047 E3.54260
G1 X10.810 Y25.122 E3.59981
G1 X10.321 Y26.161 E3.65981
G1 X9.589 Y27.046 E3.71981
G1 X8.703 Y27.690 E3.77702
G1 X7.596 Y28.144 E3.83956
G1 X6.453 Y28.288 E3.89975
G1 X5.310 Y28.144 E3.95993
G1 X4.202 Y27.690 E4.02248
G1 X3.316 Y27.046 E4.07968
G1 X2.584 Y26.161 E4.13969
G1 X2.095 Y25.122 E4.19969
G1 X1.880 Y23.994 E4.25969
G1 X1.952 Y22.848 E4.31970
G1 X2.307 Y21.755 E4.37970
G1 X2.922 Y20.786 E4.43971
G1 X3.716 Y20.040 E4.49658
G1 X3.983 Y20.307 F6000.000
G1 X4.906 Y19.800 E4.54066 F1800.000
G1 X5.926 Y19.538 E4.58475
G1 X6.979 Y19.538 E4.62884
G1 X7.950 Y19.787 E4.67077
G1 X8.922 Y20.307 E4.71695
G1 X9.718 Y21.071 E4.76312
G1 X10.254 Y21.917 E4.80506
G1 X10.580 Y22.920 E4.84920
G1 X10.636 Y24.020 E4.89532
G1 X10.449 Y25.005 E4.93726
G1 X10.000 Y25.958 E4.98135
G1 X9.329 Y26.769 E5.02543
G1 X8.518 Y27.358 E5.06737
G1 X7.499 Y27.776 E5.11349
G1 X6.453 Y27.908 E5.15763
G1 X5.407 Y27.776 E5.20177
G1 X4.387 Y27.358 E5.24789
G1 X3.576 Y26.769 E5.28983
G1 X2.905 Y25.958 E5.33392
G1 X2.457 Y25.005 E5.37801
G1 X2.259 Y23.970 E5.42209
G1 X2.325 Y22.919 E5.46618
G1 X2.651 Y21.917 E5.51027
G1 X3.215 Y21.028 E5.55435
G1 X3.939 Y20.348 E5.59593
G1 X3.958 Y19.908 F6000.000
G1 X24.538 Y-42.556 F6000.000
G1 X24.423 Y-39.294 E5.76648 F1800.000
G1 X24.192 Y-33.739 E6.05692
G1 X23.924 Y-28.330 E6.33989
G1 X23.725 Y-24.809 E6.52414
G1 X23.395 Y-19.657 E6.79385
G1 X23.153 Y-16.315 E6.96889
G1 X22.756 Y-11.442 E7.22433
G1 X22.469 Y-8.292 E7.38959
G1 X22.164 Y-5.222 E7.55077
G1 X21.673 Y-0.769 E7.78484
G1 X21.143 Y3.496 E8.00935
G1 X20.768 Y6.229 E8.15349
G1 X20.172 Y10.168 E8.36161
G1 X19.752 Y12.679 E8.49462
G1 X19.315 Y15.099 E8.62313
G1 X18.860 Y17.427 E8.74705
G1 X18.387 Y19.661 E8.86634
G1 X17.897 Y21.800 E8.98097
G1 X17.391 Y23.841 E9.09085
G1 X16.601 Y26.726 E9.24714
G1 X16.058 Y28.522 E9.34518
G1 X15.214 Y31.037 E9.48374
G1 X14.341 Y33.325 E9.61171
G1 X13.745 Y34.719 E9.69092
G1 X13.134 Y36.014 E9.76571
G1 X12.829 Y36.617 E9.80101
G1 X12.203 Y37.761 E9.86914
G1 X11.893 Y38.287 E9.90105
G1 X11.263 Y39.279 E9.96243
G1 X10.632 Y40.171 E10.01951
G1 X10.325 Y40.570 E10.04581
G1 X9.700 Y41.306 E10.09627
G1 X9.403 Y41.619 E10.11879
G1 X8.801 Y42.173 E10.16155
G1 X8.216 Y42.604 E10.19952
G1 X7.671 Y42.897 E10.23184
G1 X7.401 Y43.001 E10.24696
G1 X7.133 Y43.077 E10.26154
G1 X6.863 Y43.126 E10.27584
G1 X6.590 Y43.148 E10.29018
G1 X6.309 Y43.144 E10.30486
G1 X6.017 Y43.112 E10.32019
G1 X5.712 Y43.053 E10.33642
G1 X5.402 Y42.967 E10.35325
G1 X4.715 Y42.704 E10.39166
G1 X3.989 Y42.339 E10.43410
G1 X3.221 Y41.875 E10.48101
G1 X2.416 Y41.322 E10.53203
G1 X1.583 Y40.681 E10.58691
G1 X0.728 Y39.948 E10.64575
G1 X0.302 Y39.554 E10.67611
G1 X-0.572 Y38.682 E10.74059
G1 X-1.451 Y37.718 E10.80873
G1 X-2.338 Y36.659 E10.88090
G1 X-2.779 Y36.100 E10.91809
G1 X-3.650 Y34.932 E10.99422
G1 X-4.115 Y34.274 E11.03634
G1 X-5.009 Y32.941 E11.12019
G1 X-5.451 Y32.249 E11.16310
G1 X-6.782 Y30.019 E11.29880
G1 X-8.097 Y27.595 E11.44286
G1 X-9.392 Y24.976 E11.59550
G1 X-10.663 Y22.165 E11.75667
G1 X-11.905 Y19.165 E11.92632
G1 X-13.116 Y15.980 E12.10435
G1 X-14.291 Y12.613 E12.29062
G1 X-15.425 Y9.069 E12.48503
G1 X-16.516 Y5.352 E12.68740
G1 X-17.560 Y1.468 E12.89754
G1 X-18.555 Y-2.579 E13.11527
G1 X-19.496 Y-6.783 E13.34034
G1 X-20.379 Y-11.139 E13.57254
G1 X-21.202 Y-15.640 E13.81163
G1 X-21.961 Y-20.282 E14.05737
G1 X-22.430 Y-23.450 E14.22467
G1 X-22.869 Y-26.675 E14.39473
G1 X-23.275 Y-29.956 E14.56741
G1 X-23.648 Y-33.288 E14.74261
G1 X-23.987 Y-36.671 E14.92021
G1 X-24.288 Y-40.101 E15.10012
G1 X-24.509 Y-43.036 E15.25387
G1 X1.453 Y-38.709 E16.62895
G1 X24.479 Y-42.546 E17.84855
G1 X24.931 Y-43.004 F6000.000
G1 X24.800 Y-39.279 E18.00457 F1800.000
G1 X24.569 Y-33.722 E18.23739
G1 X24.301 Y-28.310 E18.46424
G1 X24.102 Y-24.786 E18.61198
G1 X23.771 Y-19.631 E18.82820
G1 X23.529 Y-16.286 E18.96859
G1 X23.132 Y-11.410 E19.17340
G1 X22.844 Y-8.256 E19.30595
G1 X22.539 Y-5.183 E19.43524
G1 X22.047 Y-0.725 E19.62298
G1 X21.517 Y3.545 E19.80308
G1 X21.141 Y6.283 E19.91878
G1 X20.544 Y10.227 E20.08576
G1 X20.124 Y12.744 E20.19256
G1 X19.686 Y15.169 E20.29574
G1 X19.230 Y17.503 E20.39527
G1 X18.756 Y19.742 E20.49110
G1 X18.264 Y21.887 E20.58322
G1 X17.756 Y23.936 E20.67159
G1 X16.964 Y26.831 E20.79721
G1 X16.417 Y28.637 E20.87621
G1 X15.570 Y31.164 E20.98779
G1 X14.691 Y33.467 E21.09096
G1 X14.089 Y34.874 E21.15502
G1 X13.473 Y36.180 E21.21546
G1 X13.162 Y36.793 E21.24422
G1 X12.531 Y37.947 E21.29930
G1 X12.215 Y38.484 E21.32540
G1 X11.576 Y39.489 E21.37522
G1 X10.936 Y40.395 E21.42166
G1 X10.619 Y40.807 E21.44344
G1 X9.981 Y41.558 E21.48469
G1 X9.668 Y41.888 E21.50370
G1 X9.041 Y42.465 E21.53936
G1 X8.424 Y42.919 E21.57145
G1 X8.123 Y43.096 E21.58605
G1 X7.822 Y43.243 E21.60010
G1 X7.520 Y43.359 E21.61362
G1 X7.218 Y43.445 E21.62679
G1 X6.912 Y43.500 E21.63978
G1 X6.602 Y43.526 E21.65281
G1 X6.285 Y43.521 E21.66607
G1 X5.960 Y43.486 E21.67976
G1 X5.626 Y43.420 E21.69404
G1 X5.284 Y43.326 E21.70888
G1 X4.562 Y43.050 E21.74122
G1 X3.807 Y42.669 E21.77662
G1 X3.016 Y42.192 E21.81528
G1 X2.193 Y41.627 E21.85706
G1 X1.345 Y40.974 E21.90187
G1 X0.477 Y40.230 E21.94973
G1 X0.040 Y39.826 E21.97465
G1 X-0.845 Y38.943 E22.02698
G1 X-1.735 Y37.967 E22.08228
G1 X-2.630 Y36.897 E22.14067
G1 X-3.078 Y36.330 E22.17091
G1 X-3.955 Y35.154 E22.23232
G1 X-4.426 Y34.488 E22.26646
G1 X-5.325 Y33.148 E22.33403
G1 X-5.772 Y32.447 E22.36882
G1 X-7.110 Y30.205 E22.47811
G1 X-8.432 Y27.768 E22.59416
G1 X-9.733 Y25.137 E22.71703
G1 X-11.009 Y22.315 E22.84670
G1 X-12.256 Y19.304 E22.98311
G1 X-13.471 Y16.109 E23.12620
G1 X-14.648 Y12.733 E23.27587
G1 X-15.786 Y9.180 E23.43203
G1 X-16.879 Y5.455 E23.59455
G1 X-17.926 Y1.562 E23.76327
G1 X-18.922 Y-2.493 E23.93806
G1 X-19.865 Y-6.704 E24.11872
G1 X-20.750 Y-11.067 E24.30508
G1 X-21.574 Y-15.576 E24.49694
G1 X-22.334 Y-20.224 E24.69410
G1 X-22.804 Y-23.397 E24.82836
G1 X-23.243 Y-26.627 E24.96480
G1 X-23.650 Y-29.911 E25.10335
G1 X-24.024 Y-33.248 E25.24391
G1 X-24.362 Y-36.635 E25.38640
G1 X-24.665 Y-40.070 E25.53074
G1 X-24.921 Y-43.487 E25.67416
G1 X1.453 Y-39.091 E26.79341
G1 X24.872 Y-42.994 E27.78728
G1 X24.742 Y-42.652 F6000.000
G1 X19.529 Y-38.870 F6000.000
G1 X21.219 Y-32.562 E28.12842 F1800.000
G1 X15.833 Y-27.176 E28.52642
G1 X9.526 Y-28.866 E28.86757
G1 X4.139 Y-23.479 E29.26557
G1 X5.829 Y-17.172 E29.60671
G1 X0.442 Y-11.785 E30.00471
G1 X-5.865 Y-13.475 E30.34585
G1 X-11.252 Y-8.088 E30.74385
G1 X-9.562 Y-1.781 E31.08499
G1 X-14.948 Y3.606 E31.48299
G1 X-16.629 Y3.155 E31.57391
G1 X-17.114 Y1.353 E31.67140
G1 X-18.106 Y-2.684 E31.88861
G1 X-19.045 Y-6.879 E32.11320
G1 X-19.433 Y-8.793 E32.21520
G1 X-18.003 Y-10.223 E32.32086
G1 X-11.696 Y-8.533 E32.66201
G1 X-6.309 Y-13.919 E33.06001
G1 X-7.999 Y-20.227 E33.40115
G1 X-2.613 Y-25.613 E33.79915
G1 X3.695 Y-23.923 E34.14029
G1 X9.081 Y-29.310 E34.53829
G1 X7.391 Y-35.617 E34.87943
G1 X11.728 Y-39.954 E35.19987
G1 X14.791 Y-40.465 E35.36208
G1 X19.085 Y-39.314 E35.59435
G1 X21.325 Y-41.554 E35.75983
G1 X22.391 Y-41.731 E35.81631
G1 X19.529 Y-38.870 E36.02775
G1 X23.624 Y-31.593 F6000.000
G1 X23.265 Y-24.836 E36.38123 F1800.000
G1 X22.870 Y-18.785 E36.69804
G1 X18.411 Y-19.980 E36.93919
G1 X13.025 Y-14.593 E37.33719
G1 X14.715 Y-8.286 E37.67833
G1 X9.328 Y-2.899 E38.07633
G1 X3.021 Y-4.589 E38.41747
G1 X-2.366 Y0.797 E38.81547
G1 X-0.676 Y7.105 E39.15661
G1 X-6.063 Y12.491 E39.55461
G1 X-12.370 Y10.801 E39.89576
G1 X-13.898 Y12.329 E40.00864
G1 X-14.113 Y11.656 E40.04557
G1 X-12.814 Y10.357 E40.14154
G1 X-14.504 Y4.050 E40.48268
G1 X-9.117 Y-1.337 E40.88068
G1 X-2.810 Y0.353 E41.22183
G1 X2.576 Y-5.034 E41.61983
G1 X0.886 Y-11.341 E41.96097
G1 X6.273 Y-16.727 E42.35897
G1 X12.580 Y-15.037 E42.70011
G1 X17.967 Y-20.424 E43.09811
G1 X16.277 Y-26.731 E43.43925
G1 X21.664 Y-32.118 E43.83725
G1 X23.624 Y-31.593 E43.94329
G1 X6.947 Y-36.061 F6000.000
G1 X0.640 Y-37.751 E44.28443 F1800.000
G1 X-4.747 Y-32.365 E44.68243
G1 X-3.057 Y-26.058 E45.02357
G1 X-8.444 Y-20.671 E45.42157
G1 X-14.751 Y-22.361 E45.76271
G1 X-20.137 Y-16.974 E46.16071
G1 X-18.447 Y-10.667 E46.50186
G1 X-19.583 Y-9.531 E46.58577
G1 X-19.927 Y-11.226 E46.67611
G1 X-20.748 Y-15.719 E46.91474
G1 X-21.046 Y-17.543 E47.01130
G1 X-20.582 Y-17.418 E47.03643
G1 X-15.195 Y-22.805 E47.43443
G1 X-16.885 Y-29.112 E47.77557
G1 X-11.498 Y-34.499 E48.17357
G1 X-5.191 Y-32.809 E48.51471
G1 X0.196 Y-38.196 E48.91271
G1 X0.124 Y-38.463 E48.92717
G1 X1.453 Y-38.241 E48.99754
G1 X10.662 Y-39.776 E49.48532
G1 X6.947 Y-36.061 E49.75980
G1 X-13.494 Y-40.733 F6000.000
G1 X-11.943 Y-34.943 E50.07293 F1800.000
G1 X-17.329 Y-29.557 E50.47093
G1 X-22.935 Y-31.059 E50.77413
G1 X-23.190 Y-33.337 E50.89389
G1 X-23.528 Y-36.714 E51.07121
G1 X-23.813 Y-39.956 E51.24123
G1 X-21.673 Y-42.096 E51.39935
G1 X-13.494 Y-40.733 E51.83257
G1 X-22.435 Y-42.223 F6000.000
G1 X-23.877 Y-40.780 E51.93917 F1800.000
G1 X-24.006 Y-42.485 E52.02847
G1 X-22.435 Y-42.223 E52.11167
G1 X21.466 Y-6.152 F6000.000
G1 X21.829 Y-6.515 E52.13850 F1800.000
G1 X21.215 Y-0.822 E52.43761
G1 X20.673 Y3.527 E52.66659
G1 X18.214 Y5.986 E52.84833
G1 X11.907 Y4.296 E53.18947
G1 X6.520 Y9.683 E53.58747
G1 X8.210 Y15.990 E53.92862
G1 X5.390 Y18.810 E54.13696
G1 X4.595 Y19.014 E54.17984
G1 X3.487 Y19.624 E54.24593
G1 X2.564 Y20.490 E54.31201
G1 X2.121 Y21.189 E54.35528
G1 X-3.484 Y19.687 E54.65843
G1 X-8.843 Y25.046 E55.05440
G1 X-9.128 Y24.442 E55.08929
G1 X-3.928 Y19.243 E55.47345
G1 X-5.618 Y12.936 E55.81459
G1 X-0.232 Y7.549 E56.21259
G1 X6.076 Y9.239 E56.55373
G1 X11.462 Y3.852 E56.95173
G1 X9.772 Y-2.455 E57.29287
G1 X15.159 Y-7.842 E57.69087
G1 X21.466 Y-6.152 E58.03202
G1 X20.312 Y6.163 F6000.000
G1 X19.687 Y10.272 E58.24915 F1800.000
G1 X18.658 Y6.431 E58.45692
G1 X20.532 Y4.557 E58.59540
G1 X20.312 Y6.163 E58.68013
G1 X18.862 Y15.014 F6000.000
G1 X18.838 Y15.136 E58.68662 F1800.000
G1 X15.406 Y18.569 E58.94025
G1 X16.865 Y24.017 E59.23493
G1 X16.455 Y25.517 E59.31618
G1 X11.709 Y30.263 E59.66682
G1 X5.733 Y28.661 E59.99007
G1 X6.453 Y28.752 E60.02799
G1 X7.714 Y28.593 E60.09440
G1 X8.929 Y28.095 E60.16303
G1 X9.907 Y27.385 E60.22617
G1 X10.713 Y26.410 E60.29226
G1 X11.252 Y25.266 E60.35834
G1 X11.478 Y24.078 E60.42148
G1 X11.411 Y22.767 E60.49011
G1 X11.019 Y21.558 E60.55652
G1 X10.371 Y20.537 E60.61966
G1 X9.420 Y19.622 E60.68862
G1 X8.256 Y19.000 E60.75757
G1 X7.085 Y18.700 E60.82071
G1 X6.389 Y18.700 E60.85708
G1 X8.654 Y16.435 E61.02444
G1 X14.961 Y18.125 E61.36558
G1 X19.037 Y14.049 E61.66668
G1 X18.862 Y15.014 E61.71791
G1 X15.619 Y28.382 F6000.000
G1 X14.780 Y30.882 E61.85562 F1800.000
G1 X13.914 Y33.153 E61.98261
G1 X13.231 Y34.729 E62.07237
G1 X12.153 Y30.707 E62.28991
G1 X16.114 Y26.747 E62.58254
G1 X15.619 Y28.382 E62.67184
G1 X5.191 Y28.593 F6000.000
G1 X5.360 Y28.614 E62.68072 F1800.000
G1 X0.015 Y33.960 E63.07564
G1 X1.674 Y40.152 E63.41059
G1 X1.035 Y39.604 E63.45460
G1 X0.621 Y39.221 E63.48404
G1 X-0.239 Y38.363 E63.54751
G1 X-1.104 Y37.415 E63.61457
G1 X-1.980 Y36.369 E63.68587
G1 X-2.413 Y35.820 E63.72238
G1 X-3.277 Y34.661 E63.79789
G1 X-3.736 Y34.013 E63.83940
G1 X-4.852 Y32.330 E63.94490
G1 X-0.429 Y33.515 E64.18413
G1 X4.696 Y28.390 E64.56281
G1 X5.191 Y28.593 E64.59079
G1 X7.898 Y42.251 F6000.000
G1 X7.478 Y42.478 E64.61571 F1800.000
G1 X7.255 Y42.564 E64.62821
G1 X6.803 Y42.669 E64.65245
G1 X6.337 Y42.684 E64.67681
G1 X5.818 Y42.604 E64.70426
G1 X5.545 Y42.529 E64.71902
G1 X4.901 Y42.282 E64.75505
G1 X4.212 Y41.935 E64.79535
G1 X3.470 Y41.488 E64.84063
G1 X2.499 Y40.805 E64.90267
G1 X7.898 Y42.251 E65.19471
M106 S135.15
G1 F4800
G1 X2.499 Y40.805 E62.53952
G1 F4800
G1 X2.834 Y41.041 E62.34471
G1 E62.19471 F2400.00000
G92 E0
G1 Z0.500 F6000.000
G1 X8.182 Y19.338 F6000.000
G1 E3.00000 F2400.00000
G1 X9.214 Y19.905 E3.06153 F1800.000
G1 X10.073 Y20.711 E3.12306
G1 X10.704 Y21.706 E3.18458
G1 X11.068 Y22.826 E3.24611
G1 X11.142 Y24.001 E3.30764
G1 X10.921 Y25.158 E3.36917
G1 X10.419 Y26.224 E3.43069
G1 X9.669 Y27.131 E3.49222
G1 X8.716 Y27.823 E3.55375
G1 X7.621 Y28.257 E3.61528
G1 X6.453 Y28.404 E3.67681
G1 X5.284 Y28.257 E3.73833
G1 X4.189 Y27.823 E3.79986
G1 X3.236 Y27.131 E3.86139
G1 X2.486 Y26.224 E3.92292
