; generated by Slic3r 1.2.9 on 2016-07-16 at 19:32:33

; external perimeters extrusion width = 0.40mm
; perimeters extrusion width = 0.67mm
; infill extrusion width = 0.67mm
; solid infill extrusion width = 0.67mm
; top infill extrusion width = 0.67mm

M107
M104 S215 ; set temperature
G28 ; home all axes
G1 Y60 Z5 F5000 ; lift nozzle


M109 S215 ; wait for temperature to be reached
G21 ; set units to millimeters
G90 ; use absolute coordinates
M82 ; use absolute distances for extrusion
G92 E0
G1 E-3.00000 F2400.00000
G92 E0
G1 Z0.300 F6000.000
G1 X-1.684 Y-10.134 F6000.000
G1 E3.00000 F2400.00000
G1 X6.031 Y-11.032 E3.40575 F1800.000
G1 X12.577 Y-11.742 E3.74979
G1 X21.165 Y-12.608 E4.20071
G1 X29.624 Y-13.401 E4.64461
G1 X30.024 Y-13.419 E4.66553
G1 X37.524 Y-13.412 E5.05738
G1 X38.532 Y-13.355 E5.11011
G1 X39.024 Y-13.300 E5.13600
G1 X40.020 Y-13.131 E5.18873
G1 X40.503 Y-13.021 E5.21462
G1 X41.473 Y-12.741 E5.26735
G1 X41.940 Y-12.577 E5.29324
G1 X42.873 Y-12.191 E5.34597
G1 X43.319 Y-11.976 E5.37186
G1 X44.203 Y-11.488 E5.42459
G1 X44.622 Y-11.224 E5.45047
G1 X45.445 Y-10.640 E5.50320
G1 X45.833 Y-10.331 E5.52910
G1 X46.585 Y-9.659 E5.58182
G1 X46.936 Y-9.308 E5.60771
G1 X47.608 Y-8.556 E5.66044
G1 X47.917 Y-8.169 E5.68633
G1 X48.501 Y-7.345 E5.73906
G1 X48.765 Y-6.926 E5.76494
G1 X49.253 Y-6.042 E5.81767
G1 X49.468 Y-5.596 E5.84356
G1 X49.854 Y-4.664 E5.89630
G1 X50.018 Y-4.196 E5.92219
G1 X50.297 Y-3.226 E5.97492
G1 X50.407 Y-2.743 E6.00080
G1 X50.577 Y-1.748 E6.05353
G1 X50.632 Y-1.255 E6.07942
G1 X50.689 Y-0.248 E6.13215
G1 X50.689 Y0.248 E6.15804
G1 X50.632 Y1.255 E6.21077
G1 X50.577 Y1.748 E6.23666
G1 X50.407 Y2.743 E6.28939
G1 X50.297 Y3.226 E6.31527
G1 X50.018 Y4.196 E6.36800
G1 X49.854 Y4.664 E6.39390
G1 X49.468 Y5.596 E6.44662
G1 X49.253 Y6.042 E6.47252
G1 X48.765 Y6.926 E6.52525
G1 X48.501 Y7.345 E6.55112
G1 X47.917 Y8.169 E6.60386
G1 X47.608 Y8.556 E6.62974
G1 X46.936 Y9.308 E6.68248
G1 X46.585 Y9.659 E6.70837
G1 X45.833 Y10.331 E6.76109
G1 X45.445 Y10.640 E6.78699
G1 X44.622 Y11.224 E6.83972
G1 X44.203 Y11.488 E6.86560
G1 X43.319 Y11.976 E6.91834
G1 X42.873 Y12.191 E6.94422
G1 X41.940 Y12.577 E6.99695
G1 X41.473 Y12.741 E7.02284
G1 X40.503 Y13.021 E7.07557
G1 X40.020 Y13.131 E7.10146
G1 X39.024 Y13.300 E7.15419
G1 X38.532 Y13.355 E7.18008
G1 X37.277 Y13.419 E7.24575
G1 X27.731 Y13.419 E7.74445
G1 X27.374 Y13.404 E7.76313
G1 X-46.634 Y7.404 E11.64235
G1 X-48.423 Y6.863 E11.74002
G1 X-49.828 Y5.629 E11.83770
G1 X-50.598 Y3.926 E11.93537
G1 X-50.594 Y2.056 E12.03304
G1 X-49.817 Y0.355 E12.13071
G1 X-48.407 Y-0.872 E12.22839
G1 X-47.505 Y-1.245 E12.27935
G1 X-39.220 Y-3.642 E12.72995
G1 X-36.215 Y-4.461 E12.89270
G1 X-34.576 Y-4.871 E12.98094
G1 X-32.839 Y-5.279 E13.07418
G1 X-31.001 Y-5.681 E13.17246
G1 X-29.098 Y-6.068 E13.27394
G1 X-24.949 Y-6.830 E13.49430
G1 X-20.415 Y-7.575 E13.73439
G1 X-14.246 Y-8.494 E14.06023
G1 X-8.876 Y-9.227 E14.34338
G1 X-1.743 Y-10.127 E14.71899
G1 F4800
G1 X4.217 Y-10.821 E11.86899
G1 E11.71899 F2400.00000
G92 E0
G1 X32.368 Y-1.315 F6000.000
G1 E3.00000 F2400.00000
G1 X32.875 Y-2.541 E3.06932 F1800.000
G1 X33.683 Y-3.594 E3.13863
G1 X34.736 Y-4.401 E3.20794
G1 X35.961 Y-4.909 E3.27726
G1 X37.143 Y-5.065 E3.33954
G1 X37.277 Y-5.082 E3.34657
G1 X38.592 Y-4.909 E3.41589
G1 X39.818 Y-4.401 E3.48520
G1 X40.870 Y-3.594 E3.55452
G1 X41.678 Y-2.541 E3.62383
G1 X42.186 Y-1.315 E3.69315
G1 X42.359 Y0.000 E3.76246
G1 X42.186 Y1.315 E3.83178
G1 X41.678 Y2.541 E3.90109
G1 X40.870 Y3.594 E3.97041
G1 X39.818 Y4.401 E4.03972
G1 X38.592 Y4.909 E4.10904
G1 X37.277 Y5.082 E4.17835
G1 X35.961 Y4.909 E4.24767
G1 X34.736 Y4.401 E4.31698
G1 X33.683 Y3.594 E4.38630
G1 X32.875 Y2.541 E4.45561
G1 X32.368 Y1.315 E4.52493
G1 X32.194 Y0.000 E4.59424
G1 X32.360 Y-1.256 E4.66042
G1 X32.735 Y-1.217 F6000.000
G1 X33.205 Y-2.351 E4.71180 F1800.000
G1 X33.952 Y-3.325 E4.76318
G1 X34.926 Y-4.072 E4.81456
G1 X36.060 Y-4.542 E4.86594
G1 X37.192 Y-4.691 E4.91376
G1 X37.277 Y-4.702 E4.91732
G1 X38.494 Y-4.542 E4.96870
G1 X39.628 Y-4.072 E5.02008
G1 X40.601 Y-3.325 E5.07145
G1 X41.349 Y-2.351 E5.12283
G1 X41.818 Y-1.217 E5.17421
G1 X41.978 Y0.000 E5.22559
G1 X41.818 Y1.217 E5.27697
G1 X41.349 Y2.351 E5.32835
G1 X40.601 Y3.325 E5.37973
G1 X39.628 Y4.072 E5.43111
G1 X38.494 Y4.542 E5.48249
G1 X37.277 Y4.702 E5.53387
G1 X36.060 Y4.542 E5.58525
G1 X34.926 Y4.072 E5.63663
G1 X33.952 Y3.325 E5.68801
G1 X33.205 Y2.351 E5.73939
G1 X32.735 Y1.217 E5.79076
G1 X32.575 Y0.000 E5.84214
G1 X32.727 Y-1.157 E5.89101
G1 X32.465 Y-1.512 F6000.000
G1 X-40.076 Y2.046 F6000.000
G1 X-40.111 Y1.828 E5.90252 F1800.000
G1 X-38.492 Y1.348 E5.99075
G1 X-36.456 Y0.773 E6.10127
G1 X-33.412 Y-0.012 E6.26548
G1 X-30.880 Y-0.597 E6.40128
G1 X-28.122 Y-1.168 E6.54840
G1 X-24.087 Y-1.908 E6.76274
G1 X-19.647 Y-2.638 E6.99785
G1 X-14.808 Y-3.367 E7.25349
G1 X-10.930 Y-3.911 E7.45810
G1 X-6.845 Y-4.454 E7.67339
G1 X-2.559 Y-4.994 E7.89905
G1 X6.590 Y-6.067 E8.38035
G1 X11.439 Y-6.597 E8.63521
G1 X21.651 Y-7.636 E9.17144
G1 X30.051 Y-8.423 E9.61224
G1 X37.311 Y-8.420 E9.99152
G1 X38.220 Y-8.369 E10.03908
G1 X39.151 Y-8.211 E10.08842
G1 X40.058 Y-7.949 E10.13776
G1 X40.931 Y-7.588 E10.18711
G1 X41.757 Y-7.131 E10.23645
G1 X42.528 Y-6.584 E10.28579
G1 X43.232 Y-5.955 E10.33513
G1 X43.861 Y-5.251 E10.38447
G1 X44.408 Y-4.481 E10.43382
G1 X44.865 Y-3.654 E10.48316
G1 X45.226 Y-2.782 E10.53250
G1 X45.487 Y-1.874 E10.58184
G1 X45.646 Y-0.943 E10.63118
G1 X45.699 Y-0.000 E10.68052
G1 X45.646 Y0.943 E10.72987
G1 X45.487 Y1.874 E10.77921
G1 X45.226 Y2.782 E10.82855
G1 X44.865 Y3.654 E10.87789
G1 X44.408 Y4.481 E10.92723
G1 X43.861 Y5.251 E10.97658
G1 X43.232 Y5.955 E11.02592
G1 X42.528 Y6.584 E11.07526
G1 X41.757 Y7.131 E11.12460
G1 X40.931 Y7.588 E11.17394
G1 X40.058 Y7.949 E11.22328
G1 X39.151 Y8.211 E11.27263
G1 X38.220 Y8.369 E11.32197
G1 X37.261 Y8.423 E11.37216
G1 X27.776 Y8.423 E11.86769
G1 X21.849 Y7.507 E12.18100
G1 X14.479 Y6.427 E12.57016
G1 X9.144 Y5.692 E12.85152
G1 X2.313 Y4.813 E13.21137
G1 X-2.587 Y4.232 E13.46913
G1 X-8.795 Y3.563 E13.79533
G1 X-14.611 Y3.015 E14.10058
G1 X-20.015 Y2.586 E14.38376
G1 X-23.782 Y2.340 E14.58099
G1 X-27.290 Y2.160 E14.76452
G1 X-30.529 Y2.042 E14.93386
G1 X-34.408 Y1.971 E15.13654
G1 X-37.765 Y1.985 E15.31194
G1 X-40.016 Y2.044 E15.42958
G1 X-43.254 Y2.368 F6000.000
G1 X-38.597 Y0.986 E15.63297 F1800.000
G1 X-36.554 Y0.408 E15.72180
G1 X-33.502 Y-0.379 E15.85376
G1 X-30.960 Y-0.965 E15.96294
G1 X-28.195 Y-1.538 E16.08118
G1 X-24.152 Y-2.280 E16.25324
G1 X-19.705 Y-3.011 E16.44187
G1 X-14.862 Y-3.740 E16.64689
G1 X-10.981 Y-4.285 E16.81096
G1 X-6.893 Y-4.828 E16.98357
G1 X-2.605 Y-5.368 E17.16447
G1 X1.877 Y-5.907 E17.35347
G1 X6.548 Y-6.442 E17.55028
G1 X11.400 Y-6.973 E17.75458
G1 X21.614 Y-8.011 E18.18435
G1 X30.033 Y-8.800 E18.53834
G1 X37.321 Y-8.797 E18.84341
G1 X38.262 Y-8.744 E18.88285
G1 X39.235 Y-8.579 E18.92415
G1 X40.183 Y-8.306 E18.96546
G1 X41.095 Y-7.928 E19.00677
G1 X41.958 Y-7.451 E19.04808
G1 X42.763 Y-6.880 E19.08939
G1 X43.499 Y-6.222 E19.13069
G1 X44.157 Y-5.487 E19.17200
G1 X44.728 Y-4.682 E19.21331
G1 X45.205 Y-3.818 E19.25462
G1 X45.583 Y-2.906 E19.29593
G1 X45.856 Y-1.958 E19.33723
G1 X46.021 Y-0.985 E19.37854
G1 X46.076 Y-0.000 E19.41985
G1 X46.021 Y0.985 E19.46116
G1 X45.856 Y1.958 E19.50247
G1 X45.583 Y2.906 E19.54377
G1 X45.205 Y3.818 E19.58508
G1 X44.728 Y4.682 E19.62639
G1 X44.157 Y5.487 E19.66770
G1 X43.499 Y6.222 E19.70901
G1 X42.763 Y6.880 E19.75031
G1 X41.958 Y7.451 E19.79162
G1 X41.095 Y7.928 E19.83293
G1 X40.183 Y8.306 E19.87424
G1 X39.235 Y8.579 E19.91554
G1 X38.262 Y8.744 E19.95685
G1 X37.271 Y8.800 E19.99840
G1 X27.747 Y8.800 E20.39709
G1 X21.793 Y7.880 E20.64927
G1 X14.426 Y6.801 E20.96095
G1 X9.094 Y6.066 E21.18625
G1 X2.266 Y5.188 E21.47442
G1 X-2.629 Y4.607 E21.68079
G1 X-8.832 Y3.939 E21.94196
G1 X-14.644 Y3.391 E22.18631
G1 X-20.042 Y2.962 E22.41298
G1 X-23.804 Y2.717 E22.57078
G1 X-27.307 Y2.537 E22.71761
G1 X-30.539 Y2.419 E22.85302
G1 X-34.410 Y2.349 E23.01510
G1 X-37.759 Y2.363 E23.15529
G1 X-40.569 Y2.436 E23.27294
G1 X-43.221 Y2.566 E23.38407
G1 X-43.244 Y2.427 E23.38996
G1 X-42.870 Y2.477 F6000.000
G1 X-43.435 Y2.502 F6000.000
G1 X-45.261 Y2.831 E23.48693 F1800.000
G1 X-42.399 Y2.324 F6000.000
G1 X-41.452 Y2.163 E23.53712 F1800.000
G1 X-41.452 Y2.163 F6000.000
G1 X-40.280 Y1.967 E23.67083 F1800.000
G1 X-39.241 Y1.802 F6000.000
G1 X-38.376 Y1.665 E23.71658 F1800.000
G1 X-38.376 Y1.665 F6000.000
G1 X-37.136 Y1.484 E23.85761 F1800.000
G1 X-34.809 Y1.512 F6000.000
G1 X-36.666 Y1.520 E23.95460 F1800.000
G1 X-36.694 Y1.319 E23.96523
G1 X-33.882 Y0.585 E24.11709
G1 X-34.809 Y1.512 E24.18562
G1 X-27.108 Y1.708 F6000.000
G1 X-30.516 Y1.581 E24.36382 F1800.000
G1 X-33.928 Y1.519 E24.54207
G1 X-32.706 Y0.298 E24.63232
G1 X-32.526 Y0.256 E24.64198
G1 X-27.108 Y1.708 E24.93502
G1 X-25.322 Y1.800 F6000.000
G1 X-26.167 Y1.756 E24.97923 F1800.000
G1 X-22.750 Y-1.661 E25.23175
G1 X-21.686 Y-1.836 E25.28805
G1 X-25.322 Y1.800 E25.55670
G1 X-14.190 Y-1.336 F6000.000
G1 X-18.153 Y-2.397 E25.77104 F1800.000
G1 X-14.742 Y-2.911 E25.95126
G1 X-12.267 Y-3.258 E26.08180
G1 X-14.190 Y-1.336 E26.22386
G1 X-1.607 Y-4.144 F6000.000
G1 X0.083 Y2.164 E26.56500 F1800.000
G1 X-1.635 Y3.881 E26.69191
G1 X-8.748 Y3.105 E27.06575
G1 X-12.776 Y2.725 E27.27713
G1 X-13.745 Y-0.891 E27.47275
G1 X-11.233 Y-3.403 E27.65835
G1 X-6.786 Y-3.997 E27.89279
G1 X-1.038 Y-4.713 E28.19537
G1 X-1.607 Y-4.144 E28.23740
G1 X24.359 Y-4.341 F6000.000
G1 X18.972 Y1.045 E28.63540 F1800.000
G1 X12.665 Y-0.645 E28.97654
G1 X7.278 Y4.742 E29.37454
G1 X7.347 Y4.996 E29.38829
G1 X2.369 Y4.356 E29.65047
G1 X-0.841 Y3.975 E29.81934
G1 X0.527 Y2.608 E29.92038
G1 X6.834 Y4.298 E30.26152
G1 X12.221 Y-1.089 E30.65952
G1 X10.885 Y-6.073 E30.92912
G1 X21.696 Y-7.177 E31.49683
G1 X23.553 Y-7.351 E31.59428
G1 X24.359 Y-4.341 E31.75708
G1 X37.298 Y-7.959 F6000.000
G1 X38.168 Y-7.910 E31.80261 F1800.000
G1 X39.048 Y-7.761 E31.84925
G1 X39.906 Y-7.514 E31.89589
G1 X40.731 Y-7.172 E31.94253
G1 X41.512 Y-6.740 E31.98916
G1 X42.240 Y-6.224 E32.03580
G1 X42.906 Y-5.629 E32.08244
G1 X42.996 Y-5.527 E32.08957
G1 X36.942 Y-7.149 E32.41707
G1 X34.661 Y-4.869 E32.58554
G1 X34.503 Y-4.804 E32.59448
G1 X33.354 Y-3.922 E32.67014
G1 X32.473 Y-2.773 E32.74579
G1 X32.407 Y-2.615 E32.75474
G1 X31.555 Y-1.763 E32.81773
G1 X31.828 Y-0.744 E32.87281
G1 X31.730 Y-0.000 E32.91203
G1 X31.919 Y1.436 E32.98769
G1 X32.473 Y2.773 E33.06334
G1 X32.930 Y3.369 E33.10256
G1 X33.245 Y4.544 E33.16614
G1 X29.827 Y7.962 E33.41864
G1 X27.811 Y7.962 E33.52398
G1 X20.866 Y6.897 E33.89109
G1 X19.417 Y1.490 E34.18356
G1 X24.803 Y-3.897 E34.58156
G1 X31.111 Y-2.207 E34.92270
G1 X36.497 Y-7.594 E35.32070
G1 X36.399 Y-7.960 E35.34048
G1 X37.298 Y-7.959 E35.38743
G1 X44.017 Y-4.235 F6000.000
G1 X44.449 Y-3.454 E35.43406 F1800.000
G1 X44.790 Y-2.629 E35.48070
G1 X45.037 Y-1.771 E35.52734
G1 X45.187 Y-0.891 E35.57398
G1 X45.237 Y-0.000 E35.62062
G1 X45.202 Y0.618 E35.65294
G1 X43.832 Y-4.495 E35.92950
G1 X44.017 Y-4.235 E35.94617
G1 X45.037 Y1.771 F6000.000
G1 X44.790 Y2.629 E35.99281 F1800.000
G1 X44.688 Y2.875 E36.00673
G1 X40.441 Y7.123 E36.32058
G1 X40.481 Y7.275 E36.32881
G1 X39.906 Y7.514 E36.36136
G1 X39.048 Y7.761 E36.40800
G1 X38.168 Y7.910 E36.45464
G1 X37.248 Y7.962 E36.50280
G1 X30.716 Y7.962 E36.84405
G1 X33.689 Y4.989 E37.06373
G1 X39.996 Y6.679 E37.40487
G1 X45.065 Y1.610 E37.77936
G1 X45.037 Y1.771 E37.78790
M106 S224.4
G1 F4800
G1 X45.065 Y1.610 E37.71026
G1 F4800
G1 X40.938 Y5.737 E34.93790
G1 E34.78790 F2400.00000
G92 E0
G1 Z0.500 F6000.000
G1 X32.078 Y0.000 F6000.000
G1 E3.00000 F2400.00000
G1 X32.255 Y-1.346 E3.07090 F1800.000
G1 X32.775 Y-2.599 E3.14181
G1 X33.601 Y-3.676 E3.21271
G1 X34.677 Y-4.502 E3.28361
G1 X35.931 Y-5.022 E3.35452
G1 X37.277 Y-5.199 E3.42542
G1 X38.622 Y-5.022 E3.49632
G1 X39.876 Y-4.502 E3.56722
G1 X40.953 Y-3.676 E3.63813
G1 X41.779 Y-2.599 E3.70903
G1 X42.298 Y-1.346 E3.77993
G1 X42.475 Y-0.000 E3.85084
G1 X42.298 Y1.346 E3.92174
G1 X41.779 Y2.599 E3.99264
G1 X40.953 Y3.676 E4.06355
G1 X39.876 Y4.502 E4.13445
G1 X38.622 Y5.022 E4.20535
G1 X37.277 Y5.199 E4.27625
G1 X35.931 Y5.022 E4.34716
G1 X34.677 Y4.502 E4.41806
G1 X33.601 Y3.676 E4.48896
G1 X32.775 Y2.599 E4.55987
G1 X32.255 Y1.346 E4.63077
G1 X32.086 Y0.059 E4.69854
G1 X32.575 Y0.000 F6000.000
G1 X32.735 Y-1.217 E4.73498 F1800.000
G1 X33.205 Y-2.351 E4.77142
G1 X33.952 Y-3.325 E4.80787
G1 X34.926 Y-4.072 E4.84431
G1 X36.060 Y-4.542 E4.88075
G1 X37.277 Y-4.702 E4.91720
G1 X38.494 Y-4.542 E4.95364
G1 X39.628 Y-4.072 E4.99008
G1 X40.601 Y-3.325 E5.02652
G1 X41.349 Y-2.351 E5.06297
G1 X41.818 Y-1.217 E5.09941
G1 X41.978 Y-0.000 E5.13585
G1 X41.818 Y1.217 E5.17230
G1 X41.349 Y2.351 E5.20874
G1 X40.601 Y3.325 E5.24518
G1 X39.628 Y4.072 E5.28163
G1 X38.494 Y4.542 E5.31807
G1 X37.277 Y4.702 E5.35451
G1 X36.060 Y4.542 E5.39095
G1 X34.926 Y4.072 E5.42740
G1 X33.952 Y3.325 E5.46384
G1 X33.205 Y2.351 E5.50028
G1 X32.735 Y1.217 E5.53673
G1 X32.583 Y0.059 E5.57139
G1 X32.238 Y-0.215 F6000.000
G1 X-38.783 Y1.897 F6000.000
G1 X-38.835 Y1.570 E5.58866 F1200.000
G1 X-36.426 Y0.884 E5.71951
G1 X-33.385 Y0.100 E5.88357
G1 X-30.855 Y-0.484 E6.01922
G1 X-28.100 Y-1.054 E6.16621
G1 X-24.067 Y-1.795 E6.38042
G1 X-19.629 Y-2.524 E6.61544
G1 X-14.791 Y-3.253 E6.87101
G1 X-10.914 Y-3.797 E7.07556
G1 X-6.830 Y-4.339 E7.29081
G1 X-2.545 Y-4.879 E7.51643
G1 X6.603 Y-5.953 E7.99767
G1 X11.452 Y-6.483 E8.25248
G1 X21.662 Y-7.521 E8.78867
G1 X30.056 Y-8.307 E9.22915
G1 X37.391 Y-8.300 E9.61237
G1 X38.207 Y-8.254 E9.65504
G1 X39.125 Y-8.098 E9.70370
G1 X40.020 Y-7.840 E9.75237
G1 X40.881 Y-7.484 E9.80103
G1 X41.696 Y-7.033 E9.84970
G1 X42.456 Y-6.494 E9.89836
G1 X43.150 Y-5.873 E9.94702
G1 X43.771 Y-5.179 E9.99569
G1 X44.310 Y-4.419 E10.04435
G1 X44.760 Y-3.604 E10.09302
G1 X45.117 Y-2.743 E10.14168
G1 X45.375 Y-1.848 E10.19035
G1 X45.531 Y-0.930 E10.23901
G1 X45.583 Y-0.000 E10.28768
G1 X45.531 Y0.930 E10.33634
G1 X45.375 Y1.848 E10.38500
G1 X45.117 Y2.743 E10.43367
G1 X44.760 Y3.604 E10.48233
G1 X44.310 Y4.419 E10.53100
G1 X43.771 Y5.179 E10.57966
G1 X43.150 Y5.873 E10.62833
G1 X42.456 Y6.494 E10.67699
G1 X41.696 Y7.033 E10.72565
G1 X40.881 Y7.484 E10.77432
G1 X40.020 Y7.840 E10.82298
G1 X39.125 Y8.098 E10.87165
G1 X38.207 Y8.254 E10.92031
G1 X37.257 Y8.307 E10.96999
G1 X27.784 Y8.307 E11.46490
G1 X21.866 Y7.392 E11.77776
G1 X14.495 Y6.313 E12.16698
G1 X9.159 Y5.577 E12.44839
G1 X2.327 Y4.699 E12.80829
G1 X-2.574 Y4.117 E13.06612
G1 X-8.783 Y3.449 E13.39239
G1 X-14.601 Y2.900 E13.69772
G1 X-20.006 Y2.471 E13.98099
G1 X-23.775 Y2.225 E14.17830
G1 X-27.285 Y2.045 E14.36192
G1 X-30.526 Y1.926 E14.53136
G1 X-34.407 Y1.856 E14.73416
G1 X-37.767 Y1.870 E14.90970
G1 X-38.723 Y1.895 E14.95966
G1 X-42.964 Y2.553 F6000.000
G1 X-43.008 Y2.295 E14.96744 F600.000
G1 X-38.597 Y0.986 E15.10407
G1 X-36.554 Y0.408 E15.16709
G1 X-33.502 Y-0.379 E15.26068
G1 X-30.960 Y-0.965 E15.33812
G1 X-28.195 Y-1.538 E15.42199
G1 X-24.152 Y-2.280 E15.54403
G1 X-19.705 Y-3.011 E15.67783
G1 X-14.862 Y-3.740 E15.82324
G1 X-10.981 Y-4.285 E15.93962
G1 X-6.893 Y-4.828 E16.06205
G1 X-2.605 Y-5.368 E16.19036
G1 X1.877 Y-5.907 E16.32441
G1 X6.548 Y-6.442 E16.46401
G1 X11.400 Y-6.973 E16.60892
G1 X21.614 Y-8.011 E16.91376
G1 X30.033 Y-8.800 E17.16483
G1 X37.405 Y-8.792 E17.38372
G1 X38.262 Y-8.744 E17.40919
G1 X39.235 Y-8.579 E17.43849
G1 X40.183 Y-8.306 E17.46779
G1 X41.095 Y-7.928 E17.49709
G1 X41.958 Y-7.451 E17.52639
G1 X42.763 Y-6.880 E17.55569
G1 X43.499 Y-6.222 E17.58499
G1 X44.157 Y-5.487 E17.61429
G1 X44.728 Y-4.682 E17.64359
G1 X45.205 Y-3.818 E17.67289
G1 X45.583 Y-2.906 E17.70219
G1 X45.856 Y-1.958 E17.73149
G1 X46.021 Y-0.985 E17.76079
G1 X46.076 Y-0.000 E17.79008
G1 X46.021 Y0.985 E17.81938
G1 X45.856 Y1.958 E17.84868
G1 X45.583 Y2.906 E17.87798
G1 X45.205 Y3.818 E17.90728
G1 X44.728 Y4.682 E17.93658
G1 X44.157 Y5.487 E17.96588
G1 X43.499 Y6.222 E17.99518
G1 X42.763 Y6.880 E18.02448
G1 X41.958 Y7.451 E18.05378
G1 X41.095 Y7.928 E18.08308
G1 X40.183 Y8.306 E18.11238
G1 X39.235 Y8.579 E18.14168
