; generated by Slic3r 1.2.9 on 2016-07-16 at 19:33:34

; external perimeters extrusion width = 0.40mm
; perimeters extrusion width = 0.67mm
; infill extrusion width = 0.67mm
; solid infill extrusion width = 0.67mm
; top infill extrusion width = 0.67mm

M107
M104 S215 ; set temperature
G28 ; home all axes
G1 Y60 Z5 F5000 ; lift nozzle


M109 S215 ; wait for temperature to be reached
G21 ; set units to millimeters
G90 ; use absolute coordinates
M82 ; use absolute distances for extrusion
G92 E0
G1 E-3.00000 F2400.00000
G92 E0
G1 Z0.300 F6000.000
G1 X-1.684 Y10.134 F6000.000
G1 E3.00000 F2400.00000
G1 X-6.073 Y9.590 E3.23109 F1800.000
G1 X-10.249 Y9.045 E3.45110
G1 X-16.790 Y8.127 E3.79617
G1 X-20.429 Y7.573 E3.98851
G1 X-23.836 Y7.020 E4.16884
G1 X-27.045 Y6.457 E4.33905
G1 X-29.069 Y6.073 E4.44665
G1 X-31.001 Y5.681 E4.54967
G1 X-32.871 Y5.271 E4.64969
G1 X-34.608 Y4.863 E4.74288
G1 X-36.997 Y4.256 E4.87170
G1 X-39.220 Y3.642 E4.99218
G1 X-47.505 Y1.245 E5.44278
G1 X-49.150 Y0.357 E5.54045
G1 X-50.281 Y-1.132 E5.63812
G1 X-50.695 Y-2.955 E5.73580
G1 X-50.319 Y-4.786 E5.83347
G1 X-49.218 Y-6.298 E5.93114
G1 X-47.591 Y-7.219 E6.02882
G1 X-46.634 Y-7.404 E6.07978
G1 X27.374 Y-13.404 E9.95901
G1 X27.731 Y-13.419 E9.97768
G1 X37.277 Y-13.419 E10.47638
G1 X38.571 Y-13.353 E10.54409
G1 X39.030 Y-13.299 E10.56822
G1 X40.235 Y-13.089 E10.63212
G1 X41.664 Y-12.681 E10.70977
G1 X42.866 Y-12.194 E10.77753
G1 X43.323 Y-11.974 E10.80401
G1 X44.347 Y-11.405 E10.86523
G1 X45.564 Y-10.553 E10.94288
G1 X46.579 Y-9.665 E11.01332
G1 X46.938 Y-9.306 E11.03980
G1 X47.682 Y-8.470 E11.09830
G1 X47.918 Y-8.167 E11.11839
G1 X48.555 Y-7.267 E11.17598
G1 X48.766 Y-6.924 E11.19700
G1 X49.248 Y-6.051 E11.24912
G1 X49.469 Y-5.595 E11.27560
G1 X49.877 Y-4.606 E11.33148
G1 X50.018 Y-4.195 E11.35420
G1 X50.309 Y-3.184 E11.40914
G1 X50.408 Y-2.742 E11.43280
G1 X50.580 Y-1.724 E11.48673
G1 X50.632 Y-1.255 E11.51140
G1 X50.688 Y-0.259 E11.56352
G1 X50.689 Y0.239 E11.58954
G1 X50.632 Y1.255 E11.64270
G1 X50.581 Y1.724 E11.66736
G1 X50.408 Y2.742 E11.72131
G1 X50.309 Y3.184 E11.74496
G1 X50.018 Y4.195 E11.79990
G1 X49.877 Y4.606 E11.82264
G1 X49.469 Y5.595 E11.87851
G1 X49.289 Y5.975 E11.90049
G1 X48.766 Y6.924 E11.95711
G1 X48.549 Y7.276 E11.97873
G1 X47.918 Y8.167 E12.03572
G1 X47.602 Y8.563 E12.06219
G1 X46.682 Y9.570 E12.13346
G1 X45.556 Y10.559 E12.21178
G1 X44.347 Y11.405 E12.28886
G1 X43.041 Y12.117 E12.36659
G1 X41.664 Y12.681 E12.44432
G1 X40.507 Y13.019 E12.50728
G1 X40.013 Y13.132 E12.53376
G1 X39.030 Y13.299 E12.58588
G1 X38.571 Y13.353 E12.61000
G1 X37.524 Y13.412 E12.66477
G1 X30.024 Y13.419 E13.05662
G1 X29.624 Y13.401 E13.07754
G1 X21.165 Y12.608 E13.52144
G1 X12.577 Y11.742 E13.97236
G1 X6.031 Y11.032 E14.31641
G1 X-1.624 Y10.141 E14.71902
G1 F4800
G1 X-6.073 Y9.590 E12.58953
G1 F4800
G1 X-7.577 Y9.393 E11.86902
G1 E11.71902 F2400.00000
G92 E0
G1 X32.195 Y0.007 F6000.000
G1 E3.00000 F2400.00000
G1 X32.370 Y-1.321 E3.06999 F1800.000
G1 X32.879 Y-2.546 E3.13930
G1 X33.687 Y-3.597 E3.20858
G1 X34.740 Y-4.404 E3.27786
G1 X35.965 Y-4.910 E3.34713
G1 X37.267 Y-5.081 E3.41570
G1 X38.594 Y-4.908 E3.48566
G1 X39.820 Y-4.400 E3.55497
G1 X40.872 Y-3.592 E3.62425
G1 X41.679 Y-2.540 E3.69353
G1 X42.181 Y-1.328 E3.76210
G1 X42.359 Y0.000 E3.83208
G1 X42.181 Y1.328 E3.90207
G1 X41.679 Y2.540 E3.97063
G1 X40.871 Y3.593 E4.03995
G1 X39.807 Y4.406 E4.10990
G1 X38.595 Y4.908 E4.17847
G1 X37.280 Y5.082 E4.24778
G1 X35.952 Y4.906 E4.31774
G1 X34.740 Y4.403 E4.38631
G1 X33.687 Y3.597 E4.45560
G1 X32.872 Y2.534 E4.52557
G1 X32.370 Y1.321 E4.59415
G1 X32.203 Y0.066 E4.66030
G1 X32.575 Y0.007 F6000.000
G1 X32.737 Y-1.223 E4.71220 F1800.000
G1 X33.208 Y-2.356 E4.76356
G1 X33.956 Y-3.328 E4.81491
G1 X34.930 Y-4.074 E4.86627
G1 X36.064 Y-4.542 E4.91762
G1 X37.267 Y-4.701 E4.96842
G1 X38.496 Y-4.541 E5.02031
G1 X39.630 Y-4.071 E5.07168
G1 X40.603 Y-3.323 E5.12303
G1 X41.349 Y-2.350 E5.17439
G1 X41.813 Y-1.229 E5.22519
G1 X41.978 Y0.000 E5.27708
G1 X41.813 Y1.229 E5.32898
G1 X41.349 Y2.350 E5.37978
G1 X40.602 Y3.324 E5.43114
G1 X39.617 Y4.076 E5.48303
G1 X38.496 Y4.541 E5.53383
G1 X37.280 Y4.702 E5.58519
G1 X36.051 Y4.538 E5.63709
G1 X34.930 Y4.074 E5.68789
G1 X33.956 Y3.328 E5.73925
G1 X33.202 Y2.344 E5.79114
G1 X32.737 Y1.223 E5.84195
G1 X32.583 Y0.066 E5.89079
G1 X32.238 Y-0.208 F6000.000
G1 X-40.076 Y-2.046 F6000.000
G1 X-37.765 Y-1.985 E6.01156 F1800.000
G1 X-34.408 Y-1.971 E6.18697
G1 X-30.529 Y-2.042 E6.38965
G1 X-27.290 Y-2.160 E6.55898
G1 X-23.782 Y-2.340 E6.74251
G1 X-20.015 Y-2.586 E6.93974
G1 X-14.611 Y-3.015 E7.22292
G1 X-8.795 Y-3.563 E7.52818
G1 X-2.587 Y-4.232 E7.85437
G1 X2.313 Y-4.813 E8.11214
G1 X9.100 Y-5.686 E8.46969
G1 X14.479 Y-6.427 E8.75334
G1 X21.849 Y-7.507 E9.14250
G1 X27.776 Y-8.423 E9.45581
G1 X37.261 Y-8.423 E9.95135
G1 X38.171 Y-8.372 E9.99897
G1 X39.157 Y-8.209 E10.05118
G1 X40.062 Y-7.948 E10.10042
G1 X40.934 Y-7.586 E10.14974
G1 X41.760 Y-7.129 E10.19907
G1 X42.521 Y-6.589 E10.24782
G1 X43.234 Y-5.953 E10.29772
G1 X43.863 Y-5.249 E10.34703
G1 X44.409 Y-4.479 E10.39635
G1 X44.865 Y-3.653 E10.44567
G1 X45.222 Y-2.791 E10.49442
G1 X45.488 Y-1.873 E10.54433
G1 X45.646 Y-0.943 E10.59363
G1 X45.699 Y-0.000 E10.64294
G1 X45.644 Y0.953 E10.69284
G1 X45.488 Y1.873 E10.74160
G1 X45.226 Y2.780 E10.79092
G1 X44.865 Y3.653 E10.84024
G1 X44.409 Y4.479 E10.88955
G1 X43.855 Y5.257 E10.93945
G1 X43.234 Y5.953 E10.98820
G1 X42.530 Y6.583 E11.03753
G1 X41.760 Y7.129 E11.08685
G1 X40.934 Y7.586 E11.13616
G1 X40.052 Y7.951 E11.18606
G1 X39.155 Y8.210 E11.23481
G1 X38.225 Y8.368 E11.28413
G1 X37.260 Y8.423 E11.33459
G1 X30.051 Y8.423 E11.71126
G1 X19.903 Y7.465 E12.24378
G1 X14.770 Y6.947 E12.51332
G1 X9.804 Y6.421 E12.77421
G1 X5.014 Y5.889 E13.02602
G1 X-1.088 Y5.174 E13.34696
G1 X-5.438 Y4.634 E13.57601
G1 X-9.591 Y4.092 E13.79478
G1 X-13.538 Y3.548 E14.00298
G1 X-18.474 Y2.821 E14.26361
G1 X-23.015 Y2.091 E14.50392
G1 X-27.153 Y1.355 E14.72350
G1 X-29.066 Y0.979 E14.82538
G1 X-30.879 Y0.597 E14.92215
G1 X-33.412 Y0.012 E15.05800
G1 X-36.456 Y-0.773 E15.22221
G1 X-40.111 Y-1.828 E15.42095
G1 X-40.085 Y-1.987 E15.42933
G1 X-43.254 Y-2.368 F6000.000
G1 X-43.221 Y-2.566 E15.43773 F1800.000
G1 X-40.569 Y-2.436 E15.54886
G1 X-37.759 Y-2.363 E15.66652
G1 X-34.410 Y-2.349 E15.80671
G1 X-30.539 Y-2.419 E15.96878
G1 X-27.307 Y-2.537 E16.10420
G1 X-23.804 Y-2.717 E16.25102
G1 X-20.042 Y-2.962 E16.40883
G1 X-14.644 Y-3.391 E16.63549
G1 X-8.832 Y-3.939 E16.87985
G1 X-2.629 Y-4.607 E17.14102
G1 X2.266 Y-5.188 E17.34739
G1 X9.051 Y-6.060 E17.63372
G1 X14.426 Y-6.801 E17.86085
G1 X21.793 Y-7.880 E18.17253
G1 X27.747 Y-8.800 E18.42471
G1 X37.271 Y-8.800 E18.82341
G1 X38.212 Y-8.747 E18.86286
G1 X39.240 Y-8.578 E18.90647
G1 X40.187 Y-8.304 E18.94774
G1 X41.098 Y-7.926 E18.98903
G1 X41.961 Y-7.449 E19.03032
G1 X42.757 Y-6.885 E19.07114
G1 X43.501 Y-6.220 E19.11290
G1 X44.158 Y-5.485 E19.15419
G1 X44.729 Y-4.680 E19.19548
G1 X45.206 Y-3.817 E19.23677
G1 X45.579 Y-2.916 E19.27760
G1 X45.856 Y-1.957 E19.31936
G1 X46.021 Y-0.985 E19.36065
G1 X46.076 Y-0.000 E19.40193
G1 X46.019 Y0.996 E19.44369
G1 X45.856 Y1.957 E19.48452
G1 X45.583 Y2.905 E19.52581
G1 X45.206 Y3.817 E19.56710
G1 X44.729 Y4.680 E19.60839
G1 X44.151 Y5.493 E19.65015
G1 X43.501 Y6.220 E19.69097
G1 X42.766 Y6.878 E19.73227
G1 X41.961 Y7.449 E19.77356
G1 X41.098 Y7.926 E19.81484
G1 X40.177 Y8.308 E19.85660
G1 X39.239 Y8.578 E19.89743
G1 X38.267 Y8.744 E19.93872
G1 X37.271 Y8.800 E19.98048
G1 X30.033 Y8.800 E20.28345
G1 X19.866 Y7.840 E20.71094
G1 X14.731 Y7.322 E20.92699
G1 X9.763 Y6.796 E21.13611
G1 X4.971 Y6.264 E21.33795
G1 X-1.133 Y5.548 E21.59520
G1 X-5.486 Y5.008 E21.77882
G1 X-9.641 Y4.466 E21.95422
G1 X-13.592 Y3.922 E22.12117
G1 X-18.531 Y3.194 E22.33017
G1 X-23.078 Y2.463 E22.52294
G1 X-27.222 Y1.725 E22.69915
G1 X-29.142 Y1.349 E22.78103
G1 X-30.960 Y0.965 E22.85883
G1 X-33.502 Y0.379 E22.96803
G1 X-36.554 Y-0.408 E23.09998
G1 X-38.597 Y-0.986 E23.18882
G1 X-43.197 Y-2.351 E23.38969
G1 X-43.120 Y-2.517 F6000.000
G1 X-43.435 Y-2.502 F6000.000
G1 X-45.261 Y-2.831 E23.48665 F1800.000
G1 X-42.399 Y-2.324 F6000.000
G1 X-41.452 Y-2.163 E23.53685 F1800.000
G1 X-41.452 Y-2.163 F6000.000
G1 X-40.280 Y-1.967 E23.67056 F1800.000
G1 X-39.241 Y-1.802 F6000.000
G1 X-38.376 Y-1.665 E23.71631 F1800.000
G1 X-38.376 Y-1.665 F6000.000
G1 X-37.136 Y-1.484 E23.85734 F1800.000
G1 X-33.127 Y-0.395 F6000.000
G1 X-36.694 Y-1.319 E24.04984 F1800.000
G1 X-36.666 Y-1.520 E24.06047
G1 X-34.405 Y-1.511 E24.17860
G1 X-33.431 Y-1.528 E24.22949
G1 X-33.127 Y-0.395 E24.29079
G1 X-24.824 Y1.301 F6000.000
G1 X-25.578 Y1.167 E24.33082 F1800.000
G1 X-22.445 Y-1.966 E24.56229
G1 X-21.495 Y-2.028 E24.61205
G1 X-24.824 Y1.301 E24.85801
G1 X-14.190 Y-1.336 F6000.000
G1 X-17.791 Y-2.300 E25.05277 F1800.000
G1 X-14.572 Y-2.556 E25.22148
G1 X-12.802 Y-2.723 E25.31432
G1 X-14.190 Y-1.336 E25.41683
G1 X0.083 Y2.164 F6000.000
G1 X-2.311 Y4.557 E25.59371 F1800.000
G1 X-9.529 Y3.636 E25.97388
G1 X-12.648 Y3.206 E26.13833
G1 X-13.745 Y-0.891 E26.35995
G1 X-11.821 Y-2.815 E26.50211
G1 X-8.748 Y-3.105 E26.66338
G1 X-1.540 Y-3.892 E27.04221
G1 X0.083 Y2.164 E27.36977
G1 X24.359 Y-4.341 F6000.000
G1 X18.972 Y1.045 E27.76777 F1800.000
G1 X12.665 Y-0.645 E28.10891
G1 X7.278 Y4.742 E28.50691
G1 X7.537 Y5.706 E28.55904
G1 X-1.521 Y4.656 E29.03542
G1 X0.527 Y2.608 E29.18672
G1 X6.834 Y4.298 E29.52786
G1 X12.221 Y-1.089 E29.92586
G1 X11.042 Y-5.489 E30.16383
G1 X14.544 Y-5.971 E30.34851
G1 X23.565 Y-7.306 E30.82494
G1 X24.359 Y-4.341 E30.98527
G1 X38.120 Y-7.913 F6000.000
G1 X39.055 Y-7.759 E31.03477 F1800.000
G1 X39.910 Y-7.512 E31.08124
G1 X40.734 Y-7.170 E31.12786
G1 X41.515 Y-6.738 E31.17449
G1 X42.234 Y-6.228 E31.22054
G1 X42.908 Y-5.627 E31.26774
G1 X42.997 Y-5.527 E31.27472
G1 X36.942 Y-7.149 E31.60222
G1 X34.662 Y-4.870 E31.77064
G1 X34.508 Y-4.806 E31.77936
G1 X33.359 Y-3.926 E31.85497
G1 X32.476 Y-2.779 E31.93059
G1 X32.409 Y-2.617 E31.93976
G1 X31.555 Y-1.763 E32.00288
G1 X31.829 Y-0.741 E32.05812
G1 X31.730 Y0.007 E32.09757
G1 X31.921 Y1.442 E32.17319
G1 X32.469 Y2.766 E32.24808
G1 X32.929 Y3.366 E32.28756
G1 X33.245 Y4.544 E32.35129
G1 X29.848 Y7.941 E32.60224
G1 X20.919 Y7.098 E33.07081
G1 X19.417 Y1.490 E33.37415
G1 X24.803 Y-3.897 E33.77215
G1 X31.111 Y-2.207 E34.11329
G1 X36.497 Y-7.594 E34.51129
G1 X36.399 Y-7.962 E34.53121
G1 X37.248 Y-7.962 E34.57556
G1 X38.120 Y-7.913 E34.62122
G1 X44.018 Y-4.234 F6000.000
G1 X44.449 Y-3.453 E34.66785 F1800.000
G1 X44.787 Y-2.638 E34.71391
G1 X45.038 Y-1.770 E34.76111
G1 X45.187 Y-0.891 E34.80770
G1 X45.237 Y-0.001 E34.85429
G1 X45.202 Y0.615 E34.88652
G1 X43.832 Y-4.495 E35.16295
G1 X44.018 Y-4.234 E35.17970
G1 X45.038 Y1.771 F6000.000
G1 X44.791 Y2.628 E35.22633 F1800.000
G1 X44.688 Y2.875 E35.24030
G1 X40.441 Y7.123 E35.55415
G1 X40.481 Y7.275 E35.56236
G1 X39.899 Y7.516 E35.59526
G1 X39.052 Y7.760 E35.64131
G1 X38.173 Y7.910 E35.68794
G1 X37.247 Y7.962 E35.73636
G1 X30.716 Y7.962 E36.07759
G1 X33.689 Y4.989 E36.29727
G1 X39.996 Y6.679 E36.63842
G1 X45.065 Y1.610 E37.01291
G1 X45.038 Y1.771 E37.02142
M106 S224.4
G1 F4800
G1 X45.065 Y1.610 E36.94410
G1 F4800
G1 X40.937 Y5.738 E34.17142
G1 E34.02142 F2400.00000
G92 E0
G1 Z0.500 F6000.000
G1 X32.079 Y0.019 F6000.000
G1 E3.00000 F2400.00000
G1 X32.260 Y-1.362 E3.07274 F1800.000
G1 X32.783 Y-2.613 E3.14361
G1 X33.612 Y-3.686 E3.21442
G1 X34.689 Y-4.508 E3.28523
G1 X35.942 Y-5.024 E3.35601
G1 X37.249 Y-5.196 E3.42491
G1 X38.628 Y-5.020 E3.49754
G1 X39.882 Y-4.499 E3.56845
G1 X40.956 Y-3.672 E3.63927
G1 X41.780 Y-2.597 E3.71008
G1 X42.285 Y-1.379 E3.77895
G1 X42.476 Y0.000 E3.85167
G1 X42.285 Y1.379 E3.92438
G1 X41.780 Y2.597 E3.99325
G1 X40.955 Y3.674 E4.06418
G1 X39.848 Y4.515 E4.13679
G1 X38.630 Y5.019 E4.20568
G1 X37.285 Y5.199 E4.27656
G1 X35.907 Y5.013 E4.34920
G1 X34.689 Y4.508 E4.41811
G1 X33.610 Y3.685 E4.48896
G1 X32.765 Y2.581 E4.56162
G1 X32.261 Y1.362 E4.63054
G1 X32.087 Y0.078 E4.69821
G1 X32.576 Y0.018 F6000.000
G1 X32.740 Y-1.232 E4.73565 F1800.000
G1 X33.213 Y-2.364 E4.77205
G1 X33.962 Y-3.334 E4.80845
G1 X34.937 Y-4.077 E4.84484
G1 X36.070 Y-4.544 E4.88123
G1 X37.250 Y-4.699 E4.91658
G1 X38.500 Y-4.540 E4.95399
G1 X39.633 Y-4.069 E4.99041
G1 X40.604 Y-3.321 E5.02681
G1 X41.350 Y-2.348 E5.06320
G1 X41.806 Y-1.248 E5.09855
G1 X41.979 Y0.000 E5.13597
G1 X41.806 Y1.248 E5.17339
G1 X41.350 Y2.348 E5.20874
G1 X40.604 Y3.322 E5.24515
G1 X39.601 Y4.084 E5.28256
G1 X38.501 Y4.539 E5.31791
G1 X37.285 Y4.702 E5.35432
G1 X36.036 Y4.533 E5.39174
G1 X34.936 Y4.077 E5.42709
G1 X33.962 Y3.334 E5.46349
G1 X33.196 Y2.332 E5.50091
G1 X32.740 Y1.232 E5.53627
G1 X32.584 Y0.077 E5.57088
G1 X32.238 Y-0.197 F6000.000
G1 X-38.783 Y-1.897 F6000.000
G1 X-37.767 Y-1.870 E5.62397 F1200.000
G1 X-34.407 Y-1.856 E5.79951
G1 X-30.526 Y-1.926 E6.00231
G1 X-27.285 Y-2.045 E6.17175
G1 X-23.775 Y-2.225 E6.35536
G1 X-20.006 Y-2.471 E6.55268
G1 X-14.601 Y-2.900 E6.83594
G1 X-8.783 Y-3.449 E7.14128
G1 X-2.574 Y-4.118 E7.46755
G1 X2.327 Y-4.699 E7.72538
G1 X9.159 Y-5.577 E8.08528
G1 X14.495 Y-6.313 E8.36669
G1 X21.866 Y-7.392 E8.75590
G1 X27.784 Y-8.307 E9.06877
G1 X37.257 Y-8.307 E9.56367
G1 X38.217 Y-8.253 E9.61392
G1 X39.137 Y-8.095 E9.66264
G1 X40.030 Y-7.836 E9.71125
G1 X40.889 Y-7.479 E9.75986
G1 X41.704 Y-7.028 E9.80849
G1 X42.439 Y-6.506 E9.85558
G1 X43.155 Y-5.868 E9.90573
G1 X43.774 Y-5.174 E9.95430
G1 X44.312 Y-4.415 E10.00292
G1 X44.762 Y-3.600 E10.05154
G1 X45.107 Y-2.767 E10.09863
G1 X45.375 Y-1.845 E10.14880
G1 X45.531 Y-0.929 E10.19736
G1 X45.583 Y-0.001 E10.24592
G1 X45.526 Y0.957 E10.29608
G1 X45.375 Y1.846 E10.34319
G1 X45.118 Y2.741 E10.39180
G1 X44.762 Y3.600 E10.44041
G1 X44.313 Y4.414 E10.48898
G1 X43.756 Y5.196 E10.53914
G1 X43.155 Y5.868 E10.58623
G1 X42.462 Y6.489 E10.63486
G1 X41.703 Y7.028 E10.68347
G1 X40.890 Y7.479 E10.73204
G1 X40.003 Y7.845 E10.78219
G1 X39.137 Y8.095 E10.82928
G1 X38.220 Y8.252 E10.87790
G1 X37.257 Y8.307 E10.92828
G1 X30.056 Y8.307 E11.30450
G1 X19.914 Y7.350 E11.83670
G1 X14.782 Y6.832 E12.10621
G1 X9.816 Y6.307 E12.36707
G1 X5.027 Y5.775 E12.61885
G1 X-1.074 Y5.059 E12.93975
G1 X-5.424 Y4.519 E13.16876
G1 X-9.575 Y3.978 E13.38749
G1 X-13.522 Y3.434 E13.59564
G1 X-18.456 Y2.707 E13.85620
G1 X-22.996 Y1.978 E14.09642
G1 X-27.132 Y1.241 E14.31590
G1 X-29.043 Y0.866 E14.41768
G1 X-30.854 Y0.484 E14.51435
G1 X-33.385 Y-0.100 E14.65007
G1 X-36.426 Y-0.884 E14.81413
G1 X-38.835 Y-1.570 E14.94498
G1 X-38.792 Y-1.837 E14.95912
G1 X-42.964 Y-2.553 F6000.000
G1 X-40.569 Y-2.436 E15.03031 F600.000
G1 X-37.759 Y-2.363 E15.11376
G1 X-34.410 Y-2.349 E15.21320
G1 X-30.539 Y-2.419 E15.32816
G1 X-27.307 Y-2.537 E15.42421
G1 X-23.804 Y-2.717 E15.52835
G1 X-20.042 Y-2.962 E15.64028
G1 X-14.644 Y-3.391 E15.80105
G1 X-8.832 Y-3.939 E15.97437
G1 X-2.629 Y-4.607 E16.15962
G1 X2.266 Y-5.188 E16.30600
G1 X9.094 Y-6.066 E16.51039
G1 X14.426 Y-6.801 E16.67019
G1 X21.793 Y-7.880 E16.89127
G1 X27.747 Y-8.800 E17.07014
G1 X37.271 Y-8.800 E17.35293
G1 X38.275 Y-8.743 E17.38278
G1 X39.247 Y-8.576 E17.41207
G1 X40.194 Y-8.302 E17.44134
G1 X41.104 Y-7.924 E17.47060
G1 X41.966 Y-7.446 E17.49987
G1 X42.746 Y-6.892 E17.52826
G1 X43.504 Y-6.217 E17.55841
G1 X44.160 Y-5.482 E17.58767
G1 X44.730 Y-4.677 E17.61694
G1 X45.207 Y-3.814 E17.64621
G1 X45.573 Y-2.931 E17.67460
G1 X45.856 Y-1.956 E17.70475
G1 X46.021 Y-0.984 E17.73401
G1 X46.076 Y-0.000 E17.76327
G1 X46.016 Y1.013 E17.79342
G1 X45.856 Y1.956 E17.82181
G1 X45.584 Y2.903 E17.85108
G1 X45.207 Y3.814 E17.88035
G1 X44.730 Y4.677 E17.90961
G1 X44.141 Y5.504 E17.93976
G1 X43.504 Y6.217 E17.96815
G1 X42.770 Y6.875 E17.99742
G1 X41.966 Y7.446 E18.02669
G1 X41.104 Y7.923 E18.05595
G1 X40.166 Y8.311 E18.08610
G1 X39.247 Y8.576 E18.11448
G1 X38.276 Y8.742 E18.14375
G1 X37.271 Y8.800 E18.17363
G1 X30.033 Y8.800 E18.38852
G1 X19.866 Y7.840 E18.69174
G1 X14.731 Y7.322 E18.84498
G1 X9.763 Y6.796 E18.99331
G1 X4.971 Y6.264 E19.13647
G1 X-1.133 Y5.548 E19.31894
G1 X-5.486 Y5.008 E19.44918
G1 X-9.641 Y4.466 E19.57359
G1 X-13.592 Y3.922 E19.69201
G1 X-18.531 Y3.194 E19.84025
G1 X-23.078 Y2.463 E19.97698
