; generated by Slic3r 1.2.9 on 2016-07-14 at 20:05:13

; external perimeters extrusion width = 0.30mm
; perimeters extrusion width = 0.31mm
; infill extrusion width = 0.31mm
; solid infill extrusion width = 0.31mm
; top infill extrusion width = 0.31mm

M107
M104 S215 ; set temperature
G28 ; home all axes
G1 Z5 F5000 ; lift nozzle

M109 S215 ; wait for temperature to be reached
G21 ; set units to millimeters
G90 ; use absolute coordinates
M82 ; use absolute distances for extrusion
G92 E0
G1 E-2.00000 F2400.00000
G92 E0
G1 Z0.100 F7800.000
G1 X-1.434 Y11.936 F7800.000
G1 E2.00000 F2400.00000
G1 X-9.118 Y10.970 E2.07825 F1800.000
G1 X-13.168 Y10.422 E2.11954
G1 X-17.049 Y9.867 E2.15915
G1 X-20.685 Y9.314 E2.19631
G1 X-24.125 Y8.755 E2.23152
G1 X-27.358 Y8.188 E2.26468
G1 X-29.402 Y7.801 E2.28570
G1 X-31.358 Y7.404 E2.30587
G1 X-33.222 Y6.996 E2.32514
G1 X-34.985 Y6.582 E2.34344
G1 X-36.691 Y6.155 E2.36121
G1 X-39.677 Y5.342 E2.39248
G1 X-47.994 Y2.935 E2.47996
G1 X-49.977 Y1.948 E2.50233
G1 X-51.484 Y0.326 E2.52470
G1 X-52.322 Y-1.723 E2.54707
G1 X-52.384 Y-3.937 E2.56944
G1 X-51.661 Y-6.030 E2.59181
G1 X-50.247 Y-7.734 E2.61418
G1 X-48.323 Y-8.830 E2.63655
G1 X-46.776 Y-9.158 E2.65254
G1 X27.232 Y-15.158 E3.40271
G1 X27.731 Y-15.179 E3.40776
G1 X37.623 Y-15.169 E3.50770
G1 X38.631 Y-15.112 E3.51790 F1800.000
G1 X39.251 Y-15.046 E3.52420
G1 X40.314 Y-14.866 E3.53509
G1 X40.992 Y-14.711 E3.54212
G1 X41.959 Y-14.432 E3.55229
G1 X42.463 Y-14.263 E3.55766
G1 X43.545 Y-13.817 E3.56949
G1 X44.172 Y-13.516 E3.57651
G1 X45.428 Y-12.804 E3.59109
G1 X46.463 Y-12.076 E3.60388
G1 X47.006 Y-11.643 E3.61090
G1 X48.010 Y-10.732 E3.62459
G1 X48.919 Y-9.729 E3.63827
G1 X49.353 Y-9.186 E3.64529
G1 X50.082 Y-8.148 E3.65811
G1 X50.896 Y-6.699 E3.67490
G1 X51.479 Y-5.339 E3.68985
G1 X51.709 Y-4.682 E3.69688
G1 X52.020 Y-3.598 E3.70828
G1 X52.142 Y-3.037 E3.71408
G1 X52.323 Y-1.973 E3.72498
G1 X52.389 Y-1.354 E3.73127
G1 X52.445 Y-0.349 E3.74144
G1 X52.447 Y0.315 E3.74815
G1 X52.389 Y1.354 E3.75866
G1 X52.323 Y1.973 E3.76495
G1 X52.142 Y3.037 E3.77586
G1 X51.988 Y3.715 E3.78288
G1 X51.709 Y4.682 E3.79305
G1 X51.543 Y5.179 E3.79835
G1 X51.094 Y6.269 E3.81025
G1 X50.896 Y6.699 E3.81504
G1 X50.305 Y7.776 E3.82745
G1 X49.935 Y8.365 E3.83447
G1 X49.118 Y9.496 E3.84858
G1 X48.248 Y10.480 E3.86184
G1 X47.757 Y10.972 E3.86886
G1 X46.784 Y11.832 E3.88199
G1 X45.642 Y12.659 E3.89623
G1 X45.053 Y13.029 E3.90326
G1 X43.987 Y13.614 E3.91554
G1 X43.545 Y13.817 E3.92045
G1 X42.462 Y14.264 E3.93230
G1 X41.959 Y14.432 E3.93765
G1 X40.879 Y14.742 E3.94900
G1 X40.314 Y14.866 E3.95485
G1 X39.251 Y15.046 E3.96574
G1 X38.631 Y15.112 E3.97205
G1 X37.277 Y15.179 E3.98574
G1 X30.024 Y15.179 E4.05902
G1 X29.465 Y15.153 E4.06467
G1 X24.560 Y14.700 E4.11444
G1 X14.081 Y13.668 E4.22083
G1 X5.844 Y12.782 E4.30452
G1 X-1.389 Y11.942 E4.37809
G1 F6240
G1 X-6.548 Y11.293 E2.47809
G1 E2.37809 F2400.00000
G92 E0
G1 X32.485 Y1.284 F7800.000
G1 E2.00000 F2400.00000
G1 X32.316 Y0.000 E2.01308 F1800.000
G1 X32.485 Y-1.284 E2.02617
G1 X32.980 Y-2.481 E2.03925
G1 X33.769 Y-3.508 E2.05234
G1 X34.796 Y-4.296 E2.06542
G1 X35.993 Y-4.792 E2.07851
G1 X37.277 Y-4.961 E2.09159 F1800.000
G1 X38.561 Y-4.792 E2.10468
G1 X39.757 Y-4.296 E2.11776
G1 X40.785 Y-3.508 E2.13085
G1 X41.573 Y-2.481 E2.14393
G1 X42.069 Y-1.284 E2.15702
G1 X42.238 Y0.000 E2.17010
G1 X42.069 Y1.284 E2.18319
G1 X41.573 Y2.481 E2.19627
G1 X40.785 Y3.508 E2.20936
G1 X39.757 Y4.296 E2.22244
G1 X38.561 Y4.792 E2.23553
G1 X37.277 Y4.961 E2.24861
G1 X35.993 Y4.792 E2.26170
G1 X34.796 Y4.296 E2.27478
G1 X33.769 Y3.508 E2.28787
G1 X32.980 Y2.481 E2.30095
G1 X32.502 Y1.326 E2.31358
G1 X32.667 Y1.257 F7800.000
G1 X32.496 Y0.000 E2.32640 F1800.000
G1 X32.659 Y-1.237 E2.33901
G1 X33.136 Y-2.391 E2.35162
G1 X33.896 Y-3.381 E2.36423
G1 X34.886 Y-4.140 E2.37684
G1 X36.039 Y-4.618 E2.38945
G1 X37.277 Y-4.781 E2.40206 F1800.000
G1 X38.514 Y-4.618 E2.41467
G1 X39.667 Y-4.140 E2.42728
G1 X40.657 Y-3.381 E2.43989
G1 X41.417 Y-2.391 E2.45250
G1 X41.895 Y-1.237 E2.46511
G1 X42.058 Y0.000 E2.47772
G1 X41.895 Y1.237 E2.49033
G1 X41.417 Y2.391 E2.50294
G1 X40.657 Y3.381 E2.51555
G1 X39.667 Y4.140 E2.52816
G1 X38.514 Y4.618 E2.54077
G1 X37.277 Y4.781 E2.55338
G1 X36.039 Y4.618 E2.56599
G1 X34.886 Y4.140 E2.57860
G1 X33.896 Y3.381 E2.59121
G1 X33.136 Y2.391 E2.60382
G1 X32.684 Y1.299 E2.61576
G1 X32.849 Y1.231 F7800.000
G1 X32.676 Y0.000 E2.62831 F1800.000
G1 X32.833 Y-1.191 E2.64045
G1 X33.292 Y-2.300 E2.65258
G1 X34.023 Y-3.253 E2.66472
G1 X34.976 Y-3.985 E2.67685
G1 X36.086 Y-4.444 E2.68899
G1 X37.277 Y-4.601 E2.70112 F1800.000
G1 X38.467 Y-4.444 E2.71325
G1 X39.577 Y-3.985 E2.72539
G1 X40.530 Y-3.253 E2.73752
G1 X41.261 Y-2.300 E2.74966
G1 X41.721 Y-1.191 E2.76179
G1 X41.878 Y0.000 E2.77393
G1 X41.721 Y1.191 E2.78606
G1 X41.261 Y2.300 E2.79820
G1 X40.530 Y3.253 E2.81033
G1 X39.577 Y3.985 E2.82247
G1 X38.467 Y4.444 E2.83460
G1 X37.277 Y4.601 E2.84674
G1 X36.086 Y4.444 E2.85887
G1 X34.976 Y3.985 E2.87101
G1 X34.023 Y3.253 E2.88314
G1 X33.292 Y2.300 E2.89528
G1 X32.866 Y1.272 E2.90652
G1 X32.562 Y1.142 F7800.000
G1 X-15.772 Y-3.044 F7800.000
G1 X-14.622 Y-3.135 E2.91818 F1800.000
G1 X-8.807 Y-3.683 E2.97719
G1 X-2.600 Y-4.352 E3.04026
G1 X2.298 Y-4.933 E3.09009
G1 X9.099 Y-5.807 E3.15937
G1 X14.462 Y-6.546 E3.21407
G1 X21.831 Y-7.625 E3.28932
G1 X27.766 Y-8.543 E3.34999
G1 X37.264 Y-8.543 E3.44595
G1 X38.217 Y-8.489 E3.45559
G1 X39.180 Y-8.327 E3.46546 F1800.000
G1 X40.098 Y-8.063 E3.47511
G1 X40.982 Y-7.697 E3.48478
G1 X41.821 Y-7.233 E3.49446
G1 X42.602 Y-6.679 E3.50414
G1 X43.318 Y-6.039 E3.51384
G1 X43.956 Y-5.325 E3.52351
G1 X44.510 Y-4.544 E3.53319
G1 X44.973 Y-3.706 E3.54287
G1 X45.339 Y-2.823 E3.55252
G1 X45.605 Y-1.900 E3.56222
G1 X45.765 Y-0.956 E3.57190
G1 X45.819 Y-0.000 E3.58157
G1 X45.765 Y0.956 E3.59125
G1 X45.605 Y1.900 E3.60093
G1 X45.339 Y2.823 E3.61063
G1 X44.973 Y3.706 E3.62028
G1 X44.510 Y4.544 E3.62996
G1 X43.956 Y5.325 E3.63963
G1 X43.318 Y6.039 E3.64931
G1 X42.602 Y6.679 E3.65901
G1 X41.821 Y7.233 E3.66869
G1 X40.982 Y7.697 E3.67836
G1 X40.098 Y8.063 E3.68804
G1 X39.179 Y8.328 E3.69769
G1 X38.233 Y8.489 E3.70739
G1 X37.264 Y8.543 E3.71720
G1 X30.045 Y8.543 E3.79013
G1 X19.891 Y7.584 E3.89317
G1 X14.757 Y7.067 E3.94531
G1 X9.791 Y6.541 E3.99576
G1 X5.000 Y6.009 E4.04447
G1 X-1.102 Y5.293 E4.10654
G1 X-5.453 Y4.753 E4.15084
G1 X-9.607 Y4.211 E4.19316
G1 X-13.555 Y3.667 E4.23343
G1 X-18.492 Y2.939 E4.28384
G1 X-23.035 Y2.210 E4.33033
G1 X-27.175 Y1.473 E4.37282
G1 X-29.090 Y1.097 E4.39254
G1 X-30.905 Y0.714 E4.41127
G1 X-33.441 Y0.129 E4.43757
G1 X-36.487 Y-0.657 E4.46935
G1 X-38.525 Y-1.233 E4.49075
G1 X-41.559 Y-2.133 E4.52272
G1 X-41.543 Y-2.227 E4.52368
G1 X-40.579 Y-2.179 E4.53344
G1 X-37.763 Y-2.106 E4.56189
G1 X-34.409 Y-2.092 E4.59579
G1 X-30.532 Y-2.162 E4.63496
G1 X-27.295 Y-2.280 E4.66768
G1 X-23.789 Y-2.460 E4.70316
G1 X-20.023 Y-2.706 E4.74128
G1 X-15.817 Y-3.040 E4.78392
G1 X-15.831 Y-3.218 F7800.000
G1 X-14.637 Y-3.313 E4.79601 F1800.000
G1 X-8.825 Y-3.861 E4.85500
G1 X-2.620 Y-4.529 E4.91805
G1 X2.276 Y-5.110 E4.96786
G1 X9.076 Y-5.984 E5.03713
G1 X14.437 Y-6.723 E5.09180
G1 X21.805 Y-7.802 E5.16704
G1 X27.753 Y-8.721 E5.22785
G1 X37.269 Y-8.721 E5.32399
G1 X38.237 Y-8.667 E5.33378
G1 X39.219 Y-8.502 E5.34385 F1800.000
G1 X40.157 Y-8.232 E5.35371
G1 X41.060 Y-7.858 E5.36359
G1 X41.916 Y-7.385 E5.37346
G1 X42.713 Y-6.819 E5.38334
G1 X43.444 Y-6.166 E5.39325
G1 X44.096 Y-5.437 E5.40313
G1 X44.661 Y-4.639 E5.41300
G1 X45.134 Y-3.783 E5.42288
G1 X45.508 Y-2.882 E5.43274
G1 X45.779 Y-1.940 E5.44264
G1 X45.943 Y-0.976 E5.45252
G1 X45.998 Y-0.000 E5.46240
G1 X45.943 Y0.976 E5.47228
G1 X45.779 Y1.940 E5.48216
G1 X45.508 Y2.882 E5.49206
G1 X45.134 Y3.783 E5.50192
G1 X44.661 Y4.639 E5.51180
G1 X44.096 Y5.437 E5.52168
G1 X43.444 Y6.166 E5.53155
G1 X42.713 Y6.819 E5.54146
G1 X41.916 Y7.385 E5.55134
G1 X41.060 Y7.858 E5.56122
G1 X40.157 Y8.232 E5.57109
G1 X39.219 Y8.502 E5.58095
G1 X38.253 Y8.666 E5.59085
G1 X37.269 Y8.721 E5.60081
G1 X30.037 Y8.721 E5.67388
G1 X19.874 Y7.762 E5.77701
G1 X14.739 Y7.244 E5.82916
G1 X9.772 Y6.718 E5.87962
G1 X4.980 Y6.186 E5.92833
G1 X-1.123 Y5.470 E5.99042
G1 X-5.476 Y4.930 E6.03473
G1 X-9.630 Y4.388 E6.07706
G1 X-13.581 Y3.844 E6.11735
G1 X-18.519 Y3.116 E6.16778
G1 X-23.065 Y2.386 E6.21430
G1 X-27.208 Y1.648 E6.25681
G1 X-29.126 Y1.272 E6.27656
G1 X-30.943 Y0.889 E6.29533
G1 X-33.483 Y0.302 E6.32167
G1 X-36.534 Y-0.484 E6.35349
G1 X-38.575 Y-1.061 E6.37492
G1 X-43.031 Y-2.384 E6.42189
G1 X-43.015 Y-2.477 E6.42285
G1 X-40.572 Y-2.358 E6.44756
G1 X-37.761 Y-2.284 E6.47597
G1 X-34.410 Y-2.270 E6.50983
G1 X-30.537 Y-2.340 E6.54896
G1 X-27.303 Y-2.458 E6.58166
G1 X-23.799 Y-2.639 E6.61711
G1 X-20.036 Y-2.884 E6.65521
G1 X-15.876 Y-3.214 E6.69737
G1 X-15.890 Y-3.392 F7800.000
G1 X-14.653 Y-3.491 E6.70991 F1800.000
G1 X-8.842 Y-4.038 E6.76887
G1 X-2.640 Y-4.706 E6.83190
G1 X2.254 Y-5.287 E6.88169
G1 X9.052 Y-6.161 E6.95094
G1 X14.412 Y-6.900 E7.00561
G1 X21.778 Y-7.979 E7.08082
G1 X27.739 Y-8.900 E7.14176
G1 X37.274 Y-8.900 E7.23810
G1 X38.256 Y-8.845 E7.24804
G1 X39.259 Y-8.676 E7.25831 F1800.000
G1 X40.216 Y-8.401 E7.26837
G1 X41.138 Y-8.019 E7.27845
G1 X42.011 Y-7.536 E7.28853
G1 X42.825 Y-6.959 E7.29861
G1 X43.571 Y-6.292 E7.30872
G1 X44.235 Y-5.548 E7.31880
G1 X44.813 Y-4.734 E7.32888
G1 X45.295 Y-3.861 E7.33897
G1 X45.676 Y-2.941 E7.34902
G1 X45.953 Y-1.980 E7.35913
G1 X46.121 Y-0.996 E7.36921
G1 X46.177 Y-0.000 E7.37929
G1 X46.121 Y0.996 E7.38937
G1 X45.953 Y1.980 E7.39946
G1 X45.676 Y2.941 E7.40956
G1 X45.295 Y3.861 E7.41962
G1 X44.813 Y4.734 E7.42970
G1 X44.235 Y5.548 E7.43978
G1 X43.571 Y6.292 E7.44986
G1 X42.825 Y6.959 E7.45997
G1 X42.011 Y7.536 E7.47005
G1 X41.138 Y8.019 E7.48013
G1 X40.216 Y8.401 E7.49022
G1 X39.259 Y8.676 E7.50027
G1 X38.273 Y8.844 E7.51038
G1 X37.274 Y8.900 E7.52049
G1 X30.029 Y8.900 E7.59369
G1 X26.952 Y8.618 E7.62490
G1 X19.856 Y7.940 E7.69692
G1 X14.721 Y7.422 E7.74907
G1 X9.753 Y6.896 E7.79955
G1 X4.960 Y6.364 E7.84827
G1 X-1.145 Y5.647 E7.91036
G1 X-5.499 Y5.107 E7.95469
G1 X-9.654 Y4.565 E7.99703
G1 X-13.606 Y4.021 E8.03733
G1 X-18.546 Y3.292 E8.08779
G1 X-23.095 Y2.562 E8.13433
G1 X-27.241 Y1.824 E8.17688
G1 X-29.162 Y1.447 E8.19665
G1 X-30.982 Y1.063 E8.21545
G1 X-33.526 Y0.476 E8.24183
G1 X-36.580 Y-0.312 E8.27370
G1 X-38.624 Y-0.890 E8.29516
G1 X-44.684 Y-2.680 E8.35899
G1 X-44.667 Y-2.775 E8.35997
G1 X-43.304 Y-2.670 E8.37378
G1 X-40.565 Y-2.536 E8.40148
G1 X-37.758 Y-2.463 E8.42986
G1 X-34.411 Y-2.449 E8.46367
G1 X-30.542 Y-2.519 E8.50277
G1 X-27.311 Y-2.637 E8.53543
G1 X-23.810 Y-2.817 E8.57086
G1 X-20.049 Y-3.062 E8.60893
G1 X-15.935 Y-3.389 E8.65063
G1 X-15.720 Y-3.145 F7800.000
G1 X-30.516 Y-1.619 F7800.000
G1 X-33.988 Y-1.066 F7800.000
G1 X-36.156 Y-1.342 F7800.000
G1 X-36.981 Y-1.456 F7800.000
G1 X-37.018 Y-1.461 F7800.000
G1 X-37.709 Y-1.562 F7800.000
G1 X-44.774 Y-2.745 F7800.000
G1 X-45.720 Y-2.911 E8.66034 F1800.000
G1 X-44.208 Y-2.645 F7800.000
G1 X-43.756 Y-2.562 E8.66497 F1800.000
G1 X-43.756 Y-2.562 F7800.000
G1 X-43.111 Y-2.445 E8.67902 F1800.000
G1 X-42.632 Y-2.364 F7800.000
G1 X-42.240 Y-2.297 E8.68303 F1800.000
G1 X-41.639 Y-2.195 E8.69610 F1800.000
G1 X-41.160 Y-2.113 F7800.000
G1 X-40.768 Y-2.046 E8.70012 F1800.000
G1 X-40.768 Y-2.046 F7800.000
G1 X-40.214 Y-1.956 E8.71215 F1800.000
G1 X-38.633 Y-1.941 F7800.000
G1 X-38.883 Y-1.947 E8.71468 F1800.000
G1 X-38.883 Y-1.535 E8.71884
G1 X-38.633 Y-1.460 E8.72149
G1 X-38.633 Y-1.941 E8.72634
G1 X-33.620 Y-0.246 F7800.000
G1 X-33.620 Y-1.918 E8.74323 F1800.000
G1 X-33.871 Y-1.914 E8.74576
G1 X-33.871 Y-0.246 E8.76261
G1 X-33.955 Y-0.198 E8.76359
G1 X-33.215 Y-0.012 E8.77130
G1 X-33.620 Y-0.246 E8.77603
G1 X-28.608 Y-0.246 F7800.000
G1 X-28.608 Y-2.044 E8.79420 F1800.000
G1 X-28.859 Y-2.035 E8.79673
G1 X-28.859 Y-0.246 E8.81481
G1 X-30.381 Y0.633 E8.83256
G1 X-29.053 Y0.913 E8.84627
G1 X-26.352 Y1.428 E8.87405
G1 X-26.352 Y1.056 E8.87781
G1 X-28.608 Y-0.246 E8.90412
G1 X-23.596 Y-0.246 F7800.000
G1 X-23.596 Y-2.285 E8.92472 F1800.000
G1 X-23.846 Y-2.269 E8.92726
G1 X-23.846 Y-0.246 E8.94770
G1 X-26.102 Y1.056 E8.97402
G1 X-26.102 Y1.473 E8.97823
G1 X-23.004 Y2.025 E9.01002
G1 X-21.340 Y2.292 E9.02705
G1 X-21.340 Y1.056 E9.03953
G1 X-23.596 Y-0.246 E9.06584
G1 X-18.583 Y-0.246 F7800.000
G1 X-18.583 Y-2.632 E9.08995 F1800.000
G1 X-18.834 Y-2.612 E9.09249
G1 X-18.834 Y-0.246 E9.11639
G1 X-21.089 Y1.056 E9.14271
G1 X-21.089 Y2.332 E9.15560
G1 X-18.463 Y2.754 E9.18247
G1 X-16.328 Y3.069 E9.20428
G1 X-16.328 Y1.056 E9.22461
G1 X-18.583 Y-0.246 E9.25092
G1 X-13.571 Y-0.246 F7800.000
G1 X-13.571 Y-3.045 E9.27921 F1800.000
G1 X-13.822 Y-3.022 E9.28175
G1 X-13.822 Y-0.246 E9.30980
G1 X-16.077 Y1.056 E9.33611
G1 X-16.077 Y3.106 E9.35682
G1 X-11.315 Y3.786 E9.40541
G1 X-11.315 Y1.056 E9.43300
G1 X-13.571 Y-0.246 E9.45931
G1 X-8.558 Y-3.285 F7800.000
G1 X-8.055 Y-3.575 E9.46518 F1800.000
G1 X-9.121 Y-3.465 E9.47601
G1 X-8.809 Y-3.285 E9.47965
G1 X-8.809 Y-0.246 E9.51035
G1 X-11.065 Y1.056 E9.53667
G1 X-11.065 Y3.821 E9.56460
G1 X-6.809 Y4.387 E9.60797
G1 X-6.303 Y4.095 E9.61388
G1 X-6.303 Y1.056 E9.64458
G1 X-8.558 Y-0.246 E9.67089
G1 X-8.558 Y-3.285 E9.70159
G1 X-3.546 Y-3.285 F7800.000
G1 X-1.877 Y-4.248 E9.72107 F1800.000
G1 X-4.891 Y-3.916 E9.75170
G1 X-3.797 Y-3.285 E9.76446
G1 X-3.797 Y-0.246 E9.79516
G1 X-6.052 Y1.056 E9.82147
G1 X-6.052 Y4.095 E9.85217
G1 X-5.181 Y4.598 E9.86233
G1 X-2.695 Y4.906 E9.88764
G1 X-1.291 Y4.095 E9.90403
G1 X-1.291 Y1.056 E9.93473
G1 X-3.546 Y-0.246 E9.96105
G1 X-3.546 Y-3.285 E9.99175
G1 X3.722 Y-4.587 F7800.000
G1 X3.722 Y-4.926 E9.99518 F1800.000
G1 X-0.696 Y-4.388 E10.04014
G1 X1.216 Y-3.285 E10.06245
G1 X1.216 Y-0.246 E10.09315
G1 X-1.040 Y1.056 E10.11946
G1 X-1.040 Y4.095 E10.15016
G1 X1.169 Y5.370 E10.17593
G1 X1.466 Y5.405 E10.17896
G1 X3.722 Y4.095 E10.20531
G1 X3.722 Y1.056 E10.23601
G1 X1.466 Y-0.246 E10.26232
G1 X1.466 Y-3.285 E10.29302
G1 X3.722 Y-4.587 E10.31934
G1 X8.734 Y-4.587 F7800.000
G1 X8.734 Y-5.571 E10.32928 F1800.000
G1 X3.972 Y-4.959 E10.37779
G1 X3.972 Y-4.587 E10.38154
G1 X6.228 Y-3.285 E10.40786
G1 X6.228 Y-0.246 E10.43856
G1 X3.972 Y1.056 E10.46487
G1 X3.972 Y4.095 E10.49557
G1 X6.228 Y5.397 E10.52189
G1 X6.228 Y5.956 E10.52753
G1 X6.479 Y5.984 E10.53008
G1 X6.479 Y5.397 E10.53601
G1 X8.734 Y4.095 E10.56232
G1 X8.734 Y1.056 E10.59302
G1 X6.479 Y-0.246 E10.61934
G1 X6.479 Y-3.285 E10.65004
G1 X8.734 Y-4.587 E10.67635
G1 X13.747 Y-4.587 F7800.000
G1 X13.747 Y-6.258 E10.69324 F1800.000
G1 X8.985 Y-5.603 E10.74180
G1 X8.985 Y-4.587 E10.75207
G1 X11.240 Y-3.285 E10.77838
G1 X11.240 Y-0.246 E10.80908
G1 X8.985 Y1.056 E10.83540
G1 X8.985 Y4.095 E10.86610
G1 X11.240 Y5.397 E10.89241
G1 X11.240 Y6.505 E10.90361
G1 X11.491 Y6.532 E10.90616
G1 X11.491 Y5.397 E10.91762
G1 X13.747 Y4.095 E10.94394
G1 X13.747 Y1.056 E10.97464
G1 X11.491 Y-0.246 E11.00095
G1 X11.491 Y-3.285 E11.03165
G1 X13.747 Y-4.587 E11.05796
G1 X18.759 Y-4.587 F7800.000
G1 X18.759 Y-6.986 E11.08220 F1800.000
G1 X13.997 Y-6.293 E11.13082
G1 X13.997 Y-4.587 E11.14805
G1 X16.253 Y-3.285 E11.17437
G1 X16.253 Y-0.246 E11.20507
G1 X13.997 Y1.056 E11.23138
G1 X13.997 Y4.095 E11.26208
G1 X16.253 Y5.397 E11.28840
G1 X16.253 Y7.029 E11.30488
G1 X16.503 Y7.054 E11.30743
G1 X16.503 Y5.397 E11.32416
G1 X18.759 Y4.095 E11.35048
G1 X18.759 Y1.056 E11.38118
G1 X16.503 Y-0.246 E11.40749
G1 X16.503 Y-3.285 E11.43819
G1 X18.759 Y-4.587 E11.46451
G1 X23.771 Y-7.625 F7800.000
G1 X23.621 Y-7.712 E11.46626 F1800.000
G1 X19.010 Y-7.022 E11.51337
G1 X19.010 Y-4.587 E11.53798
G1 X21.265 Y-3.285 E11.56429
G1 X21.265 Y-0.246 E11.59499
G1 X19.010 Y1.056 E11.62131
G1 X19.010 Y4.095 E11.65201
G1 X21.265 Y5.397 E11.67832
G1 X21.265 Y7.526 E11.69982
G1 X21.516 Y7.549 E11.70237
G1 X21.516 Y5.397 E11.72411
G1 X23.771 Y4.095 E11.75042
G1 X23.771 Y1.056 E11.78112
G1 X21.516 Y-0.246 E11.80744
G1 X21.516 Y-3.285 E11.83814
G1 X23.771 Y-4.587 E11.86445
G1 X23.771 Y-7.625 E11.89515
G1 X28.784 Y-7.625 F7800.000
G1 X27.575 Y-8.323 E11.90925 F1800.000
G1 X24.374 Y-7.828 E11.94198
