; generated by Slic3r 1.2.9 on 2016-07-14 at 20:04:58

; external perimeters extrusion width = 0.30mm
; perimeters extrusion width = 0.31mm
; infill extrusion width = 0.31mm
; solid infill extrusion width = 0.31mm
; top infill extrusion width = 0.31mm

M107
M104 S215 ; set temperature
G28 ; home all axes
G1 Z5 F5000 ; lift nozzle

M109 S215 ; wait for temperature to be reached
G21 ; set units to millimeters
G90 ; use absolute coordinates
M82 ; use absolute distances for extrusion
G92 E0
G1 E-2.00000 F2400.00000
G92 E0
G1 Z0.100 F7800.000
G1 X-1.434 Y-11.936 F7800.000
G1 E2.00000 F2400.00000
G1 X5.844 Y-12.782 E2.07402 F1800.000
G1 X14.070 Y-13.667 E2.15761
G1 X21.002 Y-14.360 E2.22800
G1 X29.465 Y-15.153 E2.31387
G1 X30.024 Y-15.179 E2.31953
G1 X37.623 Y-15.169 E2.39630
G1 X38.631 Y-15.112 E2.40650 F1800.000
G1 X39.249 Y-15.046 E2.41278
G1 X40.314 Y-14.866 E2.42370
G1 X40.879 Y-14.742 E2.42954
G1 X41.959 Y-14.432 E2.44089
G1 X42.615 Y-14.203 E2.44792
G1 X43.545 Y-13.817 E2.45809
G1 X43.987 Y-13.614 E2.46300
G1 X45.426 Y-12.805 E2.47968
G1 X46.784 Y-11.832 E2.49655
G1 X47.757 Y-10.972 E2.50968
G1 X48.248 Y-10.480 E2.51670
G1 X48.919 Y-9.729 E2.52687
G1 X49.353 Y-9.186 E2.53390
G1 X50.083 Y-8.147 E2.54672
G1 X50.895 Y-6.701 E2.56348
G1 X51.479 Y-5.339 E2.57846
G1 X51.709 Y-4.682 E2.58548
G1 X52.020 Y-3.598 E2.59689
G1 X52.142 Y-3.037 E2.60268
G1 X52.323 Y-1.973 E2.61359
G1 X52.389 Y-1.354 E2.61988
G1 X52.447 Y-0.317 E2.63037
G1 X52.445 Y0.349 E2.63710
G1 X52.389 Y1.354 E2.64727
G1 X52.323 Y1.973 E2.65356
G1 X52.142 Y3.037 E2.66446
G1 X52.020 Y3.598 E2.67026
G1 X51.709 Y4.682 E2.68166
G1 X51.542 Y5.180 E2.68696
G1 X51.094 Y6.269 E2.69886
G1 X50.896 Y6.700 E2.70365
G1 X50.305 Y7.776 E2.71606
G1 X49.935 Y8.365 E2.72308
G1 X49.116 Y9.498 E2.73720
G1 X48.010 Y10.732 E2.75395
G1 X46.786 Y11.831 E2.77057
G1 X45.642 Y12.659 E2.78484
G1 X45.053 Y13.029 E2.79186
G1 X43.989 Y13.612 E2.80412
G1 X43.545 Y13.817 E2.80906
G1 X42.462 Y14.264 E2.82090
G1 X41.959 Y14.432 E2.82626
G1 X40.879 Y14.742 E2.83761
G1 X40.314 Y14.866 E2.84345
G1 X39.249 Y15.046 E2.85437
G1 X38.631 Y15.112 E2.86065
G1 X37.623 Y15.169 E2.87085
G1 X27.731 Y15.179 E2.97079
G1 X27.232 Y15.158 E2.97583
G1 X-46.776 Y9.158 E3.72601
G1 X-48.915 Y8.587 E3.74838
G1 X-50.716 Y7.298 E3.77075
G1 X-51.946 Y5.457 E3.79312
G1 X-52.448 Y3.300 E3.81550
G1 X-52.158 Y1.105 E3.83787
G1 X-51.112 Y-0.847 E3.86024
G1 X-49.445 Y-2.304 E3.88261
G1 X-47.994 Y-2.935 E3.89859
G1 X-39.677 Y-5.341 E3.98607
G1 X-36.691 Y-6.155 E4.01734
G1 X-34.985 Y-6.582 E4.03511
G1 X-33.222 Y-6.996 E4.05340
G1 X-31.358 Y-7.404 E4.07268
G1 X-29.402 Y-7.801 E4.09285
G1 X-27.358 Y-8.188 E4.11387
G1 X-24.125 Y-8.755 E4.14703
G1 X-20.705 Y-9.311 E4.18203
G1 X-17.049 Y-9.867 E4.21940
G1 X-13.184 Y-10.420 E4.25884
G1 X-9.118 Y-10.970 E4.30030
G1 X-1.478 Y-11.931 E4.37809
G1 F6240
G1 X3.687 Y-12.531 E2.47809
G1 E2.37809 F2400.00000
G92 E0
G1 X32.485 Y-1.284 F7800.000
G1 E2.00000 F2400.00000
G1 X32.980 Y-2.481 E2.01308 F1800.000
G1 X33.769 Y-3.508 E2.02617
G1 X34.796 Y-4.296 E2.03925
G1 X35.993 Y-4.792 E2.05234
G1 X37.277 Y-4.961 E2.06542 F1800.000
G1 X38.561 Y-4.792 E2.07851
G1 X39.757 Y-4.296 E2.09159
G1 X40.785 Y-3.508 E2.10468
G1 X41.573 Y-2.481 E2.11776
G1 X42.069 Y-1.284 E2.13085
G1 X42.238 Y0.000 E2.14393
G1 X42.069 Y1.284 E2.15702
G1 X41.573 Y2.481 E2.17010
G1 X40.785 Y3.508 E2.18319
G1 X39.757 Y4.296 E2.19627
G1 X38.561 Y4.792 E2.20936
G1 X37.277 Y4.961 E2.22244
G1 X35.993 Y4.792 E2.23553
G1 X34.796 Y4.296 E2.24861
G1 X33.769 Y3.508 E2.26170
G1 X32.980 Y2.481 E2.27478
G1 X32.485 Y1.284 E2.28787
G1 X32.316 Y-0.000 E2.30095
G1 X32.479 Y-1.239 E2.31358
G1 X32.656 Y-1.216 F7800.000
G1 X33.136 Y-2.391 E2.32640 F1800.000
G1 X33.896 Y-3.381 E2.33901
G1 X34.886 Y-4.140 E2.35162
G1 X36.039 Y-4.618 E2.36423
G1 X37.277 Y-4.781 E2.37684 F1800.000
G1 X38.514 Y-4.618 E2.38945
G1 X39.667 Y-4.140 E2.40206
G1 X40.657 Y-3.381 E2.41467
G1 X41.417 Y-2.391 E2.42728
G1 X41.895 Y-1.237 E2.43989
G1 X42.058 Y0.000 E2.45250
G1 X41.895 Y1.237 E2.46511
G1 X41.417 Y2.391 E2.47772
G1 X40.657 Y3.381 E2.49033
G1 X39.667 Y4.140 E2.50294
G1 X38.514 Y4.618 E2.51555
G1 X37.277 Y4.781 E2.52816
G1 X36.039 Y4.618 E2.54077
G1 X34.886 Y4.140 E2.55338
G1 X33.896 Y3.381 E2.56599
G1 X33.136 Y2.391 E2.57860
G1 X32.659 Y1.237 E2.59121
G1 X32.496 Y-0.000 E2.60382
G1 X32.650 Y-1.171 E2.61576
G1 X32.827 Y-1.148 F7800.000
G1 X33.292 Y-2.300 E2.62831 F1800.000
G1 X34.023 Y-3.253 E2.64045
G1 X34.976 Y-3.985 E2.65258
G1 X36.086 Y-4.444 E2.66472
G1 X37.277 Y-4.601 E2.67685 F1800.000
G1 X38.467 Y-4.444 E2.68899
G1 X39.577 Y-3.985 E2.70112
G1 X40.530 Y-3.253 E2.71326
G1 X41.261 Y-2.300 E2.72539
G1 X41.721 Y-1.191 E2.73752
G1 X41.878 Y0.000 E2.74966
G1 X41.721 Y1.191 E2.76180
G1 X41.261 Y2.300 E2.77393
G1 X40.530 Y3.253 E2.78606
G1 X39.577 Y3.985 E2.79820
G1 X38.467 Y4.444 E2.81033
G1 X37.277 Y4.601 E2.82247
G1 X36.086 Y4.444 E2.83460
G1 X34.976 Y3.985 E2.84674
G1 X34.023 Y3.253 E2.85887
G1 X33.292 Y2.300 E2.87101
G1 X32.833 Y1.191 E2.88314
G1 X32.676 Y-0.000 E2.89528
G1 X32.821 Y-1.104 E2.90652
G1 X32.623 Y-1.368 F7800.000
G1 F6240
G1 X33.292 Y-2.300 E2.43654
G1 F6240
G1 X34.023 Y-3.253 E1.99767
G1 F6240
G1 X34.976 Y-3.985 E1.55881
G1 F6240
G1 X36.086 Y-4.444 E1.11995
G1 E0.90652 F2400.00000
G92 E0
G1 X41.172 Y3.895 F7800.000
G1 X42.159 Y4.653 F7800.000
G1 X42.987 Y3.587 F7800.000
G1 X44.050 Y4.255 F7800.000
G1 X45.008 Y3.622 F7800.000
G1 E2.00000 F2400.00000
G1 X44.510 Y4.544 E2.01059 F1800.000
G1 X43.956 Y5.325 E2.02026
G1 X43.318 Y6.039 E2.02994
G1 X42.602 Y6.679 E2.03964
G1 X41.821 Y7.233 E2.04931
G1 X40.982 Y7.697 E2.05899
G1 X40.098 Y8.063 E2.06867
G1 X39.179 Y8.328 E2.07832
G1 X38.233 Y8.489 E2.08802
G1 X37.264 Y8.543 E2.09783
G1 X27.766 Y8.543 E2.19378
G1 X21.831 Y7.625 E2.25446
G1 X14.462 Y6.546 E2.32971
G1 X9.128 Y5.811 E2.38411
G1 X2.298 Y4.933 E2.45368
G1 X-2.600 Y4.352 E2.50352
G1 X-8.807 Y3.683 E2.56658
G1 X-14.622 Y3.135 E2.62560
G1 X-20.023 Y2.706 E2.68034
G1 X-23.789 Y2.460 E2.71847
G1 X-27.295 Y2.280 E2.75394
G1 X-30.532 Y2.162 E2.78667
G1 X-34.409 Y2.092 E2.82584
G1 X-37.763 Y2.106 E2.85973
G1 X-40.579 Y2.179 E2.88819
G1 X-41.543 Y2.227 E2.89794
G1 X-41.559 Y2.133 E2.89890
G1 X-38.525 Y1.233 E2.93087
G1 X-36.487 Y0.656 E2.95227
G1 X-33.441 Y-0.129 E2.98405
G1 X-30.905 Y-0.714 E3.01035
G1 X-29.090 Y-1.097 E3.02908
G1 X-27.175 Y-1.473 E3.04880
G1 X-23.035 Y-2.210 E3.09129
G1 X-18.492 Y-2.939 E3.13778
G1 X-13.555 Y-3.667 E3.18819
G1 X-9.607 Y-4.211 E3.22846
G1 X-5.453 Y-4.753 E3.27078
G1 X-1.102 Y-5.293 E3.31508
G1 X5.000 Y-6.009 E3.37715
G1 X9.791 Y-6.541 E3.42586
G1 X14.757 Y-7.067 E3.47631
G1 X19.891 Y-7.584 E3.52845
G1 X30.045 Y-8.543 E3.63149
G1 X37.264 Y-8.543 E3.70442
G1 X38.217 Y-8.489 E3.71406
G1 X39.180 Y-8.327 E3.72393 F1800.000
G1 X40.098 Y-8.063 E3.73358
G1 X40.982 Y-7.697 E3.74326
G1 X41.821 Y-7.233 E3.75293
G1 X42.602 Y-6.679 E3.76261
G1 X43.318 Y-6.039 E3.77231
G1 X43.956 Y-5.325 E3.78199
G1 X44.510 Y-4.544 E3.79166
G1 X44.973 Y-3.706 E3.80134
G1 X45.339 Y-2.823 E3.81099
G1 X45.605 Y-1.900 E3.82069
G1 X45.765 Y-0.956 E3.83037
G1 X45.819 Y-0.000 E3.84005
G1 X45.765 Y0.956 E3.84972
G1 X45.605 Y1.900 E3.85940
G1 X45.339 Y2.823 E3.86910
G1 X45.025 Y3.581 E3.87738
G1 X45.190 Y3.649 F7800.000
G1 X45.134 Y3.783 E3.87885 F1800.000
G1 X44.661 Y4.639 E3.88873
G1 X44.096 Y5.437 E3.89861
G1 X43.444 Y6.166 E3.90849
G1 X42.713 Y6.819 E3.91839
G1 X41.916 Y7.385 E3.92827
G1 X41.060 Y7.858 E3.93815
G1 X40.157 Y8.232 E3.94803
G1 X39.219 Y8.502 E3.95789
G1 X38.253 Y8.666 E3.96779
G1 X37.269 Y8.721 E3.97775
G1 X27.753 Y8.721 E4.07389
G1 X21.805 Y7.802 E4.13470
G1 X14.437 Y6.723 E4.20993
G1 X9.105 Y5.988 E4.26432
G1 X2.276 Y5.110 E4.33388
G1 X-2.620 Y4.529 E4.38369
G1 X-8.825 Y3.861 E4.44674
G1 X-14.637 Y3.313 E4.50573
G1 X-20.036 Y2.884 E4.56044
G1 X-23.799 Y2.639 E4.59854
G1 X-27.303 Y2.458 E4.63399
G1 X-30.537 Y2.340 E4.66669
G1 X-34.410 Y2.270 E4.70582
G1 X-37.761 Y2.284 E4.73968
G1 X-40.572 Y2.358 E4.76809
G1 X-43.015 Y2.477 E4.79280
G1 X-43.031 Y2.383 E4.79376
G1 X-38.575 Y1.061 E4.84072
G1 X-36.534 Y0.484 E4.86215
G1 X-33.483 Y-0.302 E4.89398
G1 X-30.943 Y-0.889 E4.92032
G1 X-29.126 Y-1.272 E4.93908
G1 X-27.208 Y-1.648 E4.95883
G1 X-23.065 Y-2.386 E5.00134
G1 X-18.519 Y-3.116 E5.04786
G1 X-13.581 Y-3.844 E5.09830
G1 X-9.630 Y-4.388 E5.13858
G1 X-5.476 Y-4.930 E5.18091
G1 X-1.123 Y-5.470 E5.22522
G1 X4.980 Y-6.186 E5.28731
G1 X9.772 Y-6.718 E5.33602
G1 X14.739 Y-7.244 E5.38649
G1 X19.874 Y-7.762 E5.43863
G1 X30.037 Y-8.721 E5.54176
G1 X37.269 Y-8.721 E5.61483
G1 X38.237 Y-8.667 E5.62462
G1 X39.219 Y-8.502 E5.63469 F1800.000
G1 X40.157 Y-8.232 E5.64455
G1 X41.060 Y-7.858 E5.65443
G1 X41.916 Y-7.385 E5.66431
G1 X42.713 Y-6.819 E5.67418
G1 X43.444 Y-6.166 E5.68409
G1 X44.096 Y-5.437 E5.69397
G1 X44.661 Y-4.639 E5.70385
G1 X45.134 Y-3.783 E5.71372
G1 X45.508 Y-2.882 E5.72358
G1 X45.779 Y-1.940 E5.73348
G1 X45.943 Y-0.976 E5.74336
G1 X45.998 Y-0.000 E5.75324
G1 X45.943 Y0.976 E5.76312
G1 X45.779 Y1.940 E5.77300
G1 X45.508 Y2.882 E5.78290
G1 X45.207 Y3.607 E5.79083
G1 X45.372 Y3.676 F7800.000
G1 X45.295 Y3.861 E5.79286 F1800.000
G1 X44.813 Y4.734 E5.80294
G1 X44.235 Y5.548 E5.81302
G1 X43.571 Y6.292 E5.82310
G1 X42.825 Y6.959 E5.83321
G1 X42.011 Y7.536 E5.84329
G1 X41.138 Y8.019 E5.85337
G1 X40.216 Y8.401 E5.86345
G1 X39.259 Y8.676 E5.87351
G1 X38.273 Y8.844 E5.88362
G1 X37.274 Y8.900 E5.89373
G1 X27.739 Y8.900 E5.99006
G1 X21.778 Y7.979 E6.05100
G1 X14.412 Y6.900 E6.12622
G1 X9.081 Y6.165 E6.18059
G1 X2.254 Y5.287 E6.25013
G1 X-2.640 Y4.706 E6.29993
G1 X-8.842 Y4.038 E6.36295
G1 X-14.653 Y3.491 E6.42191
G1 X-20.049 Y3.062 E6.47661
G1 X-23.810 Y2.817 E6.51468
G1 X-27.311 Y2.637 E6.55010
G1 X-30.542 Y2.519 E6.58277
G1 X-34.411 Y2.449 E6.62187
G1 X-37.758 Y2.463 E6.65568
G1 X-40.565 Y2.536 E6.68405
G1 X-43.297 Y2.670 E6.71169
G1 X-44.667 Y2.775 E6.72557
G1 X-44.684 Y2.680 E6.72655
G1 X-38.624 Y0.890 E6.79038
G1 X-36.580 Y0.312 E6.81185
G1 X-33.526 Y-0.476 E6.84372
G1 X-30.982 Y-1.063 E6.87010
G1 X-29.162 Y-1.447 E6.88889
G1 X-27.241 Y-1.824 E6.90867
G1 X-23.095 Y-2.562 E6.95121
G1 X-18.546 Y-3.292 E6.99776
G1 X-13.606 Y-4.021 E7.04821
G1 X-9.654 Y-4.565 E7.08851
G1 X-5.499 Y-5.107 E7.13085
G1 X-1.145 Y-5.647 E7.17518
G1 X4.960 Y-6.364 E7.23728
G1 X9.753 Y-6.896 E7.28600
G1 X14.721 Y-7.422 E7.33647
G1 X19.856 Y-7.940 E7.38862
G1 X26.952 Y-8.618 E7.46064
G1 X30.029 Y-8.900 E7.49186
G1 X37.274 Y-8.900 E7.56506
G1 X38.256 Y-8.845 E7.57500
G1 X39.259 Y-8.676 E7.58527 F1800.000
G1 X40.216 Y-8.401 E7.59533
G1 X41.138 Y-8.019 E7.60541
G1 X42.011 Y-7.536 E7.61549
G1 X42.825 Y-6.959 E7.62557
G1 X43.571 Y-6.292 E7.63568
G1 X44.235 Y-5.548 E7.64576
G1 X44.813 Y-4.734 E7.65584
G1 X45.295 Y-3.861 E7.66592
G1 X45.676 Y-2.941 E7.67598
G1 X45.953 Y-1.980 E7.68609
G1 X46.121 Y-0.996 E7.69617
G1 X46.177 Y-0.000 E7.70625
G1 X46.121 Y0.996 E7.71633
G1 X45.953 Y1.980 E7.72641
G1 X45.676 Y2.941 E7.73652
G1 X45.389 Y3.634 E7.74410
G1 X45.173 Y3.702 F7800.000
G1 F6240
G1 X45.295 Y3.861 E7.65440
G1 F6240
G1 X44.813 Y4.734 E7.28979
G1 F6240
G1 X44.235 Y5.548 E6.92518
G1 F6240
G1 X43.571 Y6.292 E6.56058
G1 F6240
G1 X42.825 Y6.959 E6.19512
G1 F6240
G1 X42.041 Y7.515 E5.84410
G1 E5.74410 F2400.00000
G92 E0
G1 X42.264 Y6.253 F7800.000
G1 X33.426 Y6.199 F7800.000
G1 X15.431 Y-0.242 F7800.000
G1 X7.230 Y-0.356 F7800.000
G1 X2.958 Y-0.382 F7800.000
G1 X1.251 Y-0.385 F7800.000
G1 X-0.407 Y-0.384 F7800.000
G1 X-0.927 Y3.999 F7800.000
G1 X-44.774 Y2.745 F7800.000
G1 E2.00000 F2400.00000
G1 X-45.720 Y2.911 E2.00970 F1800.000
G1 X-44.208 Y2.645 F7800.000
G1 X-43.757 Y2.562 E2.01434 F1800.000
G1 X-43.757 Y2.562 F7800.000
G1 X-43.111 Y2.445 E2.02840 F1800.000
G1 X-42.632 Y2.364 F7800.000
G1 X-42.240 Y2.297 E2.03242 F1800.000
G1 X-42.240 Y2.297 F7800.000
G1 X-41.639 Y2.195 E2.04548 F1800.000
G1 X-41.160 Y2.113 F7800.000
G1 X-40.768 Y2.046 E2.04950 F1800.000
G1 X-40.768 Y2.046 F7800.000
G1 X-40.214 Y1.956 E2.06152 F1800.000
G1 X-36.377 Y1.056 F7800.000
G1 X-36.651 Y0.898 E2.06472 F1800.000
G1 X-40.037 Y1.877 E2.10032
G1 X-40.021 Y1.977 E2.10135
G1 X-37.766 Y1.918 E2.12413
G1 X-36.377 Y1.912 E2.13817
G1 X-36.377 Y1.056 E2.14681
G1 X-31.365 Y1.056 F7800.000
G1 X-33.186 Y0.005 E2.16805 F1800.000
G1 X-35.191 Y0.516 E2.18897
G1 X-36.127 Y1.056 E2.19988
G1 X-36.127 Y1.911 E2.20851
G1 X-34.407 Y1.904 E2.22588
G1 X-31.365 Y1.959 E2.25663
G1 X-31.365 Y1.056 E2.26575
G1 X-28.608 Y-0.246 F7800.000
G1 X-28.608 Y-1.000 E2.27337 F1800.000
G1 X-28.859 Y-0.951 E2.27595
G1 X-28.859 Y-0.246 E2.28307
G1 X-31.114 Y1.056 E2.30939
G1 X-31.114 Y1.964 E2.31855
G1 X-27.287 Y2.092 E2.35724
G1 X-26.352 Y2.140 E2.36670
G1 X-26.352 Y1.056 E2.37765
G1 X-28.608 Y-0.246 E2.40396
G1 X-23.596 Y-0.246 F7800.000
G1 X-23.596 Y-1.919 E2.42087 F1800.000
G1 X-23.846 Y-1.875 E2.42344
G1 X-23.846 Y-0.246 E2.43990
G1 X-26.102 Y1.056 E2.46621
G1 X-26.102 Y2.153 E2.47730
G1 X-23.778 Y2.273 E2.50081
G1 X-21.340 Y2.432 E2.52549
G1 X-21.340 Y1.056 E2.53939
G1 X-23.596 Y-0.246 E2.56570
G1 X-18.583 Y-0.246 F7800.000
G1 X-18.583 Y-2.735 E2.59084 F1800.000
G1 X-18.834 Y-2.694 E2.59341
G1 X-18.834 Y-0.246 E2.61814
G1 X-21.089 Y1.056 E2.64446
G1 X-21.089 Y2.448 E2.65852
G1 X-16.328 Y2.811 E2.70677
G1 X-16.328 Y1.056 E2.72450
G1 X-18.583 Y-0.246 E2.75081
G1 X-13.571 Y-3.285 F7800.000
G1 X-13.136 Y-3.536 E2.75589 F1800.000
G1 X-14.034 Y-3.407 E2.76505
G1 X-13.822 Y-3.285 E2.76752
G1 X-13.822 Y-0.246 E2.79822
G1 X-16.077 Y1.056 E2.82454
G1 X-16.077 Y2.831 E2.84247
G1 X-14.606 Y2.948 E2.85738
G1 X-11.315 Y3.258 E2.89077
G1 X-11.315 Y1.056 E2.91301
G1 X-13.571 Y-0.246 E2.93933
G1 X-13.571 Y-3.285 E2.97003
G1 X-8.558 Y-3.285 F7800.000
G1 X-6.602 Y-4.414 E2.99285 F1800.000
G1 X-9.994 Y-3.968 E3.02741
G1 X-8.809 Y-3.285 E3.04123
G1 X-8.809 Y-0.246 E3.07193
G1 X-11.065 Y1.056 E3.09824
G1 X-11.065 Y3.282 E3.12072
G1 X-8.788 Y3.496 E3.14383
G1 X-6.303 Y3.764 E3.16908
G1 X-6.303 Y1.056 E3.19644
G1 X-8.558 Y-0.246 E3.22275
G1 X-8.558 Y-3.285 E3.25345
G1 X-1.291 Y-4.587 F7800.000
G1 X-1.291 Y-5.080 E3.25844 F1800.000
G1 X-5.909 Y-4.504 E3.30546
G1 X-3.797 Y-3.285 E3.33011
G1 X-3.797 Y-0.246 E3.36081
G1 X-6.052 Y1.056 E3.38713
G1 X-6.052 Y3.791 E3.41475
G1 X-1.611 Y4.280 E3.45990
G1 X-1.291 Y4.095 E3.46363
G1 X-1.291 Y1.056 E3.49433
G1 X-3.546 Y-0.246 E3.52065
G1 X-3.546 Y-3.285 E3.55135
G1 X-1.291 Y-4.587 E3.57766
G1 X3.722 Y-4.587 F7800.000
G1 X3.722 Y-5.670 E3.58860 F1800.000
G1 X-1.040 Y-5.111 E3.63704
G1 X-1.040 Y-4.587 E3.64234
G1 X1.216 Y-3.285 E3.66865
G1 X1.216 Y-0.246 E3.69935
G1 X-1.040 Y1.056 E3.72567
G1 X-1.040 Y4.095 E3.75637
G1 X-0.489 Y4.413 E3.76279
G1 X2.544 Y4.775 E3.79366
G1 X3.722 Y4.095 E3.80740
G1 X3.722 Y1.056 E3.83810
G1 X1.466 Y-0.246 E3.86441
G1 X1.466 Y-3.285 E3.89511
G1 X3.722 Y-4.587 E3.92142
G1 X8.734 Y-4.587 F7800.000
G1 X8.734 Y-6.235 E3.93807 F1800.000
G1 X3.972 Y-5.699 E3.98649
G1 X3.972 Y-4.587 E3.99772
G1 X6.228 Y-3.285 E4.02404
G1 X6.228 Y-0.246 E4.05474
G1 X3.972 Y1.056 E4.08105
G1 X3.972 Y4.095 E4.11175
G1 X5.897 Y5.206 E4.13421
G1 X6.643 Y5.302 E4.14181
G1 X8.734 Y4.095 E4.16620
G1 X8.734 Y1.056 E4.19690
G1 X6.479 Y-0.246 E4.22321
G1 X6.479 Y-3.285 E4.25391
G1 X8.734 Y-4.587 E4.28023
G1 X13.747 Y-4.587 F7800.000
G1 X13.747 Y-6.771 E4.30229 F1800.000
G1 X8.985 Y-6.262 E4.35068
G1 X8.985 Y-4.587 E4.36761
G1 X11.240 Y-3.285 E4.39392
G1 X11.240 Y-0.246 E4.42462
G1 X8.985 Y1.056 E4.45093
G1 X8.985 Y4.095 E4.48163
G1 X11.240 Y5.397 E4.50795
G1 X11.240 Y5.913 E4.51316
G1 X11.491 Y5.947 E4.51571
G1 X11.491 Y5.397 E4.52127
G1 X13.747 Y4.095 E4.54758
G1 X13.747 Y1.056 E4.57828
G1 X11.491 Y-0.246 E4.60460
G1 X11.491 Y-3.285 E4.63530
G1 X13.747 Y-4.587 E4.66161
G1 X18.759 Y-4.587 F7800.000
G1 X18.759 Y-7.282 E4.68884 F1800.000
G1 X13.997 Y-6.797 E4.73719
G1 X13.997 Y-4.587 E4.75953
G1 X16.253 Y-3.285 E4.78584
G1 X16.253 Y-0.246 E4.81654
G1 X13.997 Y1.056 E4.84286
G1 X13.997 Y4.095 E4.87356
G1 X16.253 Y5.397 E4.89987
G1 X16.253 Y6.619 E4.91221
G1 X16.503 Y6.655 E4.91477
G1 X16.503 Y5.397 E4.92748
G1 X18.759 Y4.095 E4.95380
G1 X18.759 Y1.056 E4.98450
G1 X16.503 Y-0.246 E5.01081
G1 X16.503 Y-3.285 E5.04151
