; generated by Slic3r 1.2.9 on 2016-07-14 at 18:00:13

; external perimeters extrusion width = 0.30mm
; perimeters extrusion width = 0.31mm
; infill extrusion width = 0.31mm
; solid infill extrusion width = 0.31mm
; top infill extrusion width = 0.31mm

M107
M104 S215 ; set temperature
G28 ; home all axes
G1 Z5 F5000 ; lift nozzle

M109 S215 ; wait for temperature to be reached
G21 ; set units to millimeters
G90 ; use absolute coordinates
M82 ; use absolute distances for extrusion
G92 E0
G1 E-2.00000 F2400.00000
G92 E0
G1 Z0.100 F7800.000
G1 X0.000 Y36.179 F7800.000
G1 E2.00000 F2400.00000
G1 X-55.971 Y36.179 E2.56549 F1800.000
G1 X-58.150 Y35.782 E2.58786
G1 X-60.048 Y34.642 E2.61023
G1 X-61.423 Y32.907 E2.63261
G1 X-62.150 Y30.000 E2.66288
G1 X-62.150 Y-30.000 E3.26908
G1 X-61.753 Y-32.178 E3.29145
G1 X-60.614 Y-34.077 E3.31382
G1 X-58.878 Y-35.452 E3.33619
G1 X-55.971 Y-36.179 E3.36646
G1 X54.029 Y-36.179 E4.47782
G1 X56.207 Y-35.782 E4.50019
G1 X58.106 Y-34.642 E4.52256 F1800.000
G1 X59.890 Y-31.954 E4.55517
G1 X61.833 Y-26.127 E4.61722
G1 X62.149 Y-24.054 E4.63841
G1 X61.159 Y27.262 E5.15697
G1 X60.843 Y29.097 E5.17578
G1 X59.890 Y31.954 E5.20620
G1 X58.825 Y33.895 E5.22857
G1 X57.144 Y35.336 E5.25094
G1 X54.029 Y36.179 E5.28355
G1 X0.045 Y36.179 E5.82896
G1 F6240
G1 X-5.155 Y36.179 E3.92896
G1 E3.82896 F2400.00000
G92 E0
G1 X-55.337 Y29.543 F7800.000
G1 E2.00000 F2400.00000
G1 X-49.665 Y12.526 E2.18122 F1800.000
G1 X-24.077 Y17.552 E2.44468
G1 X-17.563 Y18.800 E2.51169 F1800.000
G1 X-11.089 Y20.005 E2.57822
G1 X-4.662 Y21.150 E2.64418
G1 X1.714 Y22.223 E2.70950
G1 X8.033 Y23.217 E2.77413
G1 X12.208 Y23.830 E2.81676
G1 X18.437 Y24.676 E2.88028
G1 X24.594 Y25.423 E2.94294
G1 X30.680 Y26.069 E3.00478
G1 X34.699 Y26.441 E3.04556
G1 X40.662 Y26.911 E3.10598
G1 X44.596 Y27.164 E3.14581
G1 X50.428 Y27.452 E3.20480
G1 X54.354 Y27.580 E3.24449
G1 X53.699 Y29.543 E3.26540
G1 X-55.292 Y29.543 E4.36657
G1 X-55.292 Y29.721 F7800.000
G1 X-55.585 Y29.721 E4.36952 F1800.000
G1 X-49.785 Y12.321 E4.55484
G1 X-24.043 Y17.377 E4.81988
G1 X-17.530 Y18.625 E4.88688 F1800.000
G1 X-11.057 Y19.829 E4.95340
G1 X-4.631 Y20.974 E5.01934
G1 X1.742 Y22.047 E5.08464
G1 X8.060 Y23.041 E5.14926
G1 X12.232 Y23.653 E5.19186
G1 X18.460 Y24.498 E5.25536
G1 X24.614 Y25.246 E5.31799
G1 X30.698 Y25.891 E5.37981
G1 X34.715 Y26.263 E5.42056
G1 X40.675 Y26.733 E5.48096
G1 X44.606 Y26.986 E5.52077
G1 X50.435 Y27.273 E5.57973
G1 X54.599 Y27.409 E5.62182
G1 X53.828 Y29.721 E5.64644
G1 X-55.247 Y29.721 E6.74846
G1 X-55.247 Y29.900 F7800.000
G1 X-55.832 Y29.900 E6.75437 F1800.000
G1 X-49.904 Y12.116 E6.94377
G1 X-24.009 Y17.201 E7.21040
G1 X-17.497 Y18.449 E7.27739 F1800.000
G1 X-11.025 Y19.653 E7.34390
G1 X-4.601 Y20.798 E7.40983
G1 X1.771 Y21.871 E7.47511
G1 X8.087 Y22.864 E7.53971
G1 X12.257 Y23.477 E7.58229
G1 X18.483 Y24.321 E7.64577
G1 X24.634 Y25.068 E7.70837
G1 X30.716 Y25.713 E7.77016
G1 X34.730 Y26.086 E7.81089
G1 X40.687 Y26.555 E7.87127
G1 X44.616 Y26.808 E7.91105
G1 X50.442 Y27.095 E7.96998
G1 X54.844 Y27.239 E8.01447
G1 X53.957 Y29.900 E8.04282
G1 X-55.202 Y29.900 E9.14568
G1 X-55.397 Y29.640 F7800.000
G1 X-51.084 Y23.465 F7800.000
G1 X-52.786 Y22.483 E9.16553 F1800.000
G1 X-54.403 Y27.336 E9.21722
G1 X-53.590 Y27.806 E9.22671
G1 X-53.590 Y29.355 E9.24236
G1 X-53.340 Y29.355 E9.24489
G1 X-53.340 Y27.806 E9.26055
G1 X-51.084 Y26.503 E9.28686
G1 X-51.084 Y23.465 E9.31756
G1 X-51.084 Y17.822 F7800.000
G1 X-51.084 Y17.378 E9.32204 F1800.000
G1 X-51.267 Y17.928 E9.32789
G1 X-51.084 Y17.822 E9.33003
G1 X-48.327 Y12.981 F7800.000
G1 X-48.578 Y12.931 E9.33261 F1800.000
G1 X-48.578 Y13.481 E9.33816
G1 X-50.073 Y14.344 E9.35560
G1 X-50.833 Y16.626 E9.37991
G1 X-50.833 Y17.822 E9.39199
G1 X-48.578 Y19.124 E9.41830
G1 X-48.578 Y22.163 E9.44900
G1 X-50.833 Y23.465 E9.47532
G1 X-50.833 Y26.503 E9.50602
G1 X-48.578 Y27.806 E9.53233
G1 X-48.578 Y29.355 E9.54798
G1 X-48.327 Y29.355 E9.55052
G1 X-48.327 Y27.806 E9.56617
G1 X-46.072 Y26.503 E9.59248
G1 X-46.072 Y23.465 E9.62318
G1 X-48.327 Y22.163 E9.64950
G1 X-48.327 Y19.124 E9.68020
G1 X-46.072 Y17.822 E9.70651
G1 X-46.072 Y14.783 E9.73721
G1 X-48.327 Y13.481 E9.76353
G1 X-48.327 Y12.981 E9.76858
G1 X-42.044 Y14.215 F7800.000
G1 X-44.128 Y13.805 E9.79003 F1800.000
G1 X-45.821 Y14.783 E9.80979
G1 X-45.821 Y17.822 E9.84049
G1 X-43.565 Y19.124 E9.86680
G1 X-43.565 Y22.163 E9.89750
G1 X-45.821 Y23.465 E9.92382
G1 X-45.821 Y26.503 E9.95452
G1 X-43.565 Y27.806 E9.98083
G1 X-43.565 Y29.355 E9.99649
G1 X-43.315 Y29.355 E9.99902
G1 X-43.315 Y27.806 E10.01467
G1 X-41.059 Y26.503 E10.04099
G1 X-41.059 Y23.465 E10.07169
G1 X-43.315 Y22.163 E10.09800
G1 X-43.315 Y19.124 E10.12870
G1 X-41.059 Y17.822 E10.15501
G1 X-41.059 Y14.783 E10.18571
G1 X-42.044 Y14.215 E10.19720
G1 X-36.047 Y15.392 F7800.000
G1 X-40.387 Y14.540 E10.24189 F1800.000
G1 X-40.809 Y14.783 E10.24681
G1 X-40.809 Y17.822 E10.27751
G1 X-38.553 Y19.124 E10.30382
G1 X-38.553 Y22.163 E10.33452
G1 X-40.809 Y23.465 E10.36084
G1 X-40.809 Y26.503 E10.39154
G1 X-38.553 Y27.806 E10.41785
G1 X-38.553 Y29.355 E10.43351
G1 X-38.302 Y29.355 E10.43604
G1 X-38.302 Y27.806 E10.45169
G1 X-36.047 Y26.503 E10.47801
G1 X-36.047 Y23.465 E10.50871
G1 X-38.302 Y22.163 E10.53502
G1 X-38.302 Y19.124 E10.56572
G1 X-36.047 Y17.822 E10.59203
G1 X-36.047 Y15.392 E10.61658
G1 X-31.035 Y16.377 F7800.000
G1 X-35.796 Y15.442 E10.66561 F1800.000
G1 X-35.796 Y17.822 E10.68965
G1 X-33.541 Y19.124 E10.71597
G1 X-33.541 Y22.163 E10.74667
G1 X-35.796 Y23.465 E10.77298
G1 X-35.796 Y26.503 E10.80368
G1 X-33.541 Y27.806 E10.83000
G1 X-33.541 Y29.355 E10.84565
G1 X-33.290 Y29.355 E10.84818
G1 X-33.290 Y27.806 E10.86384
G1 X-31.035 Y26.503 E10.89015
G1 X-31.035 Y23.465 E10.92085
G1 X-33.290 Y22.163 E10.94716
G1 X-33.290 Y19.124 E10.97786
G1 X-31.035 Y17.822 E11.00418
G1 X-31.035 Y16.377 E11.01878
G1 X-26.022 Y17.361 F7800.000
G1 X-30.784 Y16.426 E11.06780 F1800.000
G1 X-30.784 Y17.822 E11.08191
G1 X-28.528 Y19.124 E11.10822
G1 X-28.528 Y22.163 E11.13892
G1 X-30.784 Y23.465 E11.16523
G1 X-30.784 Y26.503 E11.19593
G1 X-28.528 Y27.806 E11.22225
G1 X-28.528 Y29.355 E11.23790
G1 X-28.278 Y29.355 E11.24043
G1 X-28.278 Y27.806 E11.25609
G1 X-26.022 Y26.503 E11.28240
G1 X-26.022 Y23.465 E11.31310
G1 X-28.278 Y22.163 E11.33942
G1 X-28.278 Y19.124 E11.37012
G1 X-26.022 Y17.822 E11.39643
G1 X-26.022 Y17.361 E11.40108
G1 X-24.113 Y17.736 F7800.000
G1 X-25.772 Y17.411 E11.41816 F1800.000
G1 X-25.772 Y17.822 E11.42232
G1 X-23.516 Y19.124 E11.44863
G1 X-23.516 Y22.163 E11.47933
G1 X-25.772 Y23.465 E11.50565
G1 X-25.772 Y26.503 E11.53635
G1 X-23.516 Y27.806 E11.56266
G1 X-23.516 Y29.355 E11.57831
G1 X-23.265 Y29.355 E11.58085
G1 X-23.265 Y27.806 E11.59650
G1 X-21.010 Y26.503 E11.62281
G1 X-21.010 Y23.465 E11.65351
G1 X-23.265 Y22.163 E11.67983
G1 X-23.265 Y19.124 E11.71053
G1 X-21.672 Y18.204 E11.72912
G1 X-24.113 Y17.736 E11.75423
G1 X-17.908 Y18.925 F7800.000
G1 X-19.315 Y18.656 E11.76870 F1800.000
G1 X-18.504 Y19.124 E11.77816
G1 X-18.504 Y22.163 E11.80886
G1 X-20.759 Y23.465 E11.83518
G1 X-20.759 Y26.503 E11.86588
G1 X-18.504 Y27.806 E11.89219
G1 X-18.504 Y29.355 E11.90785
G1 X-18.253 Y29.355 E11.91038
G1 X-18.253 Y27.806 E11.92603
G1 X-15.997 Y26.503 E11.95235
G1 X-15.997 Y23.465 E11.98305
G1 X-18.253 Y22.163 E12.00936
G1 X-18.253 Y19.124 E12.04006
G1 X-17.908 Y18.925 E12.04408
G1 X-13.241 Y19.795 F7800.000
G1 X-13.491 Y19.749 E12.04665 F1800.000
G1 X-13.491 Y22.163 E12.07104
G1 X-15.747 Y23.465 E12.09736
G1 X-15.747 Y26.503 E12.12806
G1 X-13.491 Y27.806 E12.15437
G1 X-13.491 Y29.355 E12.17003
G1 X-13.241 Y29.355 E12.17256
G1 X-13.241 Y27.806 E12.18821
G1 X-10.985 Y26.503 E12.21453
G1 X-10.985 Y23.465 E12.24523
G1 X-13.241 Y22.163 E12.27154
G1 X-13.241 Y19.795 E12.29546
G1 X-8.228 Y20.705 F7800.000
G1 X-8.479 Y20.660 E12.29803 F1800.000
G1 X-8.479 Y22.163 E12.31321
G1 X-10.734 Y23.465 E12.33952
G1 X-10.734 Y26.503 E12.37022
G1 X-8.479 Y27.806 E12.39654
G1 X-8.479 Y29.355 E12.41219
G1 X-8.228 Y29.355 E12.41472
G1 X-8.228 Y27.806 E12.43038
G1 X-5.973 Y26.503 E12.45669
G1 X-5.973 Y23.465 E12.48739
G1 X-8.228 Y22.163 E12.51371
G1 X-8.228 Y20.705 E12.52843
G1 X-3.216 Y21.584 F7800.000
G1 X-3.466 Y21.541 E12.53100 F1800.000
G1 X-3.466 Y22.163 E12.53728
G1 X-5.722 Y23.465 E12.56359
G1 X-5.722 Y26.503 E12.59429
G1 X-3.466 Y27.806 E12.62060
G1 X-3.466 Y29.355 E12.63626
G1 X-3.216 Y29.355 E12.63879
G1 X-3.216 Y27.806 E12.65444
G1 X-0.960 Y26.503 E12.68076
G1 X-0.960 Y23.465 E12.71146
G1 X-3.216 Y22.163 E12.73777
G1 X-3.216 Y21.584 E12.74362
G1 X1.683 Y22.409 F7800.000
G1 X1.247 Y22.335 E12.74809 F1800.000
G1 X-0.710 Y23.465 E12.77092
G1 X-0.710 Y26.503 E12.80162
G1 X1.546 Y27.806 E12.82793
G1 X1.546 Y29.355 E12.84359
G1 X1.797 Y29.355 E12.84612
G1 X1.797 Y27.806 E12.86177
G1 X4.052 Y26.503 E12.88809
G1 X4.052 Y23.465 E12.91879
G1 X2.425 Y22.525 E12.93777
G1 X1.683 Y22.409 E12.94536
G1 X8.005 Y23.403 F7800.000
G1 X5.180 Y22.958 E12.97425 F1800.000
G1 X4.303 Y23.465 E12.98448
G1 X4.303 Y26.503 E13.01518
G1 X6.558 Y27.806 E13.04150
G1 X6.558 Y29.355 E13.05715
G1 X6.809 Y29.355 E13.05968
G1 X6.809 Y27.806 E13.07534
G1 X9.065 Y26.503 E13.10165
G1 X9.065 Y23.558 E13.13141
G1 X8.005 Y23.403 E13.14223
G1 X12.181 Y24.016 F7800.000
G1 X9.315 Y23.595 E13.17149 F1800.000
G1 X9.315 Y26.503 E13.20088
G1 X11.571 Y27.806 E13.22719
G1 X11.571 Y29.355 E13.24284
G1 X11.821 Y29.355 E13.24538
G1 X11.821 Y27.806 E13.26103
G1 X14.077 Y26.503 E13.28734
G1 X14.077 Y24.273 E13.30988
G1 X12.181 Y24.016 E13.32920
G1 X18.413 Y24.862 F7800.000
G1 X14.328 Y24.307 E13.37086 F1800.000
G1 X14.328 Y26.503 E13.39305
G1 X16.583 Y27.806 E13.41936
G1 X16.583 Y29.355 E13.43502
G1 X16.834 Y29.355 E13.43755
G1 X16.834 Y27.806 E13.45320
G1 X19.089 Y26.503 E13.47952
G1 X19.089 Y24.944 E13.49527
G1 X18.413 Y24.862 E13.50215
G1 X24.102 Y25.552 F7800.000
G1 X19.340 Y24.974 E13.55062 F1800.000
G1 X19.340 Y26.503 E13.56607
G1 X21.596 Y27.806 E13.59238
G1 X21.596 Y29.355 E13.60803
G1 X21.846 Y29.355 E13.61057
G1 X21.846 Y27.806 E13.62622
G1 X24.102 Y26.503 E13.65253
G1 X24.102 Y25.552 E13.66214
G1 X24.573 Y25.610 F7800.000
G1 X24.352 Y25.583 E13.66439 F1800.000
G1 X24.352 Y26.503 E13.67369
G1 X26.608 Y27.806 E13.70000
G1 X26.608 Y29.355 E13.71566
G1 X26.859 Y29.355 E13.71819
G1 X26.859 Y27.806 E13.73384
G1 X29.114 Y26.503 E13.76016
G1 X29.114 Y26.091 E13.76432
G1 X24.573 Y25.610 E13.81046
G1 X30.662 Y26.256 F7800.000
G1 X29.365 Y26.118 E13.82364 F1800.000
G1 X29.365 Y26.503 E13.82753
G1 X31.620 Y27.806 E13.85385
G1 X31.620 Y29.355 E13.86950
G1 X31.871 Y29.355 E13.87203
G1 X31.871 Y27.806 E13.88769
G1 X34.017 Y26.567 E13.91273
G1 X30.662 Y26.256 E13.94677
G1 X34.683 Y26.628 F7800.000
G1 X34.576 Y26.619 E13.94785 F1800.000
G1 X36.633 Y27.806 E13.97184
G1 X36.633 Y29.355 E13.98750
G1 X36.883 Y29.355 E13.99003
G1 X36.883 Y27.806 E14.00568
G1 X38.414 Y26.922 E14.02354
G1 X34.683 Y26.628 E14.06134
G1 X40.649 Y27.098 F7800.000
G1 X40.384 Y27.077 E14.06402 F1800.000
G1 X41.645 Y27.806 E14.07874
G1 X41.645 Y29.355 E14.09439
G1 X41.896 Y29.355 E14.09692
G1 X41.896 Y27.806 E14.11258
G1 X42.873 Y27.241 E14.12398
G1 X40.649 Y27.098 E14.14650
G1 X47.450 Y27.493 F7800.000
G1 X45.991 Y27.421 E14.16126 F1800.000
G1 X46.658 Y27.806 E14.16904
G1 X46.658 Y29.355 E14.18469
G1 X46.908 Y29.355 E14.18722
G1 X46.908 Y27.806 E14.20288
G1 X47.450 Y27.493 E14.20920
G1 X52.113 Y27.695 F7800.000
G1 X51.440 Y27.673 E14.21600 F1800.000
G1 X51.670 Y27.806 E14.21869
G1 X51.670 Y29.355 E14.23435
G1 X51.921 Y29.355 E14.23688
G1 X51.921 Y27.806 E14.25253
G1 X52.113 Y27.695 E14.25477
G1 F6240
G1 X51.921 Y27.806 E14.17366
G1 F6240
G1 X51.921 Y29.355 E13.60754
G1 F6240
G1 X51.670 Y29.355 E13.51596
G1 F6240
G1 X51.670 Y27.806 E12.94984
G1 F6240
G1 X51.440 Y27.673 E12.85267
G1 F6240
G1 X52.113 Y27.695 E12.60658
G1 E12.25477 F2400.00000
G92 E0
G1 X52.370 Y27.067 F7800.000
G1 X34.869 Y2.802 F7800.000
G1 X41.708 Y-7.916 F7800.000
G1 X47.988 Y-14.212 F7800.000
G1 X52.185 Y-18.404 F7800.000
G1 X52.202 Y-24.190 F7800.000
G1 X53.699 Y-29.543 F7800.000
G1 E2.00000 F2400.00000
G1 X55.336 Y-24.632 E2.05230 F1800.000
G1 X47.985 Y-24.652 E2.12657 F1800.000
G1 X41.626 Y-24.636 E2.19082
G1 X33.052 Y-24.568 E2.27745
G1 X26.486 Y-24.481 E2.34379
G1 X15.494 Y-24.274 E2.45487
G1 X2.175 Y-23.930 E2.58948
G1 X-11.210 Y-23.487 E2.72478
G1 X-24.581 Y-22.950 E2.85998
G1 X-37.861 Y-22.328 E2.99431
G1 X-44.443 Y-21.987 E3.06090
G1 X-52.666 Y-21.529 E3.14410
G1 X-55.337 Y-29.543 E3.22945
G1 X53.654 Y-29.543 E4.33062
G1 X53.654 Y-29.721 F7800.000
G1 X53.828 Y-29.721 E4.33237 F1800.000
G1 X55.584 Y-24.453 E4.38848
G1 X47.985 Y-24.474 E4.46526 F1800.000
G1 X41.627 Y-24.457 E4.52950
G1 X33.054 Y-24.389 E4.61611
G1 X26.489 Y-24.302 E4.68245
G1 X15.498 Y-24.095 E4.79351
G1 X2.180 Y-23.751 E4.92812
G1 X-11.203 Y-23.308 E5.06341
G1 X-24.573 Y-22.772 E5.19859
G1 X-37.853 Y-22.150 E5.33291
G1 X-44.434 Y-21.809 E5.39949
G1 X-52.792 Y-21.343 E5.48406
G1 X-55.585 Y-29.721 E5.57329
G1 X53.609 Y-29.721 E6.67651
G1 X53.609 Y-29.900 F7800.000
G1 X53.957 Y-29.900 E6.68002 F1800.000
G1 X55.832 Y-24.274 E6.73994
G1 X47.985 Y-24.295 E6.81922 F1800.000
G1 X41.628 Y-24.279 E6.88345
G1 X33.056 Y-24.211 E6.97006
G1 X26.492 Y-24.124 E7.03638
G1 X15.502 Y-23.917 E7.14744
G1 X2.185 Y-23.573 E7.28203
G1 X-11.197 Y-23.130 E7.41730
G1 X-24.565 Y-22.593 E7.55248
G1 X-37.844 Y-21.972 E7.68678
G1 X-44.424 Y-21.631 E7.75335
G1 X-52.918 Y-21.157 E7.83930
G1 X-55.832 Y-29.900 E7.93241
G1 X53.564 Y-29.900 E9.03768
G1 X53.759 Y-29.640 F7800.000
G1 X53.719 Y-28.889 F7800.000
G1 X54.176 Y-27.519 E9.05227 F1800.000
G1 X54.176 Y-25.587 E9.07179
G1 X52.860 Y-24.827 E9.08715
G1 X50.721 Y-24.833 E9.10876
G1 X49.414 Y-25.587 E9.12400
G1 X49.414 Y-28.625 E9.15470
G1 X50.678 Y-29.355 E9.16945
G1 X52.912 Y-29.355 E9.19202
G1 X53.719 Y-28.889 E9.20144
G1 X54.914 Y-25.305 F7800.000
G1 X54.427 Y-25.587 E9.20712 F1800.000
G1 X54.427 Y-26.767 E9.21905
G1 X54.914 Y-25.305 E9.23461
G1 X49.164 Y-28.625 F7800.000
G1 X49.164 Y-25.587 E9.26531 F1800.000
G1 X47.870 Y-24.840 E9.28040
G1 X45.705 Y-24.834 E9.30228
G1 X44.402 Y-25.587 E9.31748
G1 X44.402 Y-28.625 E9.34818
G1 X45.666 Y-29.355 E9.36293
G1 X47.900 Y-29.355 E9.38550
G1 X49.164 Y-28.625 E9.40024
G1 X44.151 Y-28.625 F7800.000
G1 X44.151 Y-25.587 E9.43094 F1800.000
G1 X42.835 Y-24.827 E9.44630
G1 X40.724 Y-24.817 E9.46763
G1 X39.390 Y-25.587 E9.48319
G1 X39.390 Y-28.625 E9.51389
G1 X40.653 Y-29.355 E9.52864
G1 X42.887 Y-29.355 E9.55121
G1 X44.151 Y-28.625 E9.56596
G1 X39.139 Y-28.625 F7800.000
G1 X39.139 Y-25.587 E9.59665 F1800.000
G1 X37.764 Y-24.793 E9.61270
G1 X35.779 Y-24.777 E9.63275
G1 X34.377 Y-25.587 E9.64911
G1 X34.377 Y-28.625 E9.67981
G1 X35.641 Y-29.355 E9.69455
G1 X37.875 Y-29.355 E9.71712
G1 X39.139 Y-28.625 E9.73187
G1 X34.127 Y-28.625 F7800.000
G1 X34.127 Y-25.587 E9.76257 F1800.000
G1 X32.678 Y-24.751 E9.77946
G1 X30.855 Y-24.727 E9.79789
G1 X29.365 Y-25.587 E9.81527
G1 X29.365 Y-28.625 E9.84597
G1 X30.629 Y-29.355 E9.86072
G1 X32.863 Y-29.355 E9.88328
G1 X34.127 Y-28.625 E9.89803
G1 X29.114 Y-28.625 F7800.000
G1 X29.114 Y-25.587 E9.92873 F1800.000
G1 X27.548 Y-24.683 E9.94700
G1 X25.960 Y-24.659 E9.96305
G1 X24.352 Y-25.587 E9.98180
G1 X24.352 Y-28.625 E10.01250
G1 X25.616 Y-29.355 E10.02725
G1 X27.850 Y-29.355 E10.04982
G1 X29.114 Y-28.625 E10.06456
G1 X24.102 Y-28.625 F7800.000
G1 X24.102 Y-25.587 E10.09526 F1800.000
G1 X22.378 Y-24.591 E10.11537
G1 X21.106 Y-24.567 E10.12823
G1 X19.340 Y-25.587 E10.14883
G1 X19.340 Y-28.625 E10.17953
G1 X20.604 Y-29.355 E10.19427
G1 X22.838 Y-29.355 E10.21684
G1 X24.102 Y-28.625 E10.23159
G1 X19.089 Y-28.625 F7800.000
G1 X19.089 Y-25.587 E10.26229 F1800.000
G1 X17.196 Y-24.494 E10.28437
G1 X16.252 Y-24.476 E10.29392
G1 X14.328 Y-25.587 E10.31636
G1 X14.328 Y-28.625 E10.34706
G1 X15.592 Y-29.355 E10.36181
G1 X17.825 Y-29.355 E10.38438
G1 X19.089 Y-28.625 E10.39913
G1 X14.077 Y-28.625 F7800.000
G1 X14.077 Y-25.587 E10.42983 F1800.000
G1 X11.971 Y-24.371 E10.45440
G1 X11.445 Y-24.357 E10.45971
G1 X9.315 Y-25.587 E10.48456
G1 X9.315 Y-28.625 E10.51526
