; generated by Slic3r 1.2.9 on 2016-07-17 at 16:06:35

; external perimeters extrusion width = 0.40mm
; perimeters extrusion width = 0.67mm
; infill extrusion width = 0.67mm
; solid infill extrusion width = 0.67mm
; top infill extrusion width = 0.67mm

M107
M104 S215 ; set temperature
G28 ; home all axes
G1 Y-60 Z5 F5000 ; lift nozzle


M109 S215 ; wait for temperature to be reached
G21 ; set units to millimeters
G90 ; use absolute coordinates
M82 ; use absolute distances for extrusion
G92 E0
G1 E-3.00000 F2400.00000
G92 E0
G1 Z0.300 F6000.000
G1 X-3.159 Y51.588 F6000.000
G1 E3.00000 F2400.00000
G1 X-4.371 Y51.555 E3.06333 F1800.000
G1 X-30.726 Y47.162 E4.45927
G1 X-32.464 Y46.472 E4.55694
G1 X-33.760 Y45.125 E4.65462
G1 X-34.419 Y42.804 E4.78068
G1 X-34.419 Y-47.196 E9.48272
G1 X-34.023 Y-49.024 E9.58039
G1 X-32.908 Y-50.524 E9.67806
G1 X-31.272 Y-51.428 E9.77574
G1 X-30.000 Y-51.615 E9.84289
G1 X30.000 Y-51.615 E12.97758
G1 X31.827 Y-51.220 E13.07525
G1 X33.327 Y-50.104 E13.17293
G1 X34.232 Y-48.468 E13.27060
G1 X34.419 Y-47.196 E13.33775
G1 X34.419 Y42.804 E18.03979
G1 X34.023 Y44.631 E18.13747
G1 X32.908 Y46.131 E18.23514
G1 X30.726 Y47.162 E18.36120
G1 X18.462 Y49.200 E19.01074
G1 X-3.099 Y51.582 E20.14407
G1 F4800
G1 X-4.371 Y51.555 E19.54004
G1 F4800
G1 X-9.035 Y50.778 E17.29407
G1 E17.14407 F2400.00000
G92 E0
G1 X-29.423 Y42.315 F6000.000
G1 E3.00000 F2400.00000
G1 X-29.423 Y-46.515 E7.64089 F1800.000
G1 X0.000 Y-41.611 E9.19928
G1 X4.456 Y-42.354 E9.43532
G1 X4.626 Y-40.166 E9.54996
G1 X4.737 Y-38.204 E9.65263
G1 X4.829 Y-35.684 E9.78436
G1 X4.870 Y-33.438 E9.90172
G1 X4.865 Y-29.973 E10.08275
G1 X4.772 Y-25.992 E10.29084
G1 X4.574 Y-21.515 E10.52493
G1 X4.263 Y-16.570 E10.78379
G1 X3.835 Y-11.184 E11.06609
G1 X3.436 Y-6.872 E11.29233
G1 X2.799 Y-0.774 E11.61265
G1 X2.041 Y5.698 E11.95311
G1 X1.164 Y12.519 E12.31236
G1 X0.430 Y17.843 E12.59319
G1 X-0.648 Y25.204 E12.98185
G1 X-1.835 Y32.837 E13.38541
G1 X-3.125 Y40.714 E13.80243
G1 X-4.117 Y46.532 E14.11080
G1 X-29.364 Y42.325 E15.44801
G1 F4800
G1 X-29.368 Y36.325 E12.59801
G1 E12.44801 F2400.00000
G92 E0
G1 X-4.461 Y46.046 F6000.000
G1 X-5.612 Y44.425 F6000.000
G1 X-7.289 Y42.069 F6000.000
G1 X-3.879 Y42.647 F6000.000
G1 X18.498 Y44.135 F6000.000
G1 E3.00000 F2400.00000
G1 X17.792 Y35.917 E3.43093 F1800.000
G1 X17.124 Y28.616 E3.81401
G1 X16.269 Y19.873 E4.27294
G1 X15.569 Y13.206 E4.62315
G1 X14.858 Y6.851 E4.95726
G1 X13.960 Y-0.626 E5.35072
G1 X13.055 Y-7.559 E5.71597
G1 X12.327 Y-12.696 E5.98705
G1 X11.596 Y-17.451 E6.23841
G1 X10.861 Y-21.810 E6.46936
G1 X10.111 Y-25.769 E6.67987
G1 X9.529 Y-28.477 E6.82459
G1 X8.935 Y-30.963 E6.95813
G1 X8.146 Y-33.939 E7.11897
G1 X7.574 Y-35.922 E7.22680
G1 X6.327 Y-40.097 E7.45445
G1 X5.633 Y-42.550 E7.58762
G1 X29.423 Y-46.515 E8.84763
G1 X29.423 Y42.315 E13.48853
G1 X18.557 Y44.126 E14.06401
G1 F4800
G1 X18.001 Y38.151 E11.21401
G1 E11.06401 F2400.00000
G92 E0
G1 X14.559 Y0.775 F6000.000
G1 X21.015 Y-11.365 F6000.000
G1 X20.548 Y-17.662 F6000.000
G1 X20.357 Y-20.064 F6000.000
G1 X20.261 Y-21.220 F6000.000
G1 X20.168 Y-22.315 F6000.000
G1 X11.463 Y-20.830 F6000.000
G1 X4.838 Y-42.319 F6000.000
G1 E3.00000 F2400.00000
G1 X5.003 Y-40.191 E3.08935 F1800.000
G1 X5.114 Y-38.222 E3.17194
G1 X5.206 Y-35.695 E3.27778
G1 X5.248 Y-33.442 E3.37211
G1 X5.242 Y-29.969 E3.51749
G1 X5.149 Y-25.979 E3.68455
G1 X4.951 Y-21.495 E3.87243
G1 X4.639 Y-16.543 E4.08011
G1 X4.210 Y-11.152 E4.30653
G1 X3.811 Y-6.835 E4.48800
G1 X3.174 Y-0.732 E4.74484
G1 X2.415 Y5.744 E5.01782
G1 X1.538 Y12.568 E5.30582
G1 X0.803 Y17.897 E5.53097
G1 X-0.275 Y25.260 E5.84251
G1 X-1.462 Y32.896 E6.16599
G1 X-2.753 Y40.776 E6.50024
G1 X-3.808 Y46.966 E6.76310
G1 X-29.800 Y42.634 E7.86614
G1 X-29.800 Y-46.960 E11.61659
G1 X0.000 Y-41.994 E12.88123
G1 X29.800 Y-46.960 E14.14588
G1 X29.800 Y42.634 E17.89633
G1 X18.157 Y44.575 E18.39042
G1 X17.416 Y35.951 E18.75275
G1 X16.748 Y28.651 E19.05959
G1 X15.894 Y19.911 E19.42720
G1 X15.194 Y13.247 E19.70769
G1 X14.483 Y6.895 E19.97527
G1 X13.585 Y-0.579 E20.29037
G1 X12.681 Y-7.508 E20.58286
G1 X11.954 Y-12.641 E20.79988
G1 X11.224 Y-17.391 E21.00107
G1 X10.490 Y-21.744 E21.18584
G1 X9.741 Y-25.694 E21.35415
G1 X9.161 Y-28.394 E21.46974
G1 X8.569 Y-30.871 E21.57636
G1 X7.782 Y-33.838 E21.70486
G1 X7.212 Y-35.816 E21.79101
G1 X5.965 Y-39.992 E21.97345
G1 X5.284 Y-42.399 E22.07817
G1 X4.897 Y-42.330 E22.09464
G1 X4.440 Y-42.275 F6000.000
G1 X14.669 Y-42.340 F6000.000
G1 X16.359 Y-36.033 E22.43579 F1800.000
G1 X10.973 Y-30.646 E22.83379
G1 X9.383 Y-31.072 E22.91977
G1 X8.590 Y-34.062 E23.08137
G1 X8.016 Y-36.052 E23.18958
G1 X6.770 Y-40.226 E23.41717
G1 X6.217 Y-42.180 E23.52327
G1 X12.544 Y-43.235 E23.85840
G1 X14.225 Y-42.784 E23.94932
G1 X15.102 Y-43.661 E24.01409
G1 X16.168 Y-43.839 E24.07057
G1 X14.669 Y-42.340 E24.18130
G1 X28.962 Y-38.836 F6000.000
G1 X28.942 Y-38.841 E24.18239 F1800.000
G1 X23.555 Y-33.454 E24.58039
G1 X25.245 Y-27.147 E24.92153
G1 X19.858 Y-21.760 E25.31953
G1 X13.551 Y-23.450 E25.66067
G1 X11.413 Y-21.312 E25.81868
G1 X11.281 Y-22.069 E25.85884
G1 X13.107 Y-23.895 E25.99373
G1 X11.417 Y-30.202 E26.33487
G1 X16.804 Y-35.589 E26.73287
G1 X23.111 Y-33.898 E27.07401
G1 X28.498 Y-39.285 E27.47201
G1 X26.808 Y-45.592 E27.81315
G1 X26.831 Y-45.616 E27.81488
G1 X28.962 Y-45.971 E27.92775
G1 X28.962 Y-38.836 E28.30054
G1 X28.962 Y-25.826 F6000.000
G1 X28.962 Y-13.092 E28.96581 F1800.000
G1 X28.744 Y-12.875 E28.98190
G1 X22.437 Y-14.565 E29.32304
G1 X17.050 Y-9.178 E29.72104
G1 X18.740 Y-2.871 E30.06218
G1 X14.646 Y1.224 E30.36470
G1 X14.417 Y-0.683 E30.46506
G1 X13.512 Y-7.621 E30.83057
G1 X13.095 Y-10.563 E30.98582
G1 X16.606 Y-9.622 E31.17575
G1 X21.993 Y-15.009 E31.57375
G1 X20.303 Y-21.316 E31.91489
G1 X25.689 Y-26.703 E32.31289
G1 X28.962 Y-25.826 E32.48989
G1 X28.962 Y-3.318 F6000.000
G1 X25.936 Y-0.292 E32.71346 F1800.000
G1 X27.626 Y6.015 E33.05461
G1 X22.239 Y11.402 E33.45260
G1 X15.932 Y9.712 E33.79375
G1 X15.671 Y9.973 E33.81306
G1 X15.315 Y6.798 E33.97998
G1 X14.741 Y2.017 E34.23155
G1 X19.185 Y-2.426 E34.55986
G1 X25.492 Y-0.736 E34.90100
G1 X28.962 Y-4.207 E35.15740
G1 X28.962 Y-3.318 E35.20382
G1 X28.962 Y6.698 F6000.000
G1 X28.962 Y19.708 E35.88351 F1800.000
G1 X24.818 Y18.598 E36.10765
G1 X19.431 Y23.984 E36.50565
G1 X21.121 Y30.291 E36.84679
G1 X18.024 Y33.389 E37.07567
G1 X17.583 Y28.572 E37.32839
G1 X17.040 Y23.018 E37.61993
G1 X18.987 Y23.540 E37.72526
G1 X24.374 Y18.153 E38.12326
G1 X22.684 Y11.846 E38.46440
G1 X28.070 Y6.459 E38.86240
G1 X28.962 Y6.698 E38.91062
G1 X27.873 Y32.426 F6000.000
G1 X28.962 Y31.337 E38.99110 F1800.000
G1 X28.962 Y32.225 E39.03753
G1 X28.317 Y32.870 E39.08518
G1 X28.962 Y35.277 E39.21537
G1 X28.962 Y40.222 E39.47373
G1 X26.920 Y42.265 E39.62464
G1 X20.212 Y43.383 E39.97991
G1 X18.865 Y43.022 E40.05276
G1 X18.098 Y34.203 E40.51523
G1 X21.566 Y30.736 E40.77142
G1 X27.873 Y32.426 E41.11257
G1 X28.962 Y41.924 F6000.000
G1 X27.986 Y42.087 E41.16427 F1800.000
G1 X28.962 Y41.111 E41.23640
G1 X28.962 Y41.924 E41.27890
G1 F4800
G1 X28.962 Y41.111 E40.89249
G1 F4800
G1 X27.986 Y42.087 E40.23673
G1 F4800
G1 X28.962 Y41.924 E39.76665
G1 E38.27890 F2400.00000
G92 E0
G1 X29.000 Y41.957 F6000.000
G1 X-3.542 Y40.644 F6000.000
G1 X-3.579 Y40.638 F6000.000
G1 E3.00000 F2400.00000
G1 X-3.084 Y37.614 E3.16010 F1800.000
G1 X-8.098 Y42.627 E3.53052
G1 X-7.319 Y45.531 E3.68760
G1 X-4.494 Y46.002 E3.83725
G1 X-3.579 Y40.638 E4.12156
G1 X-1.401 Y27.045 F6000.000
G1 X-1.237 Y25.993 E4.17719 F1800.000
G1 X-5.289 Y30.045 E4.47660
G1 X-11.597 Y28.355 E4.81774
G1 X-16.983 Y33.742 E5.21574
G1 X-15.293 Y40.049 E5.55688
G1 X-18.854 Y43.609 E5.81994
G1 X-18.092 Y43.736 E5.86028
G1 X-14.849 Y40.493 E6.09990
G1 X-8.542 Y42.183 E6.44104
G1 X-3.155 Y36.796 E6.83904
G1 X-4.845 Y30.489 E7.18018
G1 X-1.401 Y27.045 E7.43467
G1 X-0.027 Y17.779 F6000.000
G1 X0.132 Y16.626 E7.49546 F1800.000
G1 X-1.593 Y18.351 E7.62291
G1 X-0.634 Y21.928 E7.81639
G1 X-0.027 Y17.779 E8.03550
G1 X1.215 Y5.768 F6000.000
G1 X-5.092 Y4.078 E8.37664 F1800.000
G1 X-10.478 Y9.465 E8.77464
G1 X-8.788 Y15.772 E9.11578
G1 X-14.175 Y21.159 E9.51378
G1 X-20.482 Y19.469 E9.85492
G1 X-25.869 Y24.856 E10.25292
G1 X-24.179 Y31.163 E10.59407
G1 X-28.962 Y35.946 E10.94746
G1 X-28.962 Y36.834 E10.99388
G1 X-23.735 Y31.607 E11.38010
G1 X-17.428 Y33.297 E11.72124
G1 X-12.041 Y27.911 E12.11924
G1 X-13.731 Y21.603 E12.46038
G1 X-8.344 Y16.217 E12.85838
G1 X-2.037 Y17.907 E13.19952
G1 X0.274 Y15.595 E13.37030
G1 X0.707 Y12.458 E13.53577
G1 X1.616 Y5.368 E13.90918
G1 X1.215 Y5.768 E13.93874
G1 X3.986 Y-19.509 F6000.000
G1 X1.413 Y-20.198 E14.07790 F1800.000
G1 X-3.974 Y-14.811 E14.47590
G1 X-2.284 Y-8.504 E14.81705
G1 X-7.670 Y-3.117 E15.21504
G1 X-13.977 Y-4.807 E15.55619
G1 X-19.364 Y0.579 E15.95419
G1 X-17.674 Y6.887 E16.29533
G1 X-23.061 Y12.273 E16.69333
G1 X-28.962 Y10.692 E17.01251
G1 X-28.962 Y23.702 E17.69219
G1 X-26.313 Y24.411 E17.83546
G1 X-20.927 Y19.025 E18.23345
G1 X-22.617 Y12.718 E18.57460
G1 X-17.230 Y7.331 E18.97260
G1 X-10.923 Y9.021 E19.31374
G1 X-5.536 Y3.634 E19.71174
G1 X-7.226 Y-2.673 E20.05288
G1 X-1.839 Y-8.060 E20.45088
G1 X2.962 Y-6.773 E20.71059
G1 X3.375 Y-11.223 E20.94409
G1 X3.803 Y-16.603 E21.22603
G1 X3.986 Y-19.509 E21.37813
G1 X4.167 Y-40.135 F6000.000
G1 X4.124 Y-40.681 E21.40671 F1800.000
G1 X2.531 Y-39.088 E21.52441
G1 X4.221 Y-32.780 E21.86556
G1 X-1.165 Y-27.394 E22.26356
G1 X-7.473 Y-29.084 E22.60470
G1 X-12.859 Y-23.697 E23.00270
G1 X-11.169 Y-17.390 E23.34384
G1 X-16.556 Y-12.003 E23.74184
G1 X-22.863 Y-13.693 E24.08298
G1 X-28.250 Y-8.306 E24.48098
G1 X-26.560 Y-1.999 E24.82212
G1 X-28.962 Y0.403 E24.99960
G1 X-28.962 Y1.291 E25.04602
G1 X-26.116 Y-1.555 E25.25632
G1 X-19.808 Y0.135 E25.59747
G1 X-14.422 Y-5.252 E25.99547
G1 X-16.112 Y-11.559 E26.33661
G1 X-10.725 Y-16.945 E26.73461
G1 X-4.418 Y-15.255 E27.07575
G1 X0.969 Y-20.642 E27.47375
G1 X-0.721 Y-26.949 E27.81489
G1 X4.408 Y-32.078 E28.19383
G1 X4.410 Y-33.435 E28.26470
G1 X4.369 Y-35.672 E28.38160
G1 X4.277 Y-38.183 E28.51287
G1 X4.167 Y-40.135 E28.61505
G1 X-0.000 Y-41.144 F6000.000
G1 X-4.736 Y-41.933 E28.86590 F1800.000
G1 X-4.665 Y-41.666 E28.88035
G1 X-10.051 Y-36.279 E29.27835
G1 X-16.358 Y-37.969 E29.61949
G1 X-21.745 Y-32.583 E30.01749
G1 X-20.055 Y-26.276 E30.35864
G1 X-25.442 Y-20.889 E30.75664
G1 X-28.962 Y-21.832 E30.94703
G1 X-28.962 Y-8.822 E31.62672
G1 X-28.694 Y-8.751 E31.64120
G1 X-23.308 Y-14.137 E32.03920
G1 X-24.998 Y-20.445 E32.38035
G1 X-19.611 Y-25.831 E32.77834
G1 X-13.304 Y-24.141 E33.11949
G1 X-7.917 Y-29.528 E33.51749
G1 X-9.607 Y-35.835 E33.85863
G1 X-4.220 Y-41.222 E34.25663
G1 X2.087 Y-39.532 E34.59777
G1 X4.060 Y-41.505 E34.74357
G1 X4.036 Y-41.817 E34.75989
G1 X-0.000 Y-41.144 E34.97367
G1 X-18.354 Y-44.203 F6000.000
G1 X-26.533 Y-45.566 E35.40688 F1800.000
G1 X-28.962 Y-43.137 E35.58634
G1 X-28.962 Y-35.240 E35.99893
G1 X-28.941 Y-35.161 E36.00319
G1 X-28.962 Y-35.140 E36.00475
G1 X-28.962 Y-34.252 E36.05117
G1 X-28.497 Y-34.717 E36.08556
G1 X-22.189 Y-33.027 E36.42670
G1 X-16.803 Y-38.414 E36.82470
G1 X-18.354 Y-44.203 E37.13783
G1 X-27.295 Y-45.693 F6000.000
G1 X-28.962 Y-45.971 E37.22613 F1800.000
G1 X-28.962 Y-44.026 E37.32775
G1 X-27.295 Y-45.693 E37.45092
G1 X-27.746 Y42.127 F6000.000
G1 X-28.962 Y37.589 E37.69637 F1800.000
G1 X-28.962 Y41.924 E37.92287
G1 X-27.746 Y42.127 E37.98727
G1 F4800
G1 X-28.962 Y41.924 E37.40173
G1 F4800
G1 X-28.962 Y37.589 E35.34247
G1 F4800
G1 X-28.850 Y38.006 E35.13727
G1 E34.98727 F2400.00000
G92 E0
G1 Z0.500 F6000.000
G1 X4.351 Y-42.219 F6000.000
G1 E3.00000 F2400.00000
G1 X4.511 Y-40.158 E3.10799 F1200.000
G1 X4.621 Y-38.199 E3.21054
G1 X4.714 Y-35.681 E3.34215
G1 X4.755 Y-33.438 E3.45939
G1 X4.750 Y-29.975 E3.64030
G1 X4.656 Y-25.995 E3.84826
G1 X4.459 Y-21.521 E4.08223
G1 X4.147 Y-16.578 E4.34099
G1 X3.720 Y-11.194 E4.62320
G1 X3.321 Y-6.883 E4.84936
G1 X2.684 Y-0.787 E5.16961
G1 X1.926 Y5.684 E5.51000
G1 X1.049 Y12.503 E5.86919
G1 X0.315 Y17.827 E6.14997
G1 X-0.762 Y25.187 E6.53857
G1 X-1.949 Y32.819 E6.94208
G1 X-3.239 Y40.695 E7.35906
G1 X-4.211 Y46.400 E7.66140
G1 X-29.307 Y42.217 E8.99063
G1 X-29.307 Y-46.379 E13.61929
G1 X0.000 Y-41.494 E15.17157
G1 X4.292 Y-42.209 E15.39889
G1 X5.780 Y-42.457 F6000.000
G1 X29.307 Y-46.379 E16.64505 F1200.000
G1 X29.307 Y42.217 E21.27371
G1 X18.603 Y44.001 E21.84070
G1 X17.907 Y35.907 E22.26511
G1 X17.239 Y28.605 E22.64823
G1 X16.384 Y19.861 E23.10720
G1 X15.684 Y13.194 E23.45745
G1 X14.972 Y6.838 E23.79160
G1 X14.074 Y-0.641 E24.18512
G1 X13.170 Y-7.574 E24.55044
G1 X12.441 Y-12.713 E24.82158
G1 X11.710 Y-17.470 E25.07302
G1 X10.975 Y-21.831 E25.30408
G1 X10.224 Y-25.792 E25.51472
G1 X9.641 Y-28.503 E25.65959
G1 X9.047 Y-30.992 E25.79327
G1 X8.257 Y-33.970 E25.95424
G1 X7.685 Y-35.955 E26.06217
G1 X6.438 Y-40.130 E26.28980
G1 X5.796 Y-42.400 E26.41305
G1 X5.284 Y-42.399 F6000.000
G1 X4.838 Y-42.319 E26.42652 F600.000
G1 X5.003 Y-40.191 E26.48990
G1 X5.114 Y-38.222 E26.54847
G1 X5.206 Y-35.695 E26.62355
G1 X5.248 Y-33.442 E26.69046
G1 X5.242 Y-29.969 E26.79357
G1 X5.149 Y-25.979 E26.91207
G1 X4.951 Y-21.495 E27.04533
G1 X4.639 Y-16.543 E27.19264
G1 X4.210 Y-11.152 E27.35324
G1 X3.811 Y-6.835 E27.48195
G1 X3.174 Y-0.732 E27.66413
G1 X2.415 Y5.744 E27.85775
G1 X1.538 Y12.568 E28.06203
G1 X0.803 Y17.897 E28.22173
G1 X-0.275 Y25.260 E28.44270
G1 X-1.462 Y32.896 E28.67214
G1 X-2.753 Y40.776 E28.90922
G1 X-3.808 Y46.966 E29.09567
G1 X-29.800 Y42.634 E29.87805
G1 X-29.800 Y-46.960 E32.53822
G1 X0.000 Y-41.994 E33.43523
G1 X29.800 Y-46.960 E34.33223
G1 X29.800 Y42.634 E36.99241
G1 X18.157 Y44.575 E37.34286
G1 X17.416 Y35.951 E37.59986
G1 X16.748 Y28.651 E37.81751
G1 X15.894 Y19.911 E38.07824
G1 X15.194 Y13.247 E38.27719
G1 X14.483 Y6.895 E38.46699
G1 X13.585 Y-0.579 E38.69049
G1 X12.681 Y-7.508 E38.89795
G1 X11.954 Y-12.641 E39.05188
G1 X11.224 Y-17.391 E39.19458
G1 X10.490 Y-21.744 E39.32564
G1 X9.741 Y-25.694 E39.44502
G1 X9.161 Y-28.394 E39.52701
G1 X8.569 Y-30.871 E39.60263
G1 X7.782 Y-33.838 E39.69378
G1 X7.212 Y-35.816 E39.75488
G1 X5.965 Y-39.992 E39.88429
G1 X5.300 Y-42.341 E39.95679
G1 X5.201 Y-42.790 F6000.000
G1 X-0.000 Y-40.953 F6000.000
G1 X3.864 Y-41.597 E40.16143 F3000.000
G1 X3.917 Y-40.917 E40.19703
G1 X2.694 Y-39.694 E40.28738
G1 X4.210 Y-34.037 E40.59337
G1 X4.216 Y-29.982 E40.80526
G1 X4.122 Y-26.014 E41.01262
G1 X3.925 Y-21.550 E41.24604
G1 X3.800 Y-19.558 E41.35031
G1 X1.413 Y-20.198 E41.47941
G1 X-0.559 Y-27.556 E41.87741
G1 X4.059 Y-32.173 E42.21855
G1 X2.087 Y-39.532 E42.61655
G1 X-4.220 Y-41.222 E42.95769
G1 X-4.342 Y-41.676 E42.98227
G1 X-0.000 Y-40.953 E43.21225
G1 X-5.023 Y-41.790 F6000.000
G1 X-4.827 Y-41.059 E43.25176 F3000.000
G1 X-9.444 Y-36.442 E43.59290
G1 X-7.473 Y-29.084 E43.99090
G1 X-1.165 Y-27.394 E44.33205
G1 X0.806 Y-20.035 E44.73005
G1 X-3.811 Y-15.418 E45.07119
G1 X-1.839 Y-8.060 E45.46919
G1 X2.778 Y-6.823 E45.71891
G1 X2.153 Y-0.846 E46.03288
G1 X1.325 Y6.176 E46.40225
G1 X1.215 Y5.768 E46.42427
G1 X-5.092 Y4.078 E46.76541
G1 X-7.063 Y-3.280 E47.16341
G1 X-2.446 Y-7.897 E47.50456
G1 X-4.418 Y-15.255 E47.90256
G1 X-10.725 Y-16.945 E48.24370
G1 X-12.697 Y-24.304 E48.64170
G1 X-8.080 Y-28.921 E48.98284
G1 X-10.051 Y-36.279 E49.38084
G1 X-16.358 Y-37.969 E49.72198
G1 X-17.960 Y-43.946 E50.04524
G1 X-5.023 Y-41.790 E50.73045
G1 X-18.641 Y-44.059 F6000.000
G1 X-16.965 Y-37.807 E51.06864 F3000.000
G1 X-21.583 Y-33.190 E51.40978
G1 X-19.611 Y-25.831 E51.80778
G1 X-13.304 Y-24.141 E52.14892
G1 X-11.332 Y-16.783 E52.54692
G1 X-15.949 Y-12.166 E52.88806
G1 X-13.977 Y-4.807 E53.28606
G1 X-7.670 Y-3.117 E53.62721
G1 X-5.699 Y4.241 E54.02521
G1 X-10.316 Y8.858 E54.36635
G1 X-8.344 Y16.217 E54.76435
G1 X-2.037 Y17.907 E55.10549
G1 X-0.872 Y22.253 E55.34056
G1 X-1.545 Y26.745 E55.57787
G1 X-4.682 Y29.882 E55.80967
G1 X-3.023 Y36.074 E56.14460
G1 X-3.765 Y40.607 E56.38455
G1 X-4.648 Y45.785 E56.65900
G1 X-7.033 Y45.388 E56.78528
G1 X-7.935 Y42.020 E56.96743
G1 X-3.318 Y37.403 E57.30857
G1 X-5.289 Y30.045 E57.70657
G1 X-11.597 Y28.355 E58.04771
G1 X-13.568 Y20.996 E58.44571
