; generated by Slic3r 1.2.9 on 2016-07-17 at 16:05:26

; external perimeters extrusion width = 0.40mm
; perimeters extrusion width = 0.67mm
; infill extrusion width = 0.67mm
; solid infill extrusion width = 0.67mm
; top infill extrusion width = 0.67mm

M107
M104 S215 ; set temperature
G28 ; home all axes
G1 Y-60 Z5 F5000 ; lift nozzle


M109 S215 ; wait for temperature to be reached
G21 ; set units to millimeters
G90 ; use absolute coordinates
M82 ; use absolute distances for extrusion
G92 E0
G1 E-3.00000 F2400.00000
G92 E0
G1 Z0.300 F6000.000
G1 X-20.165 Y50.234 F6000.000
G1 E3.00000 F2400.00000
G1 X-20.941 Y50.174 E3.04068 F1800.000
G1 X-30.726 Y48.543 E3.55897
G1 X-32.464 Y47.853 E3.65664
G1 X-33.760 Y46.506 E3.75431
G1 X-34.419 Y44.185 E3.88037
G1 X-34.419 Y-45.815 E8.58241
G1 X-34.023 Y-47.643 E8.68009
G1 X-32.908 Y-49.143 E8.77776
G1 X-31.272 Y-50.047 E8.87543
G1 X-30.000 Y-50.234 E8.94258
G1 X30.000 Y-50.234 E12.07728
G1 X31.827 Y-49.839 E12.17495
G1 X33.327 Y-48.723 E12.27262
G1 X34.232 Y-47.087 E12.37030
G1 X34.419 Y-45.815 E12.43745
G1 X34.419 Y44.185 E17.13949
G1 X34.023 Y46.012 E17.23716
G1 X32.908 Y47.512 E17.33484
G1 X30.726 Y48.543 E17.46089
G1 X23.876 Y49.685 E17.82371
G1 X23.200 Y49.745 E17.85920
G1 X-20.105 Y50.233 E20.12179
G1 F4800
G1 X-20.941 Y50.174 E19.72355
G1 F4800
G1 X-26.032 Y49.326 E17.27179
G1 E17.12179 F2400.00000
G92 E0
G1 X-29.423 Y43.696 F6000.000
G1 E3.00000 F2400.00000
G1 X-29.423 Y-45.134 E7.64089 F1800.000
G1 X-4.314 Y-40.949 E8.97081
G1 X-5.236 Y-35.696 E9.24944
G1 X-6.363 Y-29.443 E9.58140
G1 X-8.738 Y-16.701 E10.25859
G1 X-11.661 Y-1.549 E11.06478
G1 X-16.395 Y22.512 E12.34596
G1 X-18.090 Y31.232 E12.81004
G1 X-19.727 Y39.891 E13.27048
G1 X-20.681 Y45.152 E13.54983
G1 X-29.364 Y43.705 E14.00970
G1 X-29.800 Y44.015 F6000.000
G1 X-29.800 Y-45.579 E17.76016 F1800.000
G1 X-3.876 Y-41.259 E18.86030
G1 X-4.864 Y-35.630 E19.09951
G1 X-5.992 Y-29.375 E19.36558
G1 X-8.367 Y-16.631 E19.90826
G1 X-11.291 Y-1.477 E20.55428
G1 X-16.024 Y22.585 E21.58082
G1 X-17.719 Y31.303 E21.95259
G1 X-19.356 Y39.960 E22.32141
G1 X-20.376 Y45.586 E22.56074
G1 X-29.741 Y44.025 E22.95816
G1 X-29.581 Y43.680 F6000.000
G1 X-27.746 Y43.508 F6000.000
G1 X-28.962 Y38.970 E23.20360 F1800.000
G1 X-28.962 Y43.305 E23.43010
G1 X-27.746 Y43.508 E23.49450
G1 X-16.735 Y21.854 F6000.000
G1 X-20.482 Y20.850 E23.69721 F1800.000
G1 X-25.869 Y26.237 E24.09521
G1 X-24.179 Y32.544 E24.43635
G1 X-28.962 Y37.327 E24.78974
G1 X-28.962 Y38.215 E24.83616
G1 X-23.735 Y32.988 E25.22238
G1 X-19.124 Y34.223 E25.47175
G1 X-18.542 Y31.145 E25.63543
G1 X-16.735 Y21.854 E26.12993
G1 X-11.877 Y-2.864 F6000.000
G1 X-13.977 Y-3.426 E26.24354 F1800.000
G1 X-19.364 Y1.960 E26.64154
G1 X-17.674 Y8.267 E26.98268
G1 X-23.061 Y13.654 E27.38068
G1 X-28.962 Y12.073 E27.69985
G1 X-28.962 Y25.083 E28.37954
G1 X-26.313 Y25.792 E28.52280
G1 X-20.927 Y20.406 E28.92080
G1 X-22.617 Y14.098 E29.26195
G1 X-17.230 Y8.712 E29.65995
G1 X-14.304 Y9.496 E29.81822
G1 X-11.877 Y-2.864 E30.47626
G1 X-7.171 Y-27.622 F6000.000
G1 X-7.473 Y-27.703 E30.49258 F1800.000
G1 X-12.859 Y-22.316 E30.89058
G1 X-11.169 Y-16.009 E31.23173
G1 X-16.556 Y-10.622 E31.62973
G1 X-22.863 Y-12.312 E31.97087
G1 X-28.250 Y-6.925 E32.36887
G1 X-26.560 Y-0.618 E32.71001
G1 X-28.962 Y1.784 E32.88749
G1 X-28.962 Y2.672 E32.93391
G1 X-26.116 Y-0.174 E33.14421
G1 X-19.808 Y1.516 E33.48535
G1 X-14.422 Y-3.871 E33.88335
G1 X-16.112 Y-10.178 E34.22449
G1 X-10.725 Y-15.565 E34.62249
G1 X-9.490 Y-15.234 E34.68927
G1 X-7.171 Y-27.622 E35.34774
G1 X-5.137 Y-38.924 F6000.000
G1 X-4.948 Y-40.002 E35.40491 F1800.000
G1 X-10.051 Y-34.899 E35.78199
G1 X-16.358 Y-36.589 E36.12313
G1 X-21.745 Y-31.202 E36.52113
G1 X-20.055 Y-24.895 E36.86227
G1 X-25.442 Y-19.508 E37.26027
G1 X-28.962 Y-20.451 E37.45067
G1 X-28.962 Y-7.442 E38.13036
G1 X-28.694 Y-7.370 E38.14484
G1 X-23.308 Y-12.756 E38.54284
G1 X-24.998 Y-19.064 E38.88398
G1 X-19.611 Y-24.450 E39.28198
G1 X-13.304 Y-22.760 E39.62312
G1 X-7.917 Y-28.147 E40.02112
G1 X-9.607 Y-34.454 E40.36226
G1 X-5.137 Y-38.924 E40.69254
G1 X-18.354 Y-42.822 F6000.000
G1 X-26.533 Y-44.185 E41.12575 F1800.000
G1 X-28.962 Y-41.757 E41.30521
G1 X-28.962 Y-33.859 E41.71780
G1 X-28.941 Y-33.780 E41.72206
G1 X-28.962 Y-33.759 E41.72362
G1 X-28.962 Y-32.871 E41.77004
G1 X-28.497 Y-33.336 E41.80443
G1 X-22.189 Y-31.646 E42.14557
G1 X-16.803 Y-37.033 E42.54357
G1 X-18.354 Y-42.822 E42.85670
G1 X-28.962 Y-42.645 F6000.000
G1 X-27.295 Y-44.312 E42.97988 F1800.000
G1 X-28.962 Y-44.590 E43.06818
G1 X-28.962 Y-42.645 E43.16979
G1 F4800
G1 X-28.962 Y-44.590 E42.24592
G1 F4800
G1 X-27.295 Y-44.312 E41.44310
G1 F4800
G1 X-28.962 Y-42.645 E40.32320
G1 E40.16979 F2400.00000
G92 E0
G1 X-11.095 Y-1.439 F6000.000
G1 X4.236 Y10.655 F6000.000
G1 X3.829 Y16.322 F6000.000
G1 X3.516 Y20.618 F6000.000
G1 X3.353 Y22.821 F6000.000
G1 X22.193 Y21.940 F6000.000
G1 X23.702 Y44.649 F6000.000
G1 E3.00000 F2400.00000
G1 X23.259 Y33.021 E3.60796 F1800.000
G1 X22.769 Y21.913 E4.18887
G1 X22.223 Y10.895 E4.76521
G1 X21.622 Y0.013 E5.33456
G1 X20.971 Y-10.687 E5.89461
G1 X20.131 Y-23.227 E6.55128
G1 X19.386 Y-33.382 E7.08322
G1 X18.594 Y-43.329 E7.60457
G1 X29.423 Y-45.134 E8.17811
G1 X29.423 Y43.696 E12.81900
G1 X23.761 Y44.639 E13.11888
G1 X23.341 Y45.092 F6000.000
G1 X22.882 Y33.036 E13.62389 F1800.000
G1 X22.393 Y21.930 E14.08925
G1 X21.846 Y10.914 E14.55094
G1 X21.246 Y0.035 E15.00703
G1 X20.595 Y-10.663 E15.45567
G1 X19.755 Y-23.201 E15.98171
G1 X19.010 Y-33.353 E16.40782
G1 X18.191 Y-43.644 E16.83999
G1 X29.800 Y-45.579 E17.33267
G1 X29.800 Y44.015 E21.08312
G1 X23.400 Y45.082 E21.35471
G1 X23.513 Y44.730 F6000.000
G1 X28.962 Y43.305 F6000.000
G1 X28.962 Y42.492 E21.39721 F1800.000
G1 X27.986 Y43.468 E21.46934
G1 X28.962 Y43.305 E21.52104
G1 X27.873 Y33.807 F6000.000
G1 X23.705 Y32.690 E21.74645 F1800.000
G1 X24.142 Y44.109 E22.34344
G1 X26.920 Y43.646 E22.49054
G1 X28.962 Y41.603 E22.64145
G1 X28.962 Y36.658 E22.89982
G1 X28.317 Y34.251 E23.03000
G1 X28.962 Y33.606 E23.07766
G1 X28.962 Y32.717 E23.12408
G1 X27.873 Y33.807 E23.20456
G1 X28.962 Y8.079 F6000.000
G1 X28.070 Y7.840 E23.25278 F1800.000
G1 X22.795 Y13.116 E23.64259
G1 X22.827 Y13.760 E23.67627
G1 X24.374 Y19.534 E23.98858
G1 X23.172 Y20.735 E24.07734
G1 X23.214 Y21.582 E24.12162
G1 X24.818 Y19.978 E24.24010
G1 X28.962 Y21.089 E24.46424
G1 X28.962 Y8.079 E25.14393
G1 X28.962 Y-1.937 F6000.000
G1 X28.962 Y-2.826 E25.19036 F1800.000
G1 X25.492 Y0.644 E25.44675
G1 X22.066 Y-0.273 E25.63203
G1 X22.753 Y12.269 E26.28831
G1 X27.626 Y7.396 E26.64839
G1 X25.936 Y1.089 E26.98953
G1 X28.962 Y-1.937 E27.21310
G1 X28.962 Y-24.445 F6000.000
G1 X25.689 Y-25.322 E27.39010 F1800.000
G1 X20.781 Y-20.414 E27.75274
G1 X20.984 Y-17.394 E27.91087
G1 X21.993 Y-13.628 E28.11456
G1 X21.284 Y-12.919 E28.16696
G1 X21.339 Y-12.086 E28.21056
G1 X22.437 Y-13.184 E28.29166
G1 X28.744 Y-11.494 E28.63280
G1 X28.962 Y-11.711 E28.64889
G1 X28.962 Y-24.445 E29.31416
G1 X28.962 Y-37.455 F6000.000
G1 X28.962 Y-44.590 E29.68695 F1800.000
G1 X26.831 Y-44.235 E29.79982
G1 X26.808 Y-44.212 E29.80155
G1 X28.498 Y-37.904 E30.14269
G1 X23.111 Y-32.518 E30.54069
G1 X19.847 Y-33.392 E30.71720
G1 X20.726 Y-21.247 E31.35340
G1 X25.245 Y-25.766 E31.68734
G1 X23.555 Y-32.073 E32.02848
G1 X28.942 Y-37.460 E32.42648
G1 X28.962 Y-37.455 E32.42757
G1 F4800
G1 X28.942 Y-37.460 E32.41768
G1 F4800
G1 X24.714 Y-33.232 E29.57757
G1 E29.42757 F2400.00000
G92 E0
G1 Z0.500 F6000.000
G1 X-20.774 Y45.020 F6000.000
G1 E3.00000 F2400.00000
G1 X-29.307 Y43.598 E3.45195 F1200.000
G1 X-29.307 Y-44.998 E8.08062
G1 X-4.447 Y-40.854 E9.39733
G1 X-5.350 Y-35.717 E9.66986
G1 X-6.476 Y-29.464 E10.00179
G1 X-8.852 Y-16.722 E10.67895
G1 X-11.775 Y-1.571 E11.48510
G1 X-16.508 Y22.490 E12.76628
G1 X-18.203 Y31.210 E13.23038
G1 X-19.840 Y39.870 E13.69085
G1 X-20.764 Y44.961 E13.96115
G1 X-20.376 Y45.586 F6000.000
G1 X-29.800 Y44.015 E14.24481 F600.000
G1 X-29.800 Y-45.579 E16.90499
G1 X-3.876 Y-41.259 E17.68532
G1 X-4.864 Y-35.630 E17.85499
G1 X-5.992 Y-29.375 E18.04371
G1 X-8.367 Y-16.631 E18.42863
G1 X-11.291 Y-1.477 E18.88685
G1 X-16.024 Y22.585 E19.61496
G1 X-17.719 Y31.303 E19.87866
G1 X-19.356 Y39.960 E20.14026
G1 X-20.366 Y45.527 E20.30824
G1 X-20.684 Y45.330 F6000.000
G1 X-27.459 Y43.364 F6000.000
G1 X-28.773 Y38.461 E20.57347 F3000.000
G1 X-28.773 Y40.888 E20.70031
G1 X-28.140 Y43.251 E20.82810
G1 X-27.459 Y43.364 E20.86416
G1 X-26.313 Y25.792 F6000.000
G1 X-28.773 Y25.133 E20.99721 F3000.000
G1 X-28.773 Y37.582 E21.64761
G1 X-24.342 Y33.151 E21.97504
G1 X-26.313 Y25.792 E22.37304
G1 X-25.442 Y-19.508 F6000.000
G1 X-28.773 Y-20.401 E22.55323 F3000.000
G1 X-28.773 Y-7.391 E23.23292
G1 X-28.694 Y-7.370 E23.23719
G1 X-26.723 Y-0.011 E23.63519
G1 X-28.773 Y2.039 E23.78670
G1 X-28.773 Y12.124 E24.31356
G1 X-23.061 Y13.654 E24.62253
G1 X-21.089 Y21.013 E25.02052
G1 X-25.706 Y25.630 E25.36167
G1 X-23.735 Y32.988 E25.75967
G1 X-19.307 Y34.174 E25.99914
G1 X-18.728 Y31.109 E26.16212
G1 X-16.917 Y21.805 E26.65733
G1 X-20.482 Y20.850 E26.85015
G1 X-22.454 Y13.492 E27.24815
G1 X-17.837 Y8.874 E27.58929
G1 X-19.808 Y1.516 E27.98729
G1 X-26.116 Y-0.174 E28.32843
G1 X-28.087 Y-7.532 E28.72643
G1 X-23.470 Y-12.150 E29.06757
G1 X-25.442 Y-19.508 E29.46557
G1 X-26.688 Y-44.020 F6000.000
G1 X-27.078 Y-44.085 E29.48625 F3000.000
G1 X-28.773 Y-42.390 E29.61150
G1 X-28.773 Y-34.369 E30.03056
G1 X-28.497 Y-33.336 E30.08640
G1 X-22.189 Y-31.646 E30.42754
G1 X-20.218 Y-24.288 E30.82554
G1 X-24.835 Y-19.671 E31.16669
G1 X-22.863 Y-12.312 E31.56469
G1 X-16.556 Y-10.622 E31.90583
G1 X-14.584 Y-3.264 E32.30383
G1 X-19.202 Y1.353 E32.64497
G1 X-17.230 Y8.712 E33.04297
G1 X-14.486 Y9.447 E33.19136
G1 X-12.060 Y-2.913 E33.84940
G1 X-13.977 Y-3.426 E33.95312
G1 X-15.949 Y-10.785 E34.35112
G1 X-11.332 Y-15.402 E34.69226
G1 X-13.304 Y-22.760 E35.09026
G1 X-19.611 Y-24.450 E35.43140
G1 X-21.583 Y-31.809 E35.82940
G1 X-16.965 Y-36.426 E36.17055
G1 X-18.641 Y-42.679 E36.50874
G1 X-26.688 Y-44.020 E36.93494
G1 X-5.067 Y-40.416 F6000.000
G1 X-17.960 Y-42.565 E37.61784 F3000.000
G1 X-16.358 Y-36.589 E37.94110
G1 X-10.051 Y-34.899 E38.28224
G1 X-8.080 Y-27.540 E38.68024
G1 X-12.697 Y-22.923 E39.02138
G1 X-10.725 Y-15.565 E39.41938
G1 X-9.673 Y-15.283 E39.47627
G1 X-7.354 Y-27.671 E40.13474
G1 X-7.473 Y-27.703 E40.14117
G1 X-9.444 Y-35.061 E40.53917
G1 X-5.275 Y-39.231 E40.84724
G1 X-5.067 Y-40.416 E40.91012
G1 F4800
G1 X-5.275 Y-39.231 E40.33842
G1 F4800
G1 X-8.666 Y-35.839 E38.06012
G1 E37.91012 F2400.00000
G92 E0
G1 X-11.095 Y-1.439 F6000.000
G1 X4.394 Y8.414 F6000.000
G1 X4.075 Y12.906 F6000.000
G1 X3.677 Y18.418 F6000.000
G1 X3.516 Y20.618 F6000.000
G1 X22.088 Y19.728 F6000.000
G1 X23.812 Y44.514 F6000.000
G1 E3.00000 F2400.00000
G1 X23.374 Y33.016 E3.60113 F1200.000
G1 X22.885 Y21.907 E4.18207
G1 X22.338 Y10.888 E4.75845
G1 X21.737 Y0.007 E5.32783
G1 X21.087 Y-10.694 E5.88792
G1 X20.246 Y-23.235 E6.54462
G1 X19.501 Y-33.391 E7.07660
G1 X18.718 Y-43.233 E7.59243
G1 X29.307 Y-44.998 E8.15332
G1 X29.307 Y43.598 E12.78198
G1 X23.871 Y44.504 E13.06990
G1 X23.341 Y45.092 F6000.000
G1 X22.882 Y33.036 E13.42810 F600.000
G1 X22.393 Y21.930 E13.75817
G1 X21.846 Y10.914 E14.08565
G1 X21.246 Y0.035 E14.40915
G1 X20.595 Y-10.663 E14.72737
G1 X19.755 Y-23.201 E15.10049
G1 X19.010 Y-33.353 E15.40273
G1 X18.191 Y-43.644 E15.70926
G1 X29.800 Y-45.579 E16.05872
G1 X29.800 Y44.015 E18.71889
G1 X23.400 Y45.082 E18.91153
G1 X23.513 Y44.730 F6000.000
G1 X28.773 Y34.740 F6000.000
G1 X28.773 Y33.350 E18.98411 F3000.000
G1 X28.480 Y33.644 E19.00580
G1 X28.773 Y34.740 E19.06506
G1 X27.873 Y33.807 F6000.000
G1 X23.897 Y32.741 E19.28012 F3000.000
G1 X24.323 Y43.887 E19.86286
G1 X27.682 Y43.327 E20.04080
G1 X28.773 Y42.236 E20.12141
G1 X28.773 Y37.167 E20.38623
G1 X27.873 Y33.807 E20.56800
G1 X24.211 Y20.141 F6000.000
G1 X23.132 Y16.115 E20.78577 F3000.000
G1 X23.373 Y20.979 E21.04019
G1 X24.211 Y20.141 E21.10207
G1 X22.437 Y-13.184 F6000.000
G1 X21.127 Y-18.071 E21.36642 F3000.000
G1 X21.344 Y-14.834 E21.53593
G1 X21.830 Y-13.021 E21.63397
G1 X21.489 Y-12.680 E21.65919
G1 X22.259 Y-0.222 E22.31130
G1 X25.492 Y0.644 E22.48617
G1 X27.463 Y8.003 E22.88417
G1 X22.954 Y12.513 E23.21738
G1 X22.985 Y13.136 E23.24998
G1 X24.818 Y19.978 E23.62008
G1 X28.773 Y21.038 E23.83401
G1 X28.773 Y8.029 E24.51370
G1 X28.070 Y7.840 E24.55171
G1 X26.099 Y0.482 E24.94971
G1 X28.773 Y-2.193 E25.14732
G1 X28.773 Y-11.385 E25.62760
G1 X28.744 Y-11.494 E25.63345
G1 X22.437 Y-13.184 E25.97460
G1 X23.111 Y-32.518 F6000.000
G1 X20.040 Y-33.340 E26.14067 F3000.000
G1 X20.931 Y-21.007 E26.78668
G1 X25.083 Y-25.159 E27.09344
G1 X23.111 Y-32.518 E27.49144
G1 X28.773 Y-38.089 F6000.000
G1 X27.163 Y-44.099 E27.81648 F3000.000
G1 X26.540 Y-43.995 E27.84946
G1 X28.335 Y-37.297 E28.21172
G1 X23.718 Y-32.680 E28.55287
G1 X25.689 Y-25.322 E28.95087
G1 X28.773 Y-24.496 E29.11766
G1 X28.773 Y-38.089 E29.82787
G1 F4800
G1 X28.773 Y-32.089 E26.97787
G1 E26.82787 F2400.00000
G92 E0
G1 Z0.700 F6000.000
G1 X-20.774 Y45.020 F6000.000
G1 E3.00000 F2400.00000
G1 X-29.307 Y43.598 E3.45195 F1200.000
G1 X-29.307 Y-44.998 E8.08062
G1 X-4.447 Y-40.854 E9.39733
G1 X-5.350 Y-35.717 E9.66986
G1 X-6.476 Y-29.464 E10.00179
G1 X-8.852 Y-16.722 E10.67895
G1 X-11.775 Y-1.571 E11.48510
G1 X-16.508 Y22.490 E12.76628
G1 X-18.203 Y31.210 E13.23038
G1 X-19.840 Y39.870 E13.69085
G1 X-20.764 Y44.961 E13.96115
G1 X-20.376 Y45.586 F6000.000
G1 X-29.800 Y44.015 E14.24481 F600.000
G1 X-29.800 Y-45.579 E16.90499
G1 X-3.876 Y-41.259 E17.68532
G1 X-4.864 Y-35.630 E17.85499
G1 X-5.992 Y-29.375 E18.04371
G1 X-8.367 Y-16.631 E18.42863
G1 X-11.291 Y-1.477 E18.88685
G1 X-16.024 Y22.585 E19.61496
G1 X-17.719 Y31.303 E19.87866
G1 X-19.356 Y39.960 E20.14026
G1 X-20.366 Y45.527 E20.30824
G1 X-20.684 Y45.330 F6000.000
G1 X-19.366 Y34.484 F6000.000
G1 X-24.342 Y33.151 E20.57738 F3000.000
G1 X-28.773 Y37.582 E20.90481
G1 X-28.773 Y39.674 E21.01411
G1 X-27.800 Y43.308 E21.21062
G1 X-21.206 Y44.407 E21.55986
G1 X-20.366 Y39.773 E21.80589
G1 X-19.366 Y34.484 E22.08711
G1 X-16.978 Y22.114 F6000.000
G1 X-21.089 Y21.013 E22.30947 F3000.000
G1 X-25.706 Y25.630 E22.65061
G1 X-28.773 Y24.808 E22.81649
G1 X-28.773 Y25.458 E22.85047
G1 X-25.869 Y26.237 E23.00755
G1 X-24.179 Y32.544 E23.34870
G1 X-19.249 Y33.865 E23.61537
G1 X-16.978 Y22.114 E24.24064
G1 X-14.547 Y9.756 F6000.000
G1 X-17.837 Y8.874 E24.41857 F3000.000
G1 X-22.454 Y13.492 E24.75971
G1 X-28.773 Y11.798 E25.10151
G1 X-28.773 Y12.449 E25.13549
G1 X-22.617 Y14.098 E25.46849
G1 X-20.927 Y20.406 E25.80963
G1 X-16.857 Y21.496 E26.02977
G1 X-14.547 Y9.756 E26.65490
G1 X-28.250 Y-6.925 F6000.000
G1 X-28.773 Y-7.066 E26.68320 F3000.000
G1 X-28.773 Y2.039 E27.15889
G1 X-26.723 Y-0.011 E27.31040
G1 X-19.364 Y1.960 E27.70840
G1 X-17.674 Y8.267 E28.04954
G1 X-14.426 Y9.138 E28.22525
G1 X-12.120 Y-2.603 E28.85039
G1 X-14.584 Y-3.264 E28.98371
G1 X-19.202 Y1.353 E29.32485
G1 X-26.560 Y-0.618 E29.72285
G1 X-28.250 Y-6.925 E30.06399
G1 X-24.998 Y-19.064 F6000.000
G1 X-28.773 Y-20.075 E30.26821 F3000.000
G1 X-28.773 Y-7.716 E30.91391
G1 X-28.087 Y-7.532 E30.95101
G1 X-23.470 Y-12.150 E31.29215
G1 X-16.112 Y-10.178 E31.69015
G1 X-14.422 Y-3.871 E32.03130
G1 X-12.000 Y-3.222 E32.16227
G1 X-9.733 Y-14.974 E32.78756
G1 X-11.332 Y-15.402 E32.87405
G1 X-15.949 Y-10.785 E33.21519
G1 X-23.308 Y-12.756 E33.61319
G1 X-24.998 Y-19.064 E33.95433
G1 X-21.745 Y-31.202 F6000.000
G1 X-28.773 Y-33.085 E34.33447 F3000.000
G1 X-28.773 Y-20.726 E34.98017
G1 X-24.835 Y-19.671 E35.19319
G1 X-20.218 Y-24.288 E35.53433
G1 X-12.859 Y-22.316 E35.93233
G1 X-11.169 Y-16.009 E36.27347
G1 X-9.614 Y-15.592 E36.35762
G1 X-7.412 Y-27.361 E36.98317
G1 X-8.080 Y-27.540 E37.01930
G1 X-12.697 Y-22.923 E37.36045
G1 X-20.055 Y-24.895 E37.75844
G1 X-21.745 Y-31.202 E38.09959
G1 X-25.150 Y-43.763 F6000.000
G1 X-27.078 Y-44.085 E38.20171 F3000.000
G1 X-28.773 Y-42.390 E38.32696
G1 X-28.773 Y-33.736 E38.77909
G1 X-21.583 Y-31.809 E39.16802
G1 X-16.965 Y-36.426 E39.50916
G1 X-9.607 Y-34.454 E39.90716
G1 X-7.917 Y-28.147 E40.24830
