; generated by Slic3r 1.2.9 on 2016-07-17 at 16:05:56

; external perimeters extrusion width = 0.40mm
; perimeters extrusion width = 0.67mm
; infill extrusion width = 0.67mm
; solid infill extrusion width = 0.67mm
; top infill extrusion width = 0.67mm

M107
M104 S215 ; set temperature
G28 ; home all axes
G1 Y-60 Z5 F5000 ; lift nozzle


M109 S215 ; wait for temperature to be reached
G21 ; set units to millimeters
G90 ; use absolute coordinates
M82 ; use absolute distances for extrusion
G92 E0
G1 E-3.00000 F2400.00000
G92 E0
G1 Z0.300 F6000.000
G1 X24.114 Y-0.731 F6000.000
G1 E3.00000 F2400.00000
G1 X24.706 Y10.203 E3.57206 F1800.000
G1 X25.242 Y21.264 E4.15063
G1 X25.720 Y32.406 E4.73327
G1 X26.098 Y42.485 E5.26025
G1 X25.767 Y44.325 E5.35792
G1 X24.704 Y45.864 E5.45559
G1 X22.409 Y46.998 E5.58938
G1 X-0.741 Y50.857 E6.81553
G1 X-2.194 Y50.857 E6.89144
G1 X-22.409 Y47.488 E7.96212
G1 X-24.146 Y46.797 E8.05979
G1 X-25.442 Y45.450 E8.15747
G1 X-26.066 Y43.688 E8.25514
G1 X-26.033 Y42.354 E8.32485
G1 X-24.973 Y36.511 E8.63507
G1 X-24.160 Y32.166 E8.86605
G1 X-9.453 Y-44.937 E12.96691
G1 X-8.722 Y-46.658 E13.06458
G1 X-7.345 Y-47.923 E13.16226
G1 X-5.597 Y-48.502 E13.25843
G1 X16.024 Y-50.890 E14.39489
G1 X17.883 Y-50.698 E14.49256
G1 X19.497 Y-49.754 E14.59024
G1 X20.576 Y-48.227 E14.68791
G1 X20.913 Y-46.864 E14.76123
G1 X21.440 Y-40.343 E15.10305
G1 X22.052 Y-32.328 E15.52302
G1 X22.640 Y-24.117 E15.95308
G1 X23.201 Y-15.738 E16.39183
G1 X23.734 Y-7.211 E16.83821
G1 X24.111 Y-0.791 E17.17421
G1 F4800
G1 X24.435 Y5.201 E14.32421
G1 E14.17421 F2400.00000
G92 E0
G1 X-6.045 Y-31.079 F6000.000
G1 E3.00000 F2400.00000
G1 X15.110 Y-31.079 E4.10521 F1800.000
G1 X15.110 Y11.075 E6.30757
G1 X-6.045 Y11.075 E7.41279
G1 X-6.045 Y-31.019 E9.61201
G1 X-5.668 Y-30.702 F6000.000
G1 X14.732 Y-30.702 E10.46596 F1800.000
G1 X14.732 Y10.698 E12.19898
G1 X-5.668 Y10.698 E13.05293
G1 X-5.668 Y-30.642 E14.78343
G1 X-5.668 Y-31.102 F6000.000
G1 X-4.642 Y-43.446 F6000.000
G1 X-1.468 Y-42.917 E14.95159 F1800.000
G1 X15.984 Y-45.825 E15.87590
G1 X16.767 Y-35.980 E16.39188
G1 X17.512 Y-25.833 E16.92344
G1 X18.352 Y-13.299 E17.57973
G1 X19.002 Y-2.606 E18.13943
G1 X19.603 Y8.268 E18.70844
G1 X20.149 Y19.280 E19.28444
G1 X20.638 Y30.382 E19.86501
G1 X21.086 Y42.154 E20.48050
G1 X-1.468 Y45.913 E21.67507
G1 X-21.010 Y42.656 E22.71013
G1 X-20.059 Y37.415 E22.98840
G1 X-18.424 Y28.763 E23.44845
G1 X-16.729 Y20.047 E23.91231
G1 X-11.996 Y-4.015 E25.19353
G1 X-9.072 Y-19.172 E26.00002
G1 X-6.695 Y-31.921 E26.67758
G1 X-5.567 Y-38.181 E27.00986
G1 X-4.653 Y-43.387 E27.28601
G1 X-4.949 Y-43.879 F6000.000
G1 X-1.468 Y-43.299 E27.43377 F1800.000
G1 X16.327 Y-46.265 E28.18893
G1 X17.144 Y-36.009 E28.61960
G1 X17.888 Y-25.859 E29.04561
G1 X18.728 Y-13.324 E29.57155
G1 X19.379 Y-2.628 E30.02009
G1 X19.979 Y8.249 E30.47609
G1 X20.525 Y19.262 E30.93769
G1 X21.014 Y30.366 E31.40295
G1 X21.476 Y42.471 E31.91004
G1 X-1.468 Y46.295 E32.88371
G1 X-21.449 Y42.965 E33.73168
G1 X-20.430 Y37.346 E33.97072
G1 X-18.794 Y28.691 E34.33943
G1 X-17.099 Y19.975 E34.71114
G1 X-12.366 Y-4.087 E35.73769
G1 X-9.442 Y-19.242 E36.38380
G1 X-7.066 Y-31.989 E36.92658
G1 X-5.938 Y-38.247 E37.19273
G1 X-4.960 Y-43.820 E37.42961
G1 X-4.641 Y-43.624 F6000.000
G1 X-6.426 Y-31.289 F6000.000
G1 X-6.559 Y-29.849 E37.59231 F1800.000
G1 X-6.506 Y-29.381 F6000.000
G1 X-6.506 Y-23.850 E37.88128 F1800.000
G1 X-7.672 Y-24.163 E37.94439
G1 X-6.696 Y-29.399 E38.22265
G1 X-6.506 Y-29.381 E38.23266
G1 X-6.506 Y-12.149 F6000.000
G1 X-7.794 Y-10.861 E38.32785 F1800.000
G1 X-6.506 Y-6.052 E38.58793
G1 X-6.506 Y-4.152 E38.68722
G1 X-11.491 Y0.833 E39.05554
G1 X-12.431 Y0.582 E39.10637
G1 X-10.028 Y-11.784 E39.76451
G1 X-8.238 Y-11.305 E39.86129
G1 X-6.506 Y-13.037 E39.98931
G1 X-6.506 Y-12.149 E40.03573
G1 X-6.506 Y8.674 F6000.000
G1 X-8.912 Y8.029 E40.16590 F1800.000
G1 X-14.299 Y13.416 E40.56390
G1 X-12.609 Y19.723 E40.90504
G1 X-17.063 Y24.177 E41.23411
G1 X-14.861 Y12.940 E41.83234
G1 X-14.743 Y12.972 E41.83874
G1 X-9.356 Y7.585 E42.23674
G1 X-11.046 Y1.278 E42.57788
G1 X-6.506 Y-3.263 E42.91338
G1 X-6.506 Y8.674 E43.53704
G1 X-6.468 Y11.498 F6000.000
G1 X4.931 Y26.608 F6000.000
G1 X11.551 Y19.682 F6000.000
G1 X15.532 Y15.506 F6000.000
G1 X15.532 Y11.498 F6000.000
G1 X11.667 Y13.218 F6000.000
G1 X6.281 Y18.605 E43.93504 F1800.000
G1 X-0.026 Y16.915 E44.27618
G1 X-5.413 Y22.302 E44.67418
G1 X-3.723 Y28.609 E45.01532
G1 X-9.110 Y33.996 E45.41332
G1 X-15.417 Y32.306 E45.75446
G1 X-19.372 Y36.261 E46.04670
G1 X-19.165 Y35.165 E46.10496
G1 X-15.861 Y31.861 E46.34907
G1 X-17.423 Y26.032 E46.66437
G1 X-17.277 Y25.280 E46.70439
G1 X-12.165 Y20.167 E47.08213
G1 X-5.857 Y21.857 E47.42327
G1 X-0.471 Y16.471 E47.82127
G1 X-1.793 Y11.536 E48.08817
G1 X11.217 Y11.536 E48.76786
G1 X11.667 Y13.218 E48.85884
G1 X18.419 Y15.352 F6000.000
G1 X19.442 Y14.330 E48.93442 F1800.000
G1 X19.484 Y15.176 E48.97870
G1 X18.863 Y15.797 E49.02455
G1 X19.662 Y18.779 E49.18587
G1 X19.843 Y22.814 E49.39688
G1 X15.167 Y27.491 E49.74240
G1 X8.859 Y25.801 E50.08355
G1 X3.473 Y31.187 E50.48155
G1 X5.163 Y37.495 E50.82269
G1 X-0.224 Y42.881 E51.22069
G1 X-6.531 Y41.191 E51.56183
G1 X-9.455 Y44.115 E51.77782
G1 X-10.216 Y43.988 E51.81816
G1 X-6.976 Y40.747 E52.05760
G1 X-8.666 Y34.440 E52.39874
G1 X-3.279 Y29.053 E52.79674
G1 X3.028 Y30.743 E53.13788
G1 X8.415 Y25.356 E53.53588
G1 X6.725 Y19.049 E53.87702
G1 X12.112 Y13.662 E54.27502
G1 X18.419 Y15.352 E54.61617
G1 X20.177 Y30.401 F6000.000
G1 X20.367 Y35.389 E54.87698 F1800.000
G1 X17.745 Y34.686 E55.01880
G1 X12.358 Y40.073 E55.41680
G1 X13.145 Y43.010 E55.57566
G1 X0.692 Y45.086 E56.23527
G1 X0.220 Y43.326 E56.33048
G1 X5.607 Y37.939 E56.72848
G1 X11.914 Y39.629 E57.06962
G1 X17.301 Y34.242 E57.46762
G1 X15.611 Y27.935 E57.80876
G1 X19.881 Y23.665 E58.12423
G1 X20.177 Y30.401 E58.47645
G1 X18.542 Y-2.580 F6000.000
G1 X18.820 Y2.450 E58.73963 F1800.000
G1 X15.570 Y1.580 E58.91539
G1 X15.570 Y-7.568 E59.39328
G1 X18.086 Y-10.083 E59.57912
G1 X18.542 Y-2.580 E59.97186
G1 X17.546 Y-18.429 F6000.000
G1 X16.482 Y-17.365 E60.05045 F1800.000
G1 X17.983 Y-11.763 E60.35347
G1 X18.035 Y-10.921 E60.39757
G1 X15.570 Y-8.456 E60.57965
G1 X15.570 Y-17.935 E61.07486
G1 X16.038 Y-17.810 E61.10016
G1 X17.490 Y-19.262 E61.20746
G1 X17.546 Y-18.429 E61.25106
G1 X16.308 Y-35.945 F6000.000
G1 X16.697 Y-30.643 E61.52883 F1800.000
G1 X15.570 Y-30.945 E61.58976
G1 X15.570 Y-31.540 E61.62086
G1 X13.348 Y-31.540 E61.73694
G1 X12.983 Y-31.638 E61.75670
G1 X12.885 Y-31.540 E61.76393
G1 X11.997 Y-31.540 E61.81035
G1 X12.539 Y-32.082 E61.85041
G1 X10.849 Y-38.389 E62.19155
G1 X15.725 Y-43.265 E62.55183
G1 X16.308 Y-35.945 E62.93549
G1 X15.660 Y-44.089 F6000.000
G1 X10.405 Y-38.834 E63.32376 F1800.000
G1 X4.097 Y-40.524 E63.66490
G1 X-1.289 Y-35.137 E64.06290
G1 X-0.325 Y-31.540 E64.25745
G1 X-5.454 Y-31.540 E64.52541
G1 X-5.443 Y-31.661 E64.53174
G1 X-6.263 Y-31.736 E64.57477
G1 X-5.391 Y-36.561 E64.83093
G1 X-1.734 Y-35.581 E65.02878
G1 X3.653 Y-40.968 E65.42678
G1 X3.054 Y-43.203 E65.54768
G1 X15.508 Y-45.279 E66.20729
G1 X15.589 Y-44.976 E66.22369
G1 X15.660 Y-44.089 E66.27019
G1 X17.057 Y-2.493 F6000.000
G1 X17.414 Y10.579 F6000.000
G1 X3.644 Y27.952 F6000.000
G1 X-7.399 Y33.116 F6000.000
G1 X-14.914 Y38.367 F6000.000
G1 X-17.413 Y40.121 F6000.000
G1 X-19.911 Y41.879 F6000.000
G1 X-19.533 Y42.435 F6000.000
G1 X-20.473 Y42.278 E66.31998 F1800.000
G1 X-20.111 Y40.279 E66.42612
G1 X-19.533 Y42.435 E66.54271
G1 F4800
G1 X-20.111 Y40.279 E65.48266
G1 F4800
G1 X-20.473 Y42.278 E64.51768
G1 F4800
G1 X-19.533 Y42.435 E64.06497
G1 E63.54271 F2400.00000
G92 E0
G1 Z0.500 F6000.000
G1 X-6.160 Y-31.195 F6000.000
G1 E3.00000 F2400.00000
G1 X15.225 Y-31.195 E4.11728 F1200.000
G1 X15.225 Y11.191 E6.33170
G1 X-6.160 Y11.191 E7.44898
G1 X-6.160 Y-31.135 E9.66026
G1 X-5.668 Y-30.702 F6000.000
G1 X14.732 Y-30.702 E10.26597 F600.000
G1 X14.732 Y10.698 E11.49519
G1 X-5.668 Y10.698 E12.10089
G1 X-5.668 Y-30.642 E13.32833
G1 X-5.668 Y-31.102 F6000.000
G1 X-4.549 Y-43.313 F6000.000
G1 X-1.468 Y-42.800 E13.49151 F1200.000
G1 X15.879 Y-45.691 E14.41026
G1 X16.652 Y-35.971 E14.91965
G1 X17.396 Y-25.825 E15.45118
G1 X18.236 Y-13.292 E16.10743
G1 X18.887 Y-2.600 E16.66709
G1 X19.487 Y8.274 E17.23607
G1 X20.033 Y19.285 E17.81204
G1 X20.522 Y30.386 E18.39257
G1 X20.967 Y42.057 E19.00273
G1 X-1.468 Y45.796 E20.19098
G1 X-20.875 Y42.561 E21.21892
G1 X-19.946 Y37.436 E21.49105
G1 X-18.310 Y28.784 E21.95107
G1 X-16.616 Y20.069 E22.41490
G1 X-11.883 Y-3.993 E23.69613
G1 X-8.958 Y-19.151 E24.50264
G1 X-6.581 Y-31.901 E25.18024
G1 X-5.453 Y-38.161 E25.51256
G1 X-4.559 Y-43.254 E25.78274
G1 X-4.949 Y-43.879 F6000.000
G1 X-1.468 Y-43.299 E25.88754 F600.000
G1 X16.327 Y-46.265 E26.42318
G1 X17.144 Y-36.009 E26.72866
G1 X17.888 Y-25.859 E27.03082
G1 X18.728 Y-13.324 E27.40386
G1 X19.379 Y-2.628 E27.72201
G1 X19.979 Y8.249 E28.04545
G1 X20.525 Y19.262 E28.37286
G1 X21.014 Y30.366 E28.70287
G1 X21.476 Y42.471 E29.06255
G1 X-1.468 Y46.295 E29.75316
G1 X-21.449 Y42.965 E30.35463
G1 X-20.430 Y37.346 E30.52417
G1 X-18.794 Y28.691 E30.78570
G1 X-17.099 Y19.975 E31.04935
G1 X-12.366 Y-4.087 E31.77748
G1 X-9.442 Y-19.242 E32.23576
G1 X-7.066 Y-31.989 E32.62075
G1 X-5.938 Y-38.247 E32.80953
G1 X-4.960 Y-43.820 E32.97755
G1 X-4.641 Y-43.624 F6000.000
G1 X-1.127 Y-35.744 F6000.000
G1 X-0.051 Y-31.729 E33.19472 F3000.000
G1 X-0.701 Y-31.729 E33.22870
G1 X-1.734 Y-35.581 E33.43707
G1 X-5.209 Y-36.512 E33.62506
G1 X-4.114 Y-42.699 E33.95332
G1 X-1.468 Y-42.258 E34.09349
G1 X2.792 Y-42.968 E34.31910
G1 X3.491 Y-40.361 E34.46012
G1 X-1.127 Y-35.744 E34.80126
G1 X16.105 Y-31.502 F6000.000
G1 X17.241 Y4.016 F6000.000
G1 X15.936 Y15.058 F6000.000
G1 X-5.828 Y22.184 F6000.000
G1 X-8.834 Y-5.659 F6000.000
G1 X-7.987 Y-14.501 F6000.000
G1 X-7.572 Y-18.888 F6000.000
G1 X-7.367 Y-21.071 F6000.000
G1 X-7.164 Y-23.245 F6000.000
G1 X-7.164 Y-23.246 F6000.000
G1 X-6.694 Y-23.901 F6000.000
G1 X-6.694 Y-12.404 E35.40189 F3000.000
G1 X-7.631 Y-11.467 E35.47112
G1 X-6.694 Y-7.970 E35.66027
G1 X-6.694 Y-5.543 E35.78710
G1 X-8.238 Y-11.305 E36.09875
G1 X-9.845 Y-11.735 E36.18565
G1 X-8.433 Y-19.051 E36.57492
G1 X-7.490 Y-24.114 E36.84397
G1 X-6.694 Y-23.901 E36.88698
G1 X-6.468 Y21.406 F6000.000
G1 X11.551 Y19.682 F6000.000
G1 X17.414 Y10.579 F6000.000
G1 X16.799 Y-11.072 F6000.000
G1 X16.456 Y-21.604 F6000.000
G1 X16.239 Y-27.805 F6000.000
G1 X16.165 Y-29.850 F6000.000
G1 X16.797 Y-29.896 F6000.000
G1 X16.504 Y-30.694 F6000.000
G1 X16.864 Y-25.788 E37.14403 F3000.000
G1 X17.341 Y-18.668 E37.51682
G1 X16.645 Y-17.972 E37.56824
G1 X17.635 Y-14.277 E37.76812
G1 X17.834 Y-11.106 E37.93411
G1 X16.038 Y-17.810 E38.29671
G1 X15.759 Y-17.884 E38.31179
G1 X15.759 Y-30.894 E38.99148
G1 X16.504 Y-30.694 E39.03176
G1 X15.517 Y-43.502 F6000.000
G1 X11.012 Y-38.996 E39.36466 F3000.000
G1 X12.959 Y-31.729 E39.75774
G1 X12.308 Y-31.729 E39.79173
G1 X10.405 Y-38.834 E40.17601
G1 X4.097 Y-40.524 E40.51716
G1 X3.415 Y-43.072 E40.65499
G1 X15.245 Y-45.044 E41.28162
G1 X15.457 Y-44.253 E41.32438
G1 X15.517 Y-43.502 E41.36376
G1 X18.354 Y-2.569 F6000.000
G1 X18.628 Y2.399 E41.62368 F3000.000
G1 X15.759 Y1.630 E41.77885
G1 X15.759 Y-8.201 E42.29246
G1 X17.882 Y-10.323 E42.44930
G1 X18.354 Y-2.569 E42.85520
G1 X17.300 Y6.198 F6000.000
G1 X17.438 Y11.498 F6000.000
G1 X15.936 Y15.058 F6000.000
G1 X15.532 Y15.506 F6000.000
G1 X12.112 Y13.662 F6000.000
G1 X18.419 Y15.352 E43.19634 F3000.000
G1 X19.504 Y19.401 E43.41533
G1 X19.681 Y23.421 E43.62553
G1 X15.773 Y27.328 E43.91423
G1 X17.745 Y34.686 E44.31223
G1 X20.176 Y35.338 E44.44373
G1 X20.415 Y41.607 E44.77151
G1 X13.408 Y42.775 E45.14267
G1 X12.521 Y39.466 E45.32164
G1 X17.138 Y34.849 E45.66278
G1 X15.167 Y27.491 E46.06078
G1 X8.859 Y25.801 E46.40193
G1 X6.888 Y18.442 E46.79993
G1 X11.505 Y13.825 E47.14107
G1 X10.942 Y11.725 E47.25467
G1 X11.593 Y11.725 E47.28865
G1 X12.112 Y13.662 E47.39346
G1 X19.357 Y16.424 F6000.000
G1 X19.026 Y15.190 E47.46024 F3000.000
G1 X19.283 Y14.933 E47.47921
G1 X19.357 Y16.424 E47.55723
G1 X-0.026 Y16.915 F6000.000
G1 X6.281 Y18.605 E47.89837 F3000.000
G1 X8.252 Y25.963 E48.29637
G1 X3.635 Y30.580 E48.63752
G1 X5.607 Y37.939 E49.03551
G1 X11.914 Y39.629 E49.37666
G1 X12.785 Y42.879 E49.55245
G1 X0.954 Y44.851 E50.17907
G1 X0.383 Y42.719 E50.29439
G1 X5.000 Y38.101 E50.63553
G1 X3.028 Y30.743 E51.03353
G1 X-3.279 Y29.053 E51.37468
G1 X-5.251 Y21.695 E51.77268
G1 X-0.633 Y17.078 E52.11382
G1 X-2.068 Y11.725 E52.40334
G1 X-1.417 Y11.725 E52.43732
G1 X-0.026 Y16.915 E52.71804
G1 X-5.828 Y22.184 F6000.000
G1 X-6.468 Y21.406 F6000.000
G1 X-6.468 Y11.498 F6000.000
G1 X-6.694 Y8.623 F6000.000
G1 X-8.912 Y8.029 E52.83800 F3000.000
G1 X-10.884 Y0.671 E53.23600
G1 X-6.694 Y-3.519 E53.54554
G1 X-6.694 Y8.623 E54.17990
G1 X-11.491 Y0.833 F6000.000
G1 X-9.519 Y8.192 E54.57790 F3000.000
G1 X-14.136 Y12.809 E54.91904
G1 X-12.165 Y20.167 E55.31704
G1 X-5.857 Y21.857 E55.65818
G1 X-3.886 Y29.216 E56.05618
G1 X-8.503 Y33.833 E56.39732
G1 X-6.531 Y41.191 E56.79532
G1 X-0.224 Y42.881 E57.13646
G1 X0.331 Y44.955 E57.24860
G1 X-1.468 Y45.254 E57.34389
G1 X-9.671 Y43.887 E57.77841
G1 X-7.138 Y41.354 E57.96557
G1 X-9.110 Y33.996 E58.36357
G1 X-15.417 Y32.306 E58.70471
G1 X-17.175 Y25.744 E59.05961
G1 X-16.931 Y24.490 E59.12637
G1 X-12.772 Y20.330 E59.43371
G1 X-14.704 Y13.118 E59.82382
G1 X-12.248 Y0.631 E60.48870
G1 X-11.491 Y0.833 E60.52965
G1 X-16.024 Y32.468 F6000.000
G1 X-19.032 Y35.476 E60.75189 F3000.000
G1 X-17.449 Y27.151 E61.19463
G1 X-16.024 Y32.468 E61.48223
G1 X-19.246 Y42.291 F6000.000
G1 X-19.927 Y42.178 E61.51829 F3000.000
G1 X-20.127 Y41.430 E61.55873
G1 X-19.865 Y39.982 E61.63561
G1 X-19.246 Y42.291 E61.76050
G1 X-6.931 Y-25.820 F6000.000
G1 X-6.657 Y-28.780 E62.08173 F1200.000
G1 X-6.657 Y-28.780 F6000.000
G1 X-6.493 Y-30.561 E62.17515 F1200.000
G1 F4800
G1 X-6.657 Y-28.780 E61.32574
G1 E59.17515 F2400.00000
G92 E0
G1 Z0.700 F6000.000
G1 X-6.160 Y-31.195 F6000.000
G1 E3.00000 F2400.00000
G1 X15.225 Y-31.195 E4.11728 F1200.000
G1 X15.225 Y11.191 E6.33170
G1 X-6.160 Y11.191 E7.44898
G1 X-6.160 Y-31.135 E9.66026
G1 X-5.668 Y-30.702 F6000.000
G1 X14.732 Y-30.702 E10.26597 F600.000
G1 X14.732 Y10.698 E11.49519
G1 X-5.668 Y10.698 E12.10089
G1 X-5.668 Y-30.642 E13.32833
G1 X-5.668 Y-31.102 F6000.000
G1 X-4.549 Y-43.313 F6000.000
G1 X-1.468 Y-42.800 E13.49151 F1200.000
G1 X15.879 Y-45.691 E14.41027
G1 X16.652 Y-35.971 E14.91966
G1 X17.396 Y-25.825 E15.45118
G1 X18.236 Y-13.292 E16.10743
G1 X18.887 Y-2.600 E16.66710
G1 X19.487 Y8.274 E17.23607
G1 X20.033 Y19.285 E17.81205
G1 X20.522 Y30.386 E18.39258
G1 X20.967 Y42.057 E19.00273
G1 X-1.468 Y45.796 E20.19099
G1 X-20.875 Y42.561 E21.21893
G1 X-19.946 Y37.436 E21.49106
G1 X-18.310 Y28.784 E21.95108
G1 X-16.616 Y20.069 E22.41491
G1 X-11.883 Y-3.993 E23.69614
G1 X-8.958 Y-19.151 E24.50265
G1 X-6.581 Y-31.901 E25.18025
G1 X-5.453 Y-38.161 E25.51256
G1 X-4.559 Y-43.254 E25.78275
G1 X-4.949 Y-43.879 F6000.000
G1 X-1.468 Y-43.299 E25.88755 F600.000
G1 X16.327 Y-46.265 E26.42319
G1 X17.144 Y-36.009 E26.72867
G1 X17.888 Y-25.859 E27.03083
G1 X18.728 Y-13.324 E27.40388
G1 X19.379 Y-2.628 E27.72203
G1 X19.979 Y8.249 E28.04546
G1 X20.525 Y19.262 E28.37287
G1 X21.014 Y30.366 E28.70288
G1 X21.476 Y42.471 E29.06256
G1 X-1.468 Y46.295 E29.75318
G1 X-21.449 Y42.965 E30.35464
G1 X-20.430 Y37.346 E30.52419
G1 X-18.794 Y28.691 E30.78571
G1 X-17.099 Y19.975 E31.04937
G1 X-12.366 Y-4.087 E31.77749
G1 X-9.442 Y-19.242 E32.23577
G1 X-7.066 Y-31.989 E32.62076
G1 X-5.938 Y-38.247 E32.80954
G1 X-4.960 Y-43.820 E32.97756
G1 X-4.641 Y-43.624 F6000.000
G1 X-6.493 Y-30.561 F6000.000
G1 X-6.657 Y-28.780 E33.07099 F1200.000
G1 X-6.657 Y-28.780 F6000.000
G1 X-6.931 Y-25.820 E33.39222 F1200.000
G1 X-6.694 Y-24.226 F6000.000
G1 X-6.694 Y-23.576 E33.42620 F3000.000
G1 X-7.547 Y-23.804 E33.47233
G1 X-7.432 Y-24.424 E33.50526
G1 X-6.694 Y-24.226 E33.54515
G1 X-6.694 Y-6.757 F6000.000
G1 X-7.794 Y-10.861 E33.76712 F3000.000
G1 X-9.905 Y-11.426 E33.88127
G1 X-9.785 Y-12.045 E33.91418
G1 X-7.631 Y-11.467 E34.03068
