; generated by Slic3r 1.2.9 on 2016-07-17 at 15:59:52

; external perimeters extrusion width = 0.40mm
; perimeters extrusion width = 0.67mm
; infill extrusion width = 0.67mm
; solid infill extrusion width = 0.67mm
; top infill extrusion width = 0.67mm

M107
M104 S215 ; set temperature
G28 ; home all axes
G1 Y-60 Z5 F5000 ; lift nozzle


M109 S215 ; wait for temperature to be reached
G21 ; set units to millimeters
G90 ; use absolute coordinates
M82 ; use absolute distances for extrusion
G92 E0
G1 E-3.00000 F2400.00000
G92 E0
G1 Z0.300 F6000.000
G1 X23.645 Y49.945 F6000.000
G1 E3.00000 F2400.00000
G1 X-26.635 Y49.461 E5.62699 F1800.000
G1 X-27.319 Y49.401 E5.66286
G1 X-30.726 Y48.833 E5.84333
G1 X-32.464 Y48.142 E5.94101
G1 X-33.760 Y46.795 E6.03868
G1 X-34.419 Y44.474 E6.16474
G1 X-34.419 Y-45.526 E10.86678
G1 X-34.023 Y-47.353 E10.96445
G1 X-32.908 Y-48.853 E11.06212
G1 X-31.272 Y-49.758 E11.15980
G1 X-30.000 Y-49.945 E11.22695
G1 X30.000 Y-49.945 E14.36164
G1 X31.827 Y-49.549 E14.45932
G1 X33.327 Y-48.434 E14.55699
G1 X34.232 Y-46.798 E14.65466
G1 X34.419 Y-45.526 E14.72181
G1 X34.419 Y44.474 E19.42385
G1 X34.023 Y46.301 E19.52153
G1 X32.908 Y47.801 E19.61920
G1 X30.726 Y48.833 E19.74526
G1 X24.414 Y49.885 E20.07962
G1 X23.705 Y49.940 E20.11678
G1 F4800
G1 X17.705 Y49.883 E17.26678
G1 E17.11678 F2400.00000
G92 E0
G1 X24.285 Y44.841 F6000.000
G1 E3.00000 F2400.00000
G1 X24.525 Y36.019 E3.46108 F1800.000
G1 X24.693 Y25.979 E3.98571
G1 X24.767 Y15.649 E4.52541
G1 X24.770 Y9.329 E4.85560
G1 X24.744 Y2.929 E5.18996
G1 X24.633 Y-7.887 E5.75509
G1 X24.441 Y-18.855 E6.32820
G1 X24.114 Y-32.157 E7.02335
G1 X23.743 Y-43.898 E7.63707
G1 X29.423 Y-44.845 E7.93791
G1 X29.423 Y43.985 E12.57880
G1 X24.344 Y44.831 E12.84778
G1 X23.894 Y45.289 F6000.000
G1 X24.148 Y36.011 E13.23629 F1800.000
G1 X24.316 Y25.974 E13.65650
G1 X24.390 Y15.647 E14.08879
G1 X24.393 Y9.330 E14.35326
G1 X24.367 Y2.932 E14.62108
G1 X24.256 Y-7.882 E15.07377
G1 X24.064 Y-18.847 E15.53286
G1 X23.737 Y-32.146 E16.08972
G1 X23.355 Y-44.216 E16.59521
G1 X29.800 Y-45.290 E16.86870
G1 X29.800 Y44.305 E20.61916
G1 X23.954 Y45.279 E20.86726
G1 X24.082 Y44.935 F6000.000
G1 X28.962 Y43.595 F6000.000
G1 X28.962 Y42.781 E20.90976 F1800.000
G1 X27.986 Y43.757 E20.98189
G1 X28.962 Y43.595 E21.03360
G1 X28.962 Y33.895 F6000.000
G1 X28.962 Y33.007 E21.08002 F1800.000
G1 X27.873 Y34.096 E21.16050
G1 X25.031 Y33.335 E21.31421
G1 X24.986 Y36.029 E21.45501
G1 X24.761 Y44.295 E21.88701
G1 X26.920 Y43.935 E22.00135
G1 X28.962 Y41.893 E22.15225
G1 X28.962 Y36.947 E22.41062
G1 X28.317 Y34.540 E22.54081
G1 X28.962 Y33.895 E22.58846
G1 X28.962 Y8.369 F6000.000
G1 X28.070 Y8.130 E22.63668 F1800.000
G1 X25.230 Y10.970 E22.84652
G1 X25.228 Y15.651 E23.09108
G1 X25.194 Y20.369 E23.33758
G1 X28.962 Y21.378 E23.54137
G1 X28.962 Y8.369 E24.22106
G1 X28.962 Y-1.648 F6000.000
G1 X28.962 Y-2.536 E24.26748 F1800.000
G1 X25.492 Y0.934 E24.52388
G1 X25.183 Y0.851 E24.54056
G1 X25.231 Y10.081 E25.02275
G1 X27.626 Y7.685 E25.19973
G1 X25.936 Y1.378 E25.54088
G1 X28.962 Y-1.648 E25.76445
G1 X28.962 Y-24.156 F6000.000
G1 X25.689 Y-25.032 E25.94145 F1800.000
G1 X24.773 Y-24.116 E26.00917
G1 X24.902 Y-18.865 E26.28358
G1 X25.019 Y-12.203 E26.63172
G1 X28.744 Y-11.204 E26.83323
G1 X28.962 Y-11.422 E26.84932
G1 X28.962 Y-24.156 E27.51458
G1 X25.245 Y-25.477 F6000.000
G1 X24.688 Y-27.555 E27.62699 F1800.000
G1 X24.752 Y-24.983 E27.76139
G1 X25.245 Y-25.477 E27.79786
G1 X28.962 Y-37.165 F6000.000
G1 X28.962 Y-44.301 E28.17065 F1800.000
G1 X26.831 Y-43.946 E28.28352
G1 X26.808 Y-43.922 E28.28525
G1 X28.498 Y-37.615 E28.62639
G1 X24.528 Y-33.646 E28.91967
G1 X24.555 Y-32.784 E28.96470
G1 X28.942 Y-37.171 E29.28879
G1 X28.962 Y-37.165 E29.28988
G1 F4800
G1 X28.942 Y-37.171 E29.28000
G1 F4800
G1 X24.714 Y-32.943 E26.43988
G1 E26.28988 F2400.00000
G92 E0
G1 X24.167 Y2.933 F6000.000
G1 X-1.380 Y13.518 F6000.000
G1 X-1.506 Y20.186 F6000.000
G1 X-3.329 Y23.623 F6000.000
G1 X-6.783 Y27.069 F6000.000
G1 X-27.240 Y27.152 F6000.000
G1 X-27.212 Y44.353 F6000.000
G1 E3.00000 F2400.00000
G1 X-29.423 Y43.985 E3.11710 F1800.000
G1 X-29.423 Y-44.845 E7.75800
G1 X-20.882 Y-43.421 E8.21036
G1 X-21.992 Y-36.980 E8.55182
G1 X-23.014 Y-30.640 E8.88734
G1 X-23.950 Y-24.357 E9.21925
G1 X-24.795 Y-18.133 E9.54737
G1 X-25.542 Y-11.975 E9.87148
G1 X-26.188 Y-5.886 E10.19139
G1 X-26.730 Y0.130 E10.50692
G1 X-27.031 Y4.099 E10.71492
G1 X-27.289 Y8.132 E10.92604
G1 X-27.572 Y13.868 E11.22610
G1 X-27.750 Y19.620 E11.52674
G1 X-27.818 Y25.285 E11.82271
G1 X-27.803 Y29.014 E12.01754
G1 X-27.691 Y34.527 E12.30565
G1 X-27.474 Y39.947 E12.58905
G1 X-27.215 Y44.294 E12.81651
G1 X-26.807 Y44.803 F6000.000
G1 X-29.800 Y44.305 E12.94352 F1800.000
G1 X-29.800 Y-45.290 E16.69397
G1 X-20.446 Y-43.731 E17.09094
G1 X-21.620 Y-36.918 E17.38033
G1 X-22.641 Y-30.582 E17.64898
G1 X-23.577 Y-24.303 E17.91472
G1 X-24.421 Y-18.085 E18.17740
G1 X-25.168 Y-11.932 E18.43686
G1 X-25.813 Y-5.849 E18.69293
G1 X-26.354 Y0.161 E18.94552
G1 X-26.655 Y4.126 E19.11196
G1 X-26.913 Y8.153 E19.28091
G1 X-27.195 Y13.884 E19.52107
G1 X-27.373 Y19.628 E19.76166
G1 X-27.441 Y25.286 E19.99852
G1 X-27.426 Y29.009 E20.15437
G1 X-27.314 Y34.516 E20.38493
G1 X-27.097 Y39.929 E20.61169
G1 X-26.811 Y44.743 E20.81359
G1 X-27.134 Y44.573 F6000.000
G1 X-27.746 Y43.797 F6000.000
G1 X-28.962 Y39.259 E21.05904 F1800.000
G1 X-28.962 Y43.595 E21.28554
G1 X-27.746 Y43.797 E21.34994
G1 X-28.030 Y37.573 F6000.000
G1 X-28.065 Y36.719 E21.39461 F1800.000
G1 X-28.962 Y37.616 E21.46091
G1 X-28.962 Y38.505 E21.50734
G1 X-28.030 Y37.573 E21.57617
G1 X-27.972 Y12.628 F6000.000
G1 X-28.962 Y12.362 E21.62971 F1800.000
G1 X-28.962 Y25.372 E22.30940
G1 X-28.278 Y25.555 E22.34639
G1 X-28.211 Y19.610 E22.65701
G1 X-28.032 Y13.850 E22.95810
G1 X-27.972 Y12.628 E23.02204
G1 X-27.279 Y1.279 F6000.000
G1 X-27.206 Y0.317 E23.07242 F1800.000
G1 X-28.962 Y2.073 E23.20218
G1 X-28.962 Y2.962 E23.24860
G1 X-27.279 Y1.279 E23.37296
G1 X-26.647 Y-5.931 F6000.000
G1 X-26.373 Y-8.513 E23.50864 F1800.000
G1 X-28.250 Y-6.636 E23.64733
G1 X-27.002 Y-1.980 E23.89917
G1 X-26.647 Y-5.931 E24.10640
G1 X-25.442 Y-19.219 F6000.000
G1 X-28.962 Y-20.162 E24.29679 F1800.000
G1 X-28.962 Y-7.152 E24.97648
G1 X-28.694 Y-7.080 E24.99096
G1 X-26.268 Y-9.507 E25.17027
G1 X-26.000 Y-12.027 E25.30264
G1 X-25.252 Y-18.192 E25.62710
G1 X-25.061 Y-19.600 E25.70132
G1 X-25.442 Y-19.219 E25.72948
G1 X-21.415 Y-43.043 F6000.000
G1 X-26.533 Y-43.896 E26.00058 F1800.000
G1 X-28.962 Y-41.467 E26.18003
G1 X-28.962 Y-33.570 E26.59263
G1 X-28.941 Y-33.491 E26.59688
G1 X-28.962 Y-33.470 E26.59844
G1 X-28.962 Y-32.581 E26.64487
G1 X-28.497 Y-33.047 E26.67925
G1 X-23.317 Y-31.659 E26.95943
G1 X-22.447 Y-37.056 E27.24505
G1 X-21.415 Y-43.043 E27.56244
G1 X-27.295 Y-44.023 F6000.000
G1 X-28.962 Y-44.301 E27.65074 F1800.000
G1 X-28.962 Y-42.356 E27.75236
G1 X-27.295 Y-44.023 E27.87554
G1 F4800
G1 X-28.962 Y-42.356 E26.75563
G1 F4800
G1 X-28.962 Y-44.301 E25.83175
G1 F4800
G1 X-27.295 Y-44.023 E25.02894
G1 E24.87554 F2400.00000
G92 E0
G1 Z0.500 F6000.000
G1 X24.405 Y44.704 F6000.000
G1 E3.00000 F2400.00000
G1 X24.640 Y36.021 E3.45380 F1200.000
G1 X24.809 Y25.980 E3.97848
G1 X24.883 Y15.649 E4.51822
G1 X24.886 Y9.329 E4.84845
G1 X24.859 Y2.928 E5.18284
G1 X24.749 Y-7.889 E5.74801
G1 X24.557 Y-18.858 E6.32117
G1 X24.230 Y-32.160 E7.01636
G1 X23.861 Y-43.801 E7.62482
G1 X29.307 Y-44.708 E7.91327
G1 X29.307 Y43.887 E12.54193
G1 X24.464 Y44.694 E12.79847
G1 X23.894 Y45.289 F6000.000
G1 X24.148 Y36.011 E13.07403 F600.000
G1 X24.316 Y25.974 E13.37209
G1 X24.390 Y15.647 E13.67871
G1 X24.393 Y9.330 E13.86630
G1 X24.367 Y2.932 E14.05626
G1 X24.256 Y-7.882 E14.37735
G1 X24.064 Y-18.847 E14.70297
G1 X23.737 Y-32.146 E15.09795
G1 X23.355 Y-44.216 E15.45649
G1 X29.800 Y-45.290 E15.65048
G1 X29.800 Y44.305 E18.31066
G1 X23.954 Y45.279 E18.48664
G1 X24.082 Y44.935 F6000.000
G1 X28.773 Y35.029 F6000.000
G1 X28.773 Y33.640 E18.55922 F3000.000
G1 X28.480 Y33.933 E18.58091
G1 X28.773 Y35.029 E18.64017
G1 X27.873 Y34.096 F6000.000
G1 X25.219 Y33.385 E18.78372 F3000.000
G1 X25.174 Y36.033 E18.92210
G1 X24.956 Y44.071 E19.34219
G1 X27.682 Y43.617 E19.48658
G1 X28.773 Y42.526 E19.56719
G1 X28.773 Y37.457 E19.83201
G1 X27.873 Y34.096 E20.01378
G1 X28.744 Y-11.204 F6000.000
G1 X25.208 Y-12.152 E20.20504 F3000.000
G1 X25.283 Y-7.896 E20.42739
G1 X25.373 Y0.902 E20.88708
G1 X25.492 Y0.934 E20.89353
G1 X27.463 Y8.292 E21.29153
G1 X25.419 Y10.336 E21.44255
G1 X25.417 Y15.651 E21.72024
G1 X25.383 Y20.419 E21.96933
G1 X28.773 Y21.328 E22.15273
G1 X28.773 Y8.318 E22.83242
G1 X28.070 Y8.130 E22.87043
G1 X26.099 Y0.771 E23.26843
G1 X28.773 Y-1.903 E23.46604
G1 X28.773 Y-11.096 E23.94632
G1 X28.744 Y-11.204 E23.95217
G1 X25.083 Y-24.870 F6000.000
G1 X24.929 Y-25.443 E23.98314 F3000.000
G1 X24.947 Y-24.734 E24.02018
G1 X25.083 Y-24.870 E24.03023
G1 X28.773 Y-37.800 F6000.000
G1 X27.163 Y-43.810 E24.35527 F3000.000
G1 X26.540 Y-43.706 E24.38825
G1 X28.335 Y-37.008 E24.75052
G1 X24.725 Y-33.398 E25.01726
G1 X24.863 Y-28.116 E25.29333
G1 X25.689 Y-25.032 E25.46008
G1 X28.773 Y-24.206 E25.62688
G1 X28.773 Y-37.800 E26.33709
G1 F4800
G1 X28.773 Y-31.800 E23.48709
G1 E23.33709 F2400.00000
G92 E0
G1 X24.167 Y2.933 F6000.000
G1 X-1.330 Y11.452 F6000.000
G1 X-1.497 Y19.648 F6000.000
G1 X-1.602 Y21.917 F6000.000
G1 X-5.055 Y25.340 F6000.000
G1 X-27.241 Y25.287 F6000.000
G1 X-27.336 Y44.216 F6000.000
G1 E3.00000 F2400.00000
G1 X-29.307 Y43.887 E3.10443 F1200.000
G1 X-29.307 Y-44.708 E7.73309
G1 X-21.016 Y-43.326 E8.17227
G1 X-22.106 Y-36.999 E8.50770
G1 X-23.128 Y-30.658 E8.84329
G1 X-24.065 Y-24.373 E9.17527
G1 X-24.909 Y-18.148 E9.50347
G1 X-25.657 Y-11.988 E9.82767
G1 X-26.303 Y-5.897 E10.14767
G1 X-26.845 Y0.120 E10.46330
G1 X-27.146 Y4.091 E10.67138
G1 X-27.414 Y8.288 E10.89109
G1 X-27.687 Y13.864 E11.18274
G1 X-27.866 Y19.618 E11.48349
G1 X-27.934 Y25.284 E11.77956
G1 X-27.919 Y29.015 E11.97449
G1 X-27.807 Y34.531 E12.26271
G1 X-27.589 Y39.953 E12.54622
G1 X-27.339 Y44.156 E12.76618
G1 X-26.807 Y44.803 F6000.000
G1 X-29.800 Y44.305 E12.85627 F600.000
G1 X-29.800 Y-45.290 E15.51644
G1 X-20.446 Y-43.731 E15.79801
G1 X-21.620 Y-36.918 E16.00327
G1 X-22.641 Y-30.582 E16.19382
G1 X-23.577 Y-24.303 E16.38231
G1 X-24.421 Y-18.085 E16.56863
G1 X-25.168 Y-11.932 E16.75266
G1 X-25.813 Y-5.849 E16.93429
G1 X-26.354 Y0.161 E17.11345
G1 X-26.655 Y4.126 E17.23151
G1 X-26.922 Y8.316 E17.35618
G1 X-27.195 Y13.884 E17.52169
G1 X-27.373 Y19.628 E17.69234
G1 X-27.441 Y25.286 E17.86034
G1 X-27.426 Y29.009 E17.97088
G1 X-27.314 Y34.516 E18.13442
G1 X-27.097 Y39.929 E18.29526
G1 X-26.811 Y44.743 E18.43847
G1 X-27.134 Y44.573 F6000.000
G1 X-28.059 Y43.729 F6000.000
G1 X-27.756 Y43.427 E18.46199 F1200.000
G1 X-27.809 Y42.545 E18.51051
G1 X-28.860 Y43.596 E18.59216
G1 X-28.927 Y42.728 E18.63996
G1 X-27.861 Y41.663 E18.72270
G1 X-27.914 Y40.781 E18.77122
G1 X-28.927 Y41.794 E18.84989
G1 X-28.927 Y40.860 E18.90120
G1 X-27.966 Y39.900 E18.97579
G1 X-28.003 Y39.003 E19.02511
G1 X-28.927 Y39.926 E19.09682
G1 X-28.927 Y38.991 E19.14814
G1 X-28.039 Y38.104 E19.21705
G1 X-28.620 Y37.750 E19.25439
G1 X-28.927 Y38.057 E19.27823
G1 X-28.501 Y37.364 F6000.000
G1 X-28.557 Y34.549 E19.58248 F1200.000
G1 X-28.613 Y29.027 E20.17926
G1 X-28.621 Y25.284 E20.58366
G1 X-28.586 Y19.606 E21.19727
G1 X-28.501 Y14.068 E21.79578
G1 X-27.679 Y4.054 F6000.000
G1 X-27.447 Y1.003 E21.95566 F3000.000
G1 X-28.773 Y2.329 E22.05364
G1 X-28.773 Y12.413 E22.58049
G1 X-28.159 Y12.578 E22.61372
G1 X-27.947 Y8.258 E22.83966
G1 X-27.679 Y4.054 E23.05974
G1 X-25.442 Y-19.219 F6000.000
G1 X-28.773 Y-20.111 E23.23993 F3000.000
G1 X-28.773 Y-7.102 E23.91962
G1 X-28.694 Y-7.080 E23.92389
G1 X-27.226 Y-1.601 E24.22027
G1 X-27.063 Y-3.418 E24.31561
G1 X-28.087 Y-7.243 E24.52248
G1 X-26.533 Y-8.798 E24.63736
G1 X-26.188 Y-12.048 E24.80812
G1 X-25.350 Y-18.874 E25.16744
G1 X-25.442 Y-19.219 E25.18606
G1 X-21.633 Y-42.888 F6000.000
G1 X-27.078 Y-43.795 E25.47445 F3000.000
G1 X-28.773 Y-42.100 E25.59970
G1 X-28.773 Y-34.079 E26.01876
G1 X-28.497 Y-33.047 E26.07460
G1 X-23.500 Y-31.708 E26.34486
G1 X-22.633 Y-37.087 E26.62953
G1 X-21.633 Y-42.888 E26.93706
G1 F4800
G1 X-22.633 Y-37.087 E24.14106
G1 F4800
G1 X-22.651 Y-36.975 E24.08706
G1 E23.93706 F2400.00000
G92 E0
G1 Z0.700 F6000.000
G1 X24.405 Y44.704 F6000.000
G1 E3.00000 F2400.00000
G1 X24.640 Y36.021 E3.45380 F1200.000
G1 X24.809 Y25.980 E3.97848
G1 X24.883 Y15.649 E4.51822
G1 X24.886 Y9.329 E4.84845
G1 X24.859 Y2.928 E5.18284
G1 X24.749 Y-7.889 E5.74801
G1 X24.557 Y-18.858 E6.32117
G1 X24.230 Y-32.160 E7.01636
G1 X23.861 Y-43.801 E7.62482
G1 X29.307 Y-44.708 E7.91327
G1 X29.307 Y43.887 E12.54193
G1 X24.464 Y44.694 E12.79847
G1 X23.894 Y45.289 F6000.000
G1 X24.148 Y36.011 E13.07403 F600.000
G1 X24.316 Y25.974 E13.37209
G1 X24.390 Y15.647 E13.67871
G1 X24.393 Y9.330 E13.86630
G1 X24.367 Y2.932 E14.05626
G1 X24.256 Y-7.882 E14.37735
G1 X24.064 Y-18.847 E14.70297
G1 X23.737 Y-32.146 E15.09795
G1 X23.355 Y-44.216 E15.45649
G1 X29.800 Y-45.290 E15.65048
G1 X29.800 Y44.305 E18.31066
G1 X23.954 Y45.279 E18.48664
G1 X24.082 Y44.935 F6000.000
G1 X28.317 Y34.540 F6000.000
G1 X25.213 Y33.709 E18.65452 F3000.000
G1 X25.174 Y36.033 E18.77597
G1 X24.956 Y44.071 E19.19606
G1 X27.682 Y43.617 E19.34046
G1 X28.773 Y42.526 E19.42106
G1 X28.773 Y36.243 E19.74930
G1 X28.317 Y34.540 E19.84139
G1 X28.773 Y21.653 F6000.000
G1 X25.380 Y20.744 E20.02491 F3000.000
G1 X25.343 Y25.986 E20.29882
G1 X25.224 Y33.061 E20.66849
G1 X28.480 Y33.933 E20.84457
G1 X28.773 Y33.640 E20.86626
G1 X28.773 Y21.653 E21.49252
G1 X28.773 Y8.643 F6000.000
G1 X27.463 Y8.292 E21.56336 F3000.000
G1 X25.419 Y10.336 E21.71439
G1 X25.417 Y15.651 E21.99207
G1 X25.385 Y20.095 E22.22421
G1 X28.773 Y21.002 E22.40747
G1 X28.773 Y8.643 E23.05318
G1 X28.773 Y7.993 F6000.000
G1 X28.773 Y-1.903 E23.57019 F3000.000
G1 X26.099 Y0.771 E23.76780
G1 X25.369 Y0.576 E23.80725
G1 X25.376 Y1.228 E23.84133
G1 X25.936 Y1.378 E23.87162
G1 X27.626 Y7.685 E24.21276
G1 X28.773 Y7.993 E24.27481
G1 X28.773 Y-11.522 F6000.000
G1 X25.203 Y-12.479 E24.46794 F3000.000
G1 X25.214 Y-11.825 E24.50209
G1 X28.773 Y-10.871 E24.69460
G1 X28.773 Y-11.522 E24.72859
G1 X25.245 Y-25.477 F6000.000
G1 X24.896 Y-26.779 E24.79902 F3000.000
G1 X24.947 Y-24.734 E24.90591
G1 X25.083 Y-24.870 E24.91596
G1 X28.773 Y-23.881 E25.11558
G1 X28.773 Y-24.531 E25.14956
G1 X25.245 Y-25.477 E25.34039
G1 X28.498 Y-37.615 F6000.000
G1 X26.852 Y-43.758 E25.67263 F3000.000
G1 X24.410 Y-43.351 E25.80196
G1 X24.725 Y-33.398 E26.32220
G1 X28.335 Y-37.008 E26.58894
G1 X28.773 Y-36.891 E26.61265
G1 X28.773 Y-37.541 E26.64663
G1 X28.498 Y-37.615 E26.66154
G1 F4800
G1 X28.773 Y-37.541 E26.52599
G1 F4800
G1 X28.773 Y-36.891 E26.21701
G1 F4800
G1 X28.335 Y-37.008 E26.00149
G1 F4800
G1 X25.075 Y-33.748 E23.81154
G1 E23.66154 F2400.00000
G92 E0
G1 X24.167 Y2.933 F6000.000
G1 X-1.380 Y13.518 F6000.000
G1 X-1.506 Y20.186 F6000.000
G1 X-1.602 Y21.917 F6000.000
G1 X-5.055 Y25.340 F6000.000
G1 X-27.241 Y25.287 F6000.000
G1 X-27.336 Y44.216 F6000.000
G1 E3.00000 F2400.00000
G1 X-29.307 Y43.887 E3.10443 F1200.000
G1 X-29.307 Y-44.708 E7.73309
G1 X-21.016 Y-43.326 E8.17227
G1 X-22.106 Y-36.999 E8.50770
G1 X-23.128 Y-30.658 E8.84329
G1 X-24.065 Y-24.373 E9.17527
G1 X-24.909 Y-18.148 E9.50347
G1 X-25.657 Y-11.988 E9.82767
G1 X-26.303 Y-5.897 E10.14767
G1 X-26.845 Y0.120 E10.46330
G1 X-27.146 Y4.091 E10.67136
G1 X-27.399 Y8.028 E10.87746
G1 X-27.687 Y13.864 E11.18273
G1 X-27.866 Y19.618 E11.48349
G1 X-27.934 Y25.284 E11.77956
G1 X-27.919 Y29.015 E11.97449
G1 X-27.807 Y34.531 E12.26271
G1 X-27.589 Y39.953 E12.54622
G1 X-27.339 Y44.156 E12.76618
G1 X-26.807 Y44.803 F6000.000
G1 X-29.800 Y44.305 E12.85627 F600.000
G1 X-29.800 Y-45.290 E15.51644
G1 X-20.446 Y-43.731 E15.79801
G1 X-21.620 Y-36.918 E16.00327
G1 X-22.641 Y-30.582 E16.19382
G1 X-23.577 Y-24.303 E16.38231
G1 X-24.421 Y-18.085 E16.56863
G1 X-25.168 Y-11.932 E16.75266
G1 X-25.813 Y-5.849 E16.93430
G1 X-26.354 Y0.161 E17.11345
G1 X-26.655 Y4.126 E17.23151
