; generated by Slic3r 1.2.9 on 2016-07-14 at 17:41:04

; external perimeters extrusion width = 0.30mm
; perimeters extrusion width = 0.31mm
; infill extrusion width = 0.31mm
; solid infill extrusion width = 0.31mm
; top infill extrusion width = 0.31mm

M107
M104 S215 ; set temperature
G28 ; home all axes
G1 Z5 F5000 ; lift nozzle

M109 S215 ; wait for temperature to be reached
G21 ; set units to millimeters
G90 ; use absolute coordinates
M82 ; use absolute distances for extrusion
G92 E0
G1 E-2.00000 F2400.00000
G92 E0
G1 Z0.100 F7800.000
G1 X5.386 Y26.549 F7800.000
G1 E2.00000 F2400.00000
G1 X3.428 Y26.936 E2.02017 F1800.000
G1 X0.397 Y27.500 E2.05132
G1 X-4.323 Y28.302 E2.09969
G1 X-9.211 Y29.040 E2.14963
G1 X-14.152 Y29.697 E2.19999
G1 X-19.286 Y30.287 E2.25221
G1 X-24.461 Y30.789 E2.30474
G1 X-29.783 Y31.209 E2.35868
G1 X-33.431 Y31.438 E2.39560
G1 X-38.930 Y31.695 E2.45122
G1 X-44.523 Y31.845 E2.50775
G1 X-50.208 Y31.886 E2.56518
G1 X-54.007 Y31.852 E2.60357
G1 X-57.186 Y31.786 E2.63570
G1 X-59.354 Y31.335 E2.65807
G1 X-61.224 Y30.149 E2.68044
G1 X-62.556 Y28.380 E2.70281
G1 X-63.211 Y25.490 E2.73276
G1 X-62.221 Y-25.826 E3.25132
G1 X-61.782 Y-27.997 E3.27369
G1 X-60.607 Y-29.873 E3.29606
G1 X-58.845 Y-31.214 E3.31843
G1 X-56.005 Y-31.886 E3.34791
G1 X-49.421 Y-31.828 E3.41443 F1800.000
G1 X-43.326 Y-31.739 E3.47602
G1 X-37.341 Y-31.613 E3.53650
G1 X-31.462 Y-31.452 E3.59592
G1 X-25.722 Y-31.255 E3.65395
G1 X-20.117 Y-31.021 E3.71063
G1 X-14.652 Y-30.751 E3.76591
G1 X-9.334 Y-30.443 E3.81973
G1 X-4.170 Y-30.095 E3.87202
G1 X0.833 Y-29.706 E3.92272
G1 X5.644 Y-29.277 E3.97152
G1 X10.303 Y-28.804 E4.01884
G1 X14.784 Y-28.290 E4.06440
G1 X19.083 Y-27.734 E4.10820
G1 X21.881 Y-27.335 E4.13676
G1 X25.836 Y-26.712 E4.17720
G1 X29.634 Y-26.040 E4.21617
G1 X33.238 Y-25.322 E4.25330
G1 X36.647 Y-24.557 E4.28860
G1 X38.867 Y-24.006 E4.31171
G1 X41.888 Y-23.179 E4.34335
G1 X44.767 Y-22.291 E4.37380
G1 X46.659 Y-21.643 E4.39400
G1 X48.307 Y-21.028 E4.41178
G1 X49.140 Y-20.696 E4.42083
G1 X50.845 Y-19.966 E4.43957
G1 X51.621 Y-19.608 E4.44820
G1 X52.990 Y-18.930 E4.46364
G1 X53.807 Y-18.494 E4.47300
G1 X55.034 Y-17.790 E4.48729
G1 X56.409 Y-16.914 E4.50376
G1 X57.452 Y-16.178 E4.51665
G1 X58.009 Y-15.752 E4.52374
G1 X58.713 Y-15.173 E4.53295
G1 X59.254 Y-14.692 E4.54027
G1 X59.781 Y-14.183 E4.54767
G1 X60.294 Y-13.642 E4.55520
G1 X60.791 Y-13.060 E4.56293
G1 X61.266 Y-12.435 E4.57086
G1 X61.485 Y-12.117 E4.57476
G1 X61.904 Y-11.435 E4.58285
G1 X62.287 Y-10.692 E4.59129
G1 X62.499 Y-10.206 E4.59666
G1 X62.622 Y-9.888 E4.60010
G1 X62.893 Y-9.027 E4.60922
G1 X63.086 Y-8.122 E4.61856
G1 X63.165 Y-7.523 E4.62467
G1 X63.212 Y-6.596 E4.63405
G1 X63.206 Y-6.257 E4.63747
G1 X63.171 Y-5.689 E4.64323
G1 X63.055 Y-4.825 E4.65203
G1 X62.879 Y-4.019 E4.66037
G1 X62.780 Y-3.660 E4.66413
G1 X62.530 Y-2.901 E4.67220
G1 X62.245 Y-2.189 E4.67995
G1 X61.936 Y-1.522 E4.68737
G1 X61.495 Y-0.689 E4.69690
G1 X61.161 Y-0.119 E4.70358
G1 X60.534 Y0.851 E4.71524
G1 X60.042 Y1.547 E4.72385
G1 X59.282 Y2.534 E4.73644
G1 X58.222 Y3.771 E4.75290
G1 X57.273 Y4.770 E4.76682
G1 X56.710 Y5.324 E4.77481
G1 X55.421 Y6.501 E4.79244
G1 X54.799 Y7.031 E4.80069
G1 X53.585 Y8.007 E4.81643
G1 X52.814 Y8.592 E4.82621
G1 X51.474 Y9.556 E4.84289
G1 X49.887 Y10.620 E4.86219
G1 X48.377 Y11.568 E4.88021
G1 X47.476 Y12.106 E4.89080
G1 X45.838 Y13.038 E4.90984
G1 X44.951 Y13.520 E4.92004
G1 X43.049 Y14.505 E4.94169
G1 X41.203 Y15.404 E4.96243
G1 X40.154 Y15.892 E4.97412
G1 X37.140 Y17.215 E5.00737
G1 X34.936 Y18.115 E5.03143
G1 X31.625 Y19.373 E5.06721
G1 X29.235 Y20.219 E5.09283
G1 X25.635 Y21.405 E5.13112
G1 X23.062 Y22.194 E5.15831
G1 X19.185 Y23.299 E5.19905
G1 X16.437 Y24.027 E5.22777
G1 X12.293 Y25.046 E5.27088
G1 X9.377 Y25.709 E5.30110
G1 X5.431 Y26.540 E5.34184
G1 F6240
G1 X3.428 Y26.936 E4.59600
G1 F6240
G1 X0.397 Y27.500 E3.46942
G1 F6240
G1 X0.322 Y27.512 E3.44184
G1 E3.34184 F2400.00000
G92 E0
G1 X34.171 Y-3.097 F7800.000
G1 E2.00000 F2400.00000
G1 X33.405 Y-3.912 E2.01130 F1800.000
G1 X32.867 Y-4.892 E2.02259
G1 X32.588 Y-5.975 E2.03389
G1 X32.588 Y-7.093 E2.04519
G1 X32.867 Y-8.176 E2.05648
G1 X33.405 Y-9.156 E2.06778
G1 X34.171 Y-9.971 E2.07908
G1 X35.116 Y-10.571 E2.09039
G1 X36.196 Y-10.917 E2.10185
G1 X37.294 Y-10.986 E2.11296 F1800.000
G1 X38.392 Y-10.776 E2.12426
G1 X39.404 Y-10.300 E2.13556
G1 X40.266 Y-9.588 E2.14686
G1 X40.923 Y-8.683 E2.15815
G1 X41.335 Y-7.643 E2.16945
G1 X41.475 Y-6.534 E2.18075
G1 X41.335 Y-5.425 E2.19204
G1 X40.923 Y-4.385 E2.20334
G1 X40.265 Y-3.480 E2.21465
G1 X39.388 Y-2.760 E2.22611
G1 X38.392 Y-2.292 E2.23723
G1 X37.293 Y-2.082 E2.24853
G1 X36.161 Y-2.158 E2.25999
G1 X35.115 Y-2.498 E2.27111
G1 X34.209 Y-3.073 E2.28195
G1 X34.304 Y-3.224 F7800.000
G1 X33.551 Y-4.018 E2.29302 F1800.000
G1 X33.034 Y-4.958 E2.30386
G1 X32.767 Y-5.997 E2.31470
G1 X32.767 Y-7.070 E2.32554
G1 X33.034 Y-8.110 E2.33638
G1 X33.551 Y-9.050 E2.34722
G1 X34.285 Y-9.832 E2.35806
G1 X35.192 Y-10.408 E2.36891
G1 X36.229 Y-10.740 E2.37992
G1 X37.283 Y-10.806 E2.39058 F1800.000
G1 X38.337 Y-10.605 E2.40142
G1 X39.308 Y-10.148 E2.41226
G1 X40.135 Y-9.464 E2.42311
G1 X40.765 Y-8.596 E2.43395
G1 X41.160 Y-7.599 E2.44479
G1 X41.295 Y-6.534 E2.45563
G1 X41.160 Y-5.469 E2.46647
G1 X40.765 Y-4.472 E2.47731
G1 X40.134 Y-3.603 E2.48816
G1 X39.292 Y-2.912 E2.49916
G1 X38.337 Y-2.463 E2.50983
G1 X37.282 Y-2.262 E2.52068
G1 X36.195 Y-2.334 E2.53168
G1 X35.191 Y-2.661 E2.54235
G1 X34.342 Y-3.199 E2.55251
G1 X34.438 Y-3.350 F7800.000
G1 X33.696 Y-4.124 E2.56333 F1800.000
G1 X33.201 Y-5.024 E2.57372
G1 X32.946 Y-6.020 E2.58410
G1 X32.946 Y-7.048 E2.59449
G1 X33.201 Y-8.044 E2.60488
G1 X33.696 Y-8.944 E2.61526
G1 X34.400 Y-9.694 E2.62565
G1 X35.268 Y-10.245 E2.63603
G1 X36.262 Y-10.563 E2.64658
G1 X37.272 Y-10.627 E2.65680 F1800.000
G1 X38.281 Y-10.434 E2.66718
G1 X39.211 Y-9.996 E2.67757
G1 X40.003 Y-9.341 E2.68795
G1 X40.608 Y-8.510 E2.69834
G1 X40.986 Y-7.554 E2.70873
G1 X41.115 Y-6.534 E2.71911
G1 X40.986 Y-5.514 E2.72950
G1 X40.608 Y-4.558 E2.73988
G1 X40.003 Y-3.727 E2.75027
G1 X39.196 Y-3.064 E2.76082
G1 X38.281 Y-2.634 E2.77103
G1 X37.271 Y-2.441 E2.78142
G1 X36.230 Y-2.511 E2.79197
G1 X35.268 Y-2.823 E2.80218
G1 X34.476 Y-3.326 E2.81166
G1 X34.153 Y-3.255 F7800.000
G1 X32.664 Y11.872 F7800.000
G1 X31.474 Y12.344 E2.82459 F1800.000
G1 X29.348 Y13.141 E2.84754
G1 X25.959 Y14.323 E2.88380
G1 X22.412 Y15.459 E2.92143
G1 X18.692 Y16.550 E2.96060
G1 X16.120 Y17.252 E2.98754
G1 X13.475 Y17.932 E3.01513
G1 X9.371 Y18.910 E3.05775
G1 X5.114 Y19.833 E3.10176
G1 X0.706 Y20.697 E3.14714
G1 X-3.845 Y21.500 E3.19383
G1 X-8.533 Y22.237 E3.24178
G1 X-13.352 Y22.907 E3.29094
G1 X-18.294 Y23.504 E3.34123
G1 X-23.352 Y24.025 E3.39260
G1 X-28.517 Y24.464 E3.44497
G1 X-33.786 Y24.812 E3.49833
G1 X-37.352 Y24.991 E3.53440
G1 X-42.785 Y25.172 E3.58932
G1 X-46.457 Y25.235 E3.62643
G1 X-52.044 Y25.240 E3.68287
G1 X-56.403 Y25.163 E3.72692
G1 X-47.504 Y-1.534 E4.01124
G1 X-55.401 Y-25.244 E4.26373
G1 X-49.493 Y-25.193 E4.32342
G1 X-43.438 Y-25.104 E4.38461 F1800.000
G1 X-35.540 Y-24.930 E4.46442
G1 X-29.761 Y-24.758 E4.52283
G1 X-24.114 Y-24.551 E4.57993
G1 X-18.606 Y-24.308 E4.63563
G1 X-13.246 Y-24.028 E4.68986
G1 X-8.041 Y-23.710 E4.74255
G1 X-2.998 Y-23.354 E4.79362
G1 X1.876 Y-22.957 E4.84302
G1 X6.573 Y-22.519 E4.89069
G1 X11.089 Y-22.041 E4.93657
G1 X15.418 Y-21.524 E4.98062
G1 X19.555 Y-20.968 E5.02279
G1 X23.494 Y-20.372 E5.06305
G1 X26.007 Y-19.952 E5.08878
G1 X29.606 Y-19.289 E5.12576
G1 X32.995 Y-18.586 E5.16072
G1 X36.170 Y-17.844 E5.19367
G1 X39.129 Y-17.066 E5.22458
G1 X41.868 Y-16.253 E5.25345
G1 X44.385 Y-15.409 E5.28027
G1 X46.678 Y-14.534 E5.30507
G1 X48.078 Y-13.935 E5.32045
G1 X49.371 Y-13.326 E5.33489
G1 X50.569 Y-12.702 E5.34853
G1 X51.124 Y-12.391 E5.35496
G1 X52.169 Y-11.760 E5.36730
G1 X53.113 Y-11.128 E5.37877
G1 X53.956 Y-10.498 E5.38941
G1 X54.694 Y-9.871 E5.39919
G1 X55.012 Y-9.569 E5.40362
G1 X55.579 Y-8.954 E5.41207
G1 X55.808 Y-8.661 E5.41583
G1 X56.177 Y-8.083 E5.42276
G1 X56.315 Y-7.800 E5.42594
G1 X56.423 Y-7.520 E5.42897
G1 X56.502 Y-7.241 E5.43190
G1 X56.553 Y-6.960 E5.43479
G1 X56.576 Y-6.675 E5.43768
G1 X56.572 Y-6.388 E5.44058
G1 X56.539 Y-6.080 E5.44371
G1 X56.387 Y-5.439 E5.45036
G1 X56.271 Y-5.105 E5.45393
G1 X55.950 Y-4.385 E5.46190
G1 X55.529 Y-3.629 E5.47063
G1 X55.017 Y-2.835 E5.48019
G1 X54.416 Y-2.010 E5.49050
G1 X53.726 Y-1.162 E5.50154
G1 X52.946 Y-0.298 E5.51330
G1 X52.073 Y0.578 E5.52580
G1 X51.105 Y1.460 E5.53903
G1 X50.052 Y2.342 E5.55291
G1 X49.481 Y2.793 E5.56025
G1 X48.281 Y3.687 E5.57537
G1 X46.993 Y4.581 E5.59121
G1 X45.615 Y5.474 E5.60781
G1 X43.386 Y6.806 E5.63404
G1 X41.790 Y7.685 E5.65245
G1 X39.231 Y8.990 E5.68148
G1 X36.480 Y10.271 E5.71214
G1 X33.538 Y11.525 E5.74445
G1 X32.706 Y11.855 E5.75349
G1 X32.772 Y12.021 F7800.000
G1 X31.539 Y12.510 E5.76689 F1800.000
G1 X29.408 Y13.309 E5.78988
G1 X26.016 Y14.493 E5.82618
G1 X22.465 Y15.629 E5.86385
G1 X18.741 Y16.722 E5.90306
G1 X16.166 Y17.425 E5.93003
G1 X13.517 Y18.106 E5.95766
G1 X9.411 Y19.085 E6.00031
G1 X5.150 Y20.008 E6.04436
G1 X0.739 Y20.873 E6.08977
G1 X-3.815 Y21.676 E6.13649
G1 X-8.507 Y22.414 E6.18448
G1 X-13.329 Y23.084 E6.23367
G1 X-18.274 Y23.682 E6.28399
G1 X-23.335 Y24.203 E6.33539
G1 X-28.504 Y24.642 E6.38780
G1 X-33.776 Y24.991 E6.44118
G1 X-37.345 Y25.169 E6.47729
G1 X-42.781 Y25.351 E6.53224
G1 X-46.456 Y25.414 E6.56937
G1 X-52.046 Y25.418 E6.62585
G1 X-56.649 Y25.337 E6.67237
G1 X-47.692 Y-1.534 E6.95854
G1 X-55.650 Y-25.425 E7.21296
G1 X-49.491 Y-25.371 E7.27518
G1 X-43.435 Y-25.282 E7.33638 F1800.000
G1 X-35.536 Y-25.109 E7.41621
G1 X-29.755 Y-24.937 E7.47463
G1 X-24.107 Y-24.730 E7.53174
G1 X-18.598 Y-24.486 E7.58746
G1 X-13.236 Y-24.206 E7.64170
G1 X-8.029 Y-23.889 E7.69441
G1 X-2.984 Y-23.532 E7.74550
G1 X1.891 Y-23.135 E7.79492
G1 X6.591 Y-22.697 E7.84261
G1 X11.109 Y-22.219 E7.88851
G1 X15.440 Y-21.701 E7.93259
G1 X19.580 Y-21.145 E7.97478
G1 X23.522 Y-20.548 E8.01507
G1 X26.037 Y-20.128 E8.04083
G1 X29.640 Y-19.464 E8.07784
G1 X33.033 Y-18.760 E8.11285
G1 X36.213 Y-18.017 E8.14585
G1 X39.177 Y-17.238 E8.17681
G1 X41.922 Y-16.423 E8.20574
G1 X44.446 Y-15.577 E8.23263
G1 X46.745 Y-14.699 E8.25750
G1 X48.151 Y-14.098 E8.27295
G1 X49.451 Y-13.485 E8.28747
G1 X50.654 Y-12.859 E8.30117
G1 X51.214 Y-12.546 E8.30765
G1 X52.265 Y-11.910 E8.32006
G1 X53.216 Y-11.273 E8.33163
G1 X54.067 Y-10.638 E8.34236
G1 X54.814 Y-10.004 E8.35225
G1 X55.139 Y-9.694 E8.35679
G1 X55.715 Y-9.070 E8.36537
G1 X56.159 Y-8.466 E8.37295
G1 X56.335 Y-8.168 E8.37644
G1 X56.479 Y-7.872 E8.37977
G1 X56.593 Y-7.577 E8.38296
G1 X56.676 Y-7.281 E8.38607
G1 X56.730 Y-6.983 E8.38912
G1 X56.755 Y-6.681 E8.39219
G1 X56.750 Y-6.377 E8.39526
G1 X56.716 Y-6.053 E8.39855
G1 X56.651 Y-5.725 E8.40193
G1 X56.558 Y-5.386 E8.40549
G1 X56.437 Y-5.039 E8.40919
G1 X56.110 Y-4.306 E8.41731
G1 X55.683 Y-3.538 E8.42619
G1 X55.164 Y-2.734 E8.43585
G1 X54.557 Y-1.901 E8.44626
G1 X53.862 Y-1.046 E8.45740
G1 X53.076 Y-0.175 E8.46925
G1 X52.196 Y0.707 E8.48183
G1 X51.223 Y1.595 E8.49515
G1 X50.165 Y2.481 E8.50909
G1 X49.590 Y2.934 E8.51649
G1 X48.386 Y3.832 E8.53166
G1 X47.093 Y4.729 E8.54756
G1 X45.711 Y5.625 E8.56420
G1 X43.474 Y6.961 E8.59052
G1 X41.874 Y7.843 E8.60898
G1 X39.309 Y9.150 E8.63807
G1 X36.552 Y10.434 E8.66879
G1 X33.606 Y11.690 E8.70116
G1 X32.814 Y12.004 E8.70976
G1 X32.880 Y12.170 F7800.000
G1 X31.603 Y12.677 E8.72364 F1800.000
G1 X29.469 Y13.477 E8.74666
G1 X26.072 Y14.662 E8.78301
G1 X22.517 Y15.800 E8.82073
G1 X18.789 Y16.894 E8.85998
G1 X16.211 Y17.597 E8.88698
G1 X13.560 Y18.279 E8.91463
G1 X9.451 Y19.259 E8.95732
G1 X5.186 Y20.183 E9.00140
G1 X0.772 Y21.049 E9.04685
G1 X-3.786 Y21.852 E9.09361
G1 X-8.481 Y22.590 E9.14163
G1 X-13.306 Y23.261 E9.19085
G1 X-18.255 Y23.859 E9.24121
G1 X-23.318 Y24.381 E9.29264
G1 X-28.490 Y24.820 E9.34508
G1 X-33.766 Y25.169 E9.39849
G1 X-37.338 Y25.347 E9.43463
G1 X-42.776 Y25.529 E9.48961
G1 X-46.454 Y25.592 E9.52677
G1 X-52.047 Y25.597 E9.58328
G1 X-56.896 Y25.512 E9.63227
G1 X-47.881 Y-1.534 E9.92030
G1 X-55.898 Y-25.606 E10.17664
G1 X-49.489 Y-25.550 E10.24139
G1 X-43.431 Y-25.461 E10.30261 F1800.000
G1 X-35.531 Y-25.287 E10.38244
G1 X-29.749 Y-25.115 E10.44088
G1 X-24.099 Y-24.908 E10.49801
G1 X-18.589 Y-24.665 E10.55373
G1 X-13.226 Y-24.384 E10.60799
G1 X-8.017 Y-24.067 E10.66072
G1 X-2.971 Y-23.710 E10.71183
G1 X1.907 Y-23.313 E10.76127
G1 X6.608 Y-22.875 E10.80898
G1 X11.129 Y-22.396 E10.85491
G1 X15.463 Y-21.879 E10.89900
G1 X19.605 Y-21.322 E10.94123
G1 X23.550 Y-20.725 E10.98155
G1 X26.068 Y-20.304 E11.00734
G1 X29.674 Y-19.639 E11.04438
G1 X33.072 Y-18.935 E11.07944
G1 X36.256 Y-18.191 E11.11248
G1 X39.225 Y-17.410 E11.14349
G1 X41.976 Y-16.594 E11.17248
G1 X44.506 Y-15.745 E11.19944
G1 X46.812 Y-14.865 E11.22439
G1 X48.223 Y-14.261 E11.23989
G1 X49.531 Y-13.645 E11.25450
G1 X50.739 Y-13.017 E11.26825
G1 X51.304 Y-12.700 E11.27479
G1 X52.361 Y-12.061 E11.28727
G1 X53.319 Y-11.419 E11.29893
G1 X54.178 Y-10.777 E11.30976
G1 X54.933 Y-10.137 E11.31977
G1 X55.267 Y-9.820 E11.32442
G1 X55.851 Y-9.185 E11.33313
G1 X56.310 Y-8.562 E11.34095
G1 X56.492 Y-8.252 E11.34458
G1 X56.643 Y-7.943 E11.34805
G1 X56.762 Y-7.633 E11.35141
G1 X56.850 Y-7.322 E11.35468
G1 X56.907 Y-7.007 E11.35792
G1 X56.934 Y-6.687 E11.36116
G1 X56.929 Y-6.366 E11.36440
G1 X56.892 Y-6.026 E11.36785
G1 X56.825 Y-5.684 E11.37138
G1 X56.728 Y-5.332 E11.37506
G1 X56.603 Y-4.973 E11.37890
G1 X56.270 Y-4.226 E11.38717
G1 X55.836 Y-3.446 E11.39619
G1 X55.311 Y-2.633 E11.40596
G1 X54.699 Y-1.792 E11.41647
G1 X53.998 Y-0.930 E11.42770
G1 X53.205 Y-0.052 E11.43965
G1 X52.320 Y0.836 E11.45232
G1 X51.340 Y1.729 E11.46571
G1 X50.277 Y2.619 E11.47972
G1 X49.699 Y3.076 E11.48717
G1 X48.490 Y3.977 E11.50240
G1 X47.192 Y4.877 E11.51835
G1 X45.806 Y5.776 E11.53505
G1 X43.563 Y7.116 E11.56145
G1 X41.958 Y8.001 E11.57996
G1 X39.387 Y9.311 E11.60911
G1 X36.625 Y10.597 E11.63990
G1 X33.674 Y11.855 E11.67231
G1 X32.921 Y12.154 E11.68049
G1 X32.644 Y11.984 F7800.000
G1 X35.821 Y-2.071 F7800.000
G1 X35.570 Y-2.152 E11.68315 F1800.000
G1 X35.570 Y0.410 E11.70904
G1 X33.315 Y1.713 E11.73536
G1 X33.315 Y4.751 E11.76606
G1 X35.570 Y6.053 E11.79237
G1 X35.570 Y9.092 E11.82307
G1 X33.315 Y10.394 E11.84938
G1 X33.315 Y11.411 E11.85966
G1 X36.403 Y10.099 E11.89357
G1 X37.046 Y9.800 E11.90073
G1 X35.821 Y9.092 E11.91503
G1 X35.821 Y6.053 E11.94573
G1 X38.076 Y4.751 E11.97205
G1 X38.076 Y1.713 E12.00275
G1 X35.821 Y0.410 E12.02906
G1 X35.821 Y-2.071 E12.05413
G1 X40.665 Y-3.106 F7800.000
G1 X47.059 Y-3.173 F7800.000
G1 X47.866 Y-4.530 F7800.000
G1 X48.417 Y-5.711 F7800.000
G1 X48.423 Y-5.725 F7800.000
G1 X42.022 Y-6.534 F7800.000
G1 X43.089 Y-6.969 F7800.000
G1 X41.423 Y-7.931 E12.07357 F1800.000
G1 X41.518 Y-7.690 E12.07618
G1 X41.664 Y-6.534 E12.08796
G1 X41.518 Y-5.378 E12.09974
G1 X41.089 Y-4.294 E12.11151
G1 X40.403 Y-3.350 E12.12330
G1 X39.961 Y-2.987 E12.12908
G1 X40.583 Y-2.628 E12.13633
G1 X40.583 Y0.410 E12.16703
G1 X38.327 Y1.713 E12.19334
G1 X38.327 Y4.751 E12.22404
G1 X40.583 Y6.053 E12.25036
G1 X40.583 Y8.090 E12.27093
G1 X40.833 Y7.962 E12.27378
G1 X40.833 Y6.053 E12.29306
G1 X43.089 Y4.751 E12.31938
G1 X43.089 Y1.713 E12.35007
G1 X40.833 Y0.410 E12.37639
G1 X40.833 Y-2.628 E12.40709
G1 X43.089 Y-3.931 E12.43340
G1 X43.089 Y-6.969 E12.46410
G1 X44.322 Y-15.232 F7800.000
G1 X43.339 Y-15.561 E12.47457 F1800.000
G1 X43.339 Y-12.612 E12.50437
G1 X45.595 Y-11.310 E12.53068
G1 X45.595 Y-8.271 E12.56138
G1 X43.339 Y-6.969 E12.58770
G1 X43.339 Y-3.931 E12.61840
G1 X45.595 Y-2.628 E12.64471
G1 X45.595 Y0.410 E12.67541
G1 X43.339 Y1.713 E12.70173
G1 X43.339 Y4.751 E12.73243
G1 X44.936 Y5.673 E12.75105
G1 X46.889 Y4.425 E12.77447
G1 X48.101 Y3.583 E12.78938
G1 X48.101 Y1.713 E12.80828
G1 X45.846 Y0.410 E12.83459
G1 X45.846 Y-2.628 E12.86529
G1 X48.101 Y-3.931 E12.89161
G1 X48.101 Y-6.969 E12.92231
G1 X45.846 Y-8.271 E12.94862
G1 X45.846 Y-11.310 E12.97932
G1 X48.101 Y-12.612 E13.00564
G1 X48.101 Y-13.717 E13.01679
G1 X46.608 Y-14.360 E13.03322
G1 X44.322 Y-15.232 E13.05794
