; generated by Slic3r 1.2.9 on 2016-07-17 at 16:00:11

; external perimeters extrusion width = 0.40mm
; perimeters extrusion width = 0.67mm
; infill extrusion width = 0.67mm
; solid infill extrusion width = 0.67mm
; top infill extrusion width = 0.67mm

M107
M104 S215 ; set temperature
G28 ; home all axes
G1 Y-60 Z5 F5000 ; lift nozzle


M109 S215 ; wait for temperature to be reached
G21 ; set units to millimeters
G90 ; use absolute coordinates
M82 ; use absolute distances for extrusion
G92 E0
G1 E-3.00000 F2400.00000
G92 E0
G1 Z0.300 F6000.000
G1 X-29.037 Y-2.714 F6000.000
G1 E3.00000 F2400.00000
G1 X-28.684 Y-6.760 E3.21214 F1800.000
G1 X-28.282 Y-10.859 E3.42734
G1 X-27.835 Y-14.965 E3.64313
G1 X-27.081 Y-21.179 E3.97013
G1 X-26.524 Y-25.355 E4.19026
G1 X-25.613 Y-31.649 E4.52253
G1 X-24.952 Y-35.904 E4.74751
G1 X-23.900 Y-42.288 E5.08550
G1 X-23.042 Y-47.215 E5.34682
G1 X-22.332 Y-48.945 E5.44449
G1 X-20.970 Y-50.226 E5.54217
G1 X-18.742 Y-50.859 E5.66321
G1 X24.623 Y-51.348 E7.92893
G1 X26.454 Y-50.973 E8.02661
G1 X27.967 Y-49.874 E8.12428
G1 X28.890 Y-48.248 E8.22195
G1 X29.089 Y-47.083 E8.28370
G1 X29.345 Y-39.278 E8.69173
G1 X29.539 Y-32.578 E9.04189
G1 X29.757 Y-23.696 E9.50609
G1 X29.891 Y-17.070 E9.85231
G1 X29.997 Y-10.489 E10.19619
G1 X30.074 Y-3.961 E10.53728
G1 X30.120 Y2.504 E10.87504
G1 X30.137 Y8.895 E11.20896
G1 X30.098 Y19.361 E11.75574
G1 X30.002 Y27.543 E12.18325
G1 X29.843 Y35.533 E12.60077
G1 X29.627 Y43.123 E12.99743
G1 X29.173 Y44.936 E13.09511
G1 X28.010 Y46.400 E13.19278
G1 X25.937 Y47.340 E13.31172
G1 X2.249 Y51.288 E14.56633
G1 X0.796 Y51.288 E14.64224
G1 X-25.796 Y46.856 E16.05073
G1 X-27.534 Y46.165 E16.14840
G1 X-28.830 Y44.818 E16.24608
G1 X-29.479 Y42.789 E16.35738
G1 X-29.789 Y37.580 E16.62999
G1 X-30.008 Y32.113 E16.91586
G1 X-30.096 Y28.368 E17.11159
G1 X-30.137 Y22.746 E17.40531
G1 X-30.104 Y18.929 E17.60472
G1 X-30.021 Y15.074 E17.80616
G1 X-29.888 Y11.183 E18.00959
G1 X-29.705 Y7.229 E18.21640
G1 X-29.474 Y3.267 E18.42375
G1 X-29.041 Y-2.655 E18.73393
G1 F4800
G1 X-28.684 Y-6.760 E16.77674
G1 F4800
G1 X-28.500 Y-8.630 E15.88393
G1 E15.73393 F2400.00000
G92 E0
G1 X-18.220 Y-45.776 F6000.000
G1 E3.00000 F2400.00000
G1 X1.523 Y-42.486 E4.04571 F1800.000
G1 X24.117 Y-46.251 E5.24242
G1 X24.483 Y-34.669 E5.84783
G1 X24.810 Y-21.376 E6.54254
G1 X25.002 Y-10.416 E7.11522
G1 X25.112 Y0.393 E7.67995
G1 X25.139 Y6.786 E8.01399
G1 X25.136 Y13.100 E8.34384
G1 X25.062 Y23.420 E8.88304
G1 X24.894 Y33.451 E9.40716
G1 X24.647 Y42.490 E9.87959
G1 X1.523 Y46.344 E11.10438
G1 X-24.521 Y42.003 E12.48380
G1 X-24.798 Y37.345 E12.72759
G1 X-25.014 Y31.948 E13.00980
G1 X-25.126 Y26.455 E13.29683
G1 X-25.141 Y22.745 E13.49069
G1 X-25.073 Y17.100 E13.78560
G1 X-24.896 Y11.370 E14.08512
G1 X-24.614 Y5.653 E14.38418
G1 X-24.356 Y1.635 E14.59451
G1 X-24.056 Y-2.320 E14.80172
G1 X-23.517 Y-8.318 E15.11636
G1 X-22.872 Y-14.389 E15.43533
G1 X-22.127 Y-20.531 E15.75856
G1 X-21.284 Y-26.739 E16.08586
G1 X-20.350 Y-33.008 E16.41701
G1 X-19.331 Y-39.335 E16.75185
G1 X-18.231 Y-45.717 E17.09018
G1 X-18.528 Y-46.210 F6000.000
G1 X1.523 Y-42.868 E17.94112 F1800.000
G1 X24.480 Y-46.694 E18.91538
G1 X24.860 Y-34.680 E19.41856
G1 X25.187 Y-21.384 E19.97530
G1 X25.379 Y-10.421 E20.43427
G1 X25.490 Y0.390 E20.88685
G1 X25.516 Y6.785 E21.15457
G1 X25.513 Y13.101 E21.41895
G1 X25.439 Y23.425 E21.85111
G1 X25.271 Y33.458 E22.27118
G1 X25.015 Y42.811 E22.66283
G1 X1.523 Y46.726 E23.65979
G1 X-24.880 Y42.326 E24.78025
G1 X-25.175 Y37.364 E24.98832
G1 X-25.392 Y31.959 E25.21475
G1 X-25.503 Y26.460 E25.44501
G1 X-25.518 Y22.743 E25.60059
G1 X-25.450 Y17.092 E25.83716
G1 X-25.272 Y11.355 E26.07744
G1 X-24.991 Y5.631 E26.31732
G1 X-24.733 Y1.609 E26.48605
G1 X-24.432 Y-2.351 E26.65228
G1 X-23.892 Y-8.355 E26.90461
G1 X-23.247 Y-14.432 E27.16042
G1 X-22.501 Y-20.579 E27.41964
G1 X-21.658 Y-26.792 E27.68210
G1 X-20.723 Y-33.066 E27.94762
G1 X-19.703 Y-39.397 E28.21608
G1 X-18.539 Y-46.151 E28.50296
G1 X-18.220 Y-45.955 F6000.000
G1 X-14.051 Y-44.614 F6000.000
G1 X-14.211 Y-44.454 E28.51481 F1800.000
G1 X-12.521 Y-38.147 E28.85595
G1 X-17.908 Y-32.760 E29.25395
G1 X-19.840 Y-33.278 E29.35847
G1 X-18.876 Y-39.259 E29.67502
G1 X-17.844 Y-45.246 E29.99242
G1 X-14.051 Y-44.614 E30.19335
G1 X6.369 Y-39.265 F6000.000
G1 X0.062 Y-40.955 E30.53449 F1800.000
G1 X-5.325 Y-35.568 E30.93249
G1 X-3.635 Y-29.261 E31.27363
G1 X-9.022 Y-23.874 E31.67163
G1 X-15.329 Y-25.564 E32.01277
G1 X-20.716 Y-20.177 E32.41077
G1 X-19.026 Y-13.870 E32.75192
G1 X-22.872 Y-10.024 E33.03611
G1 X-22.415 Y-14.337 E33.26271
G1 X-21.632 Y-20.748 E33.60015
G1 X-21.160 Y-20.622 E33.62570
G1 X-15.773 Y-26.008 E34.02369
G1 X-17.463 Y-32.316 E34.36484
G1 X-12.077 Y-37.702 E34.76284
G1 X-5.769 Y-36.012 E35.10398
G1 X-0.383 Y-41.399 E35.50198
G1 X-0.646 Y-42.380 E35.55504
G1 X1.523 Y-42.019 E35.66989
G1 X10.642 Y-43.538 E36.15291
G1 X6.369 Y-39.265 E36.46868
G1 X18.951 Y-42.073 F6000.000
G1 X20.641 Y-35.766 E36.80982 F1800.000
G1 X15.254 Y-30.379 E37.20782
G1 X8.947 Y-32.069 E37.54897
G1 X3.561 Y-26.682 E37.94697
G1 X5.251 Y-20.375 E38.28811
G1 X-0.136 Y-14.988 E38.68611
G1 X-6.443 Y-16.678 E39.02725
G1 X-11.830 Y-11.292 E39.42525
G1 X-10.140 Y-4.984 E39.76639
G1 X-15.527 Y0.402 E40.16439
G1 X-21.834 Y-1.288 E40.50553
G1 X-23.823 Y0.702 E40.65253
G1 X-23.750 Y-0.260 E40.70291
G1 X-22.278 Y-1.732 E40.81169
G1 X-23.302 Y-5.555 E41.01845
G1 X-22.978 Y-9.030 E41.20080
G1 X-18.581 Y-13.426 E41.52561
G1 X-12.274 Y-11.736 E41.86675
G1 X-6.888 Y-17.123 E42.26475
G1 X-8.578 Y-23.430 E42.60589
G1 X-3.191 Y-28.817 E43.00389
G1 X3.116 Y-27.127 E43.34504
G1 X8.503 Y-32.513 E43.74304
G1 X6.813 Y-38.820 E44.08418
G1 X11.709 Y-43.716 E44.44590
G1 X13.141 Y-43.955 E44.52177
G1 X18.507 Y-42.517 E44.81199
G1 X21.305 Y-45.316 E45.01876
G1 X22.372 Y-45.493 E45.07524
G1 X18.951 Y-42.073 E45.32796
G1 X24.025 Y-34.534 F6000.000
G1 X24.341 Y-21.694 E45.99895 F1800.000
G1 X24.140 Y-21.493 E46.01381
G1 X17.833 Y-23.183 E46.35495
G1 X12.446 Y-17.796 E46.75295
G1 X14.136 Y-11.489 E47.09409
G1 X8.750 Y-6.103 E47.49209
G1 X2.442 Y-7.793 E47.83324
G1 X-2.944 Y-2.406 E48.23124
G1 X-1.254 Y3.901 E48.57238
G1 X-6.641 Y9.288 E48.97038
G1 X-12.948 Y7.598 E49.31152
G1 X-18.335 Y12.985 E49.70952
G1 X-16.645 Y19.292 E50.05066
G1 X-22.032 Y24.679 E50.44866
G1 X-24.675 Y23.970 E50.59165
G1 X-24.680 Y22.746 E50.65559
G1 X-24.612 Y17.110 E50.95008
G1 X-24.417 Y11.030 E51.26792
G1 X-18.779 Y12.540 E51.57288
G1 X-13.392 Y7.154 E51.97088
G1 X-15.082 Y0.847 E52.31202
G1 X-9.696 Y-4.540 E52.71002
G1 X-3.389 Y-2.850 E53.05117
G1 X1.998 Y-8.237 E53.44916
G1 X0.308 Y-14.544 E53.79031
G1 X5.695 Y-19.931 E54.18831
G1 X12.002 Y-18.241 E54.52945
G1 X17.389 Y-23.627 E54.92745
G1 X15.699 Y-29.935 E55.26859
G1 X21.085 Y-35.321 E55.66659
G1 X24.025 Y-34.534 E55.82561
G1 X24.512 Y-12.090 F6000.000
G1 X21.332 Y-8.911 E56.06053 F1800.000
G1 X23.022 Y-2.604 E56.40167
G1 X17.635 Y2.783 E56.79967
G1 X11.328 Y1.093 E57.14081
G1 X5.942 Y6.480 E57.53881
G1 X7.632 Y12.787 E57.87995
G1 X2.245 Y18.174 E58.27795
G1 X-4.062 Y16.484 E58.61909
G1 X-9.449 Y21.871 E59.01709
G1 X-7.759 Y28.178 E59.35824
G1 X-13.146 Y33.564 E59.75624
G1 X-19.453 Y31.874 E60.09738
G1 X-24.360 Y36.781 E60.45991
G1 X-24.394 Y35.927 E60.50458
G1 X-19.897 Y31.430 E60.83681
G1 X-21.587 Y25.123 E61.17795
G1 X-16.201 Y19.736 E61.57595
G1 X-9.893 Y21.426 E61.91709
G1 X-4.507 Y16.040 E62.31509
G1 X-6.197 Y9.732 E62.65623
G1 X-0.810 Y4.346 E63.05423
G1 X5.497 Y6.036 E63.39538
G1 X10.884 Y0.649 E63.79338
G1 X9.194 Y-5.658 E64.13452
G1 X14.581 Y-11.045 E64.53252
G1 X20.888 Y-9.355 E64.87366
G1 X24.496 Y-12.963 E65.14028
G1 X24.512 Y-12.090 E65.18591
G1 X24.629 Y-1.848 F6000.000
G1 X24.678 Y6.787 E65.63704 F1800.000
G1 X24.676 Y11.174 E65.86627
G1 X20.214 Y9.979 E66.10760
G1 X14.827 Y15.366 E66.50560
G1 X16.517 Y21.673 E66.84674
G1 X11.131 Y27.060 E67.24474
G1 X4.823 Y25.370 E67.58588
G1 X-0.563 Y30.756 E67.98388
G1 X1.127 Y37.063 E68.32502
G1 X-4.260 Y42.450 E68.72302
G1 X-10.567 Y40.760 E69.06416
G1 X-13.226 Y43.419 E69.26059
G1 X-13.987 Y43.292 E69.30093
G1 X-11.012 Y40.316 E69.52081
G1 X-12.702 Y34.009 E69.86195
G1 X-7.315 Y28.622 E70.25995
G1 X-1.008 Y30.312 E70.60110
G1 X4.379 Y24.925 E70.99909
G1 X2.689 Y18.618 E71.34024
G1 X8.076 Y13.231 E71.73824
G1 X14.383 Y14.921 E72.07938
G1 X19.770 Y9.535 E72.47738
G1 X18.080 Y3.227 E72.81852
G1 X23.466 Y-2.159 E73.21652
G1 X24.629 Y-1.848 E73.27938
G1 X23.269 Y23.807 F6000.000
G1 X24.608 Y22.468 E73.37831 F1800.000
G1 X24.601 Y23.363 E73.42507
G1 X23.713 Y24.251 E73.49070
G1 X24.535 Y27.321 E73.65671
G1 X24.466 Y31.496 E73.87488
G1 X20.016 Y35.945 E74.20361
G1 X13.709 Y34.255 E74.54476
G1 X8.322 Y39.642 E74.94275
G1 X9.631 Y44.525 E75.20689
G1 X1.523 Y45.877 E75.63634
G1 X-3.229 Y45.085 E75.88802
G1 X-3.816 Y42.894 E76.00649
G1 X1.571 Y37.508 E76.40449
G1 X7.878 Y39.198 E76.74563
G1 X13.265 Y33.811 E77.14363
G1 X11.575 Y27.504 E77.48478
G1 X16.962 Y22.117 E77.88277
G1 X23.269 Y23.807 E78.22392
G1 X24.433 Y33.440 F6000.000
G1 X24.197 Y42.098 E78.67639 F1800.000
G1 X22.084 Y42.450 E78.78827
G1 X20.461 Y36.390 E79.11606
G1 X24.450 Y32.400 E79.41085
G1 X24.433 Y33.440 E79.46522
G1 X-23.656 Y41.680 F6000.000
G1 X-24.083 Y41.609 E79.48785 F1800.000
G1 X-24.199 Y39.651 E79.59033
G1 X-23.656 Y41.680 E79.70009
G1 F4800
G1 X-24.199 Y39.651 E78.70216
G1 F4800
G1 X-24.083 Y41.609 E77.77040
G1 F4800
G1 X-23.656 Y41.680 E77.56468
G1 E76.70009 F2400.00000
G92 E0
G1 Z0.500 F6000.000
G1 X-18.126 Y-45.643 F6000.000
G1 E3.00000 F2400.00000
G1 X1.523 Y-42.369 E4.04072 F1200.000
G1 X24.006 Y-46.116 E5.23155
G1 X24.368 Y-34.666 E5.83004
G1 X24.695 Y-21.373 E6.52472
G1 X24.886 Y-10.415 E7.09735
G1 X24.997 Y0.393 E7.66204
G1 X25.023 Y6.786 E7.99605
G1 X25.020 Y13.099 E8.32586
G1 X24.946 Y23.419 E8.86502
G1 X24.778 Y33.448 E9.38908
G1 X24.535 Y42.392 E9.85650
G1 X1.523 Y46.227 E11.07533
G1 X-24.411 Y41.905 E12.44893
G1 X-24.683 Y37.340 E12.68786
G1 X-24.899 Y31.944 E12.96995
G1 X-25.011 Y26.454 E13.25687
G1 X-25.026 Y22.745 E13.45063
G1 X-24.958 Y17.103 E13.74543
G1 X-24.780 Y11.375 E14.04484
G1 X-24.493 Y5.562 E14.34891
G1 X-24.241 Y1.643 E14.55405
G1 X-23.941 Y-2.310 E14.76119
G1 X-23.402 Y-8.306 E15.07573
G1 X-22.758 Y-14.376 E15.39461
G1 X-22.012 Y-20.516 E15.71775
G1 X-21.170 Y-26.722 E16.04497
G1 X-20.236 Y-32.990 E16.37605
G1 X-19.217 Y-39.316 E16.71082
G1 X-18.136 Y-45.584 E17.04312
G1 X-18.528 Y-46.210 F6000.000
G1 X1.523 Y-42.868 E17.64668 F600.000
G1 X24.481 Y-46.694 E18.33773
G1 X24.860 Y-34.680 E18.69464
G1 X25.187 Y-21.384 E19.08953
G1 X25.379 Y-10.421 E19.41507
G1 X25.490 Y0.390 E19.73608
G1 X25.516 Y6.785 E19.92598
G1 X25.513 Y13.101 E20.11350
G1 X25.439 Y23.425 E20.42003
G1 X25.271 Y33.458 E20.71798
G1 X25.015 Y42.811 E20.99578
G1 X1.523 Y46.726 E21.70292
G1 X-24.880 Y42.326 E22.49765
G1 X-25.175 Y37.364 E22.64524
G1 X-25.392 Y31.959 E22.80584
G1 X-25.503 Y26.460 E22.96917
G1 X-25.518 Y22.743 E23.07952
G1 X-25.450 Y17.092 E23.24731
G1 X-25.272 Y11.355 E23.41774
G1 X-24.985 Y5.534 E23.59079
G1 X-24.733 Y1.609 E23.70757
G1 X-24.432 Y-2.351 E23.82547
G1 X-23.892 Y-8.355 E24.00445
G1 X-23.247 Y-14.432 E24.18590
G1 X-22.501 Y-20.579 E24.36976
G1 X-21.658 Y-26.792 E24.55592
G1 X-20.723 Y-33.066 E24.74426
G1 X-19.703 Y-39.397 E24.93467
G1 X-18.539 Y-46.151 E25.13815
G1 X-18.220 Y-45.955 F6000.000
G1 X-14.550 Y-44.506 F6000.000
G1 X-17.690 Y-45.029 E25.30446 F3000.000
G1 X-18.690 Y-39.228 E25.61200
G1 X-19.657 Y-33.229 E25.92950
G1 X-17.908 Y-32.760 E26.02411
G1 X-15.936 Y-25.401 E26.42211
G1 X-20.553 Y-20.784 E26.76325
G1 X-18.581 Y-13.426 E27.16125
G1 X-12.274 Y-11.736 E27.50240
G1 X-10.303 Y-4.378 E27.90039
G1 X-14.920 Y0.240 E28.24154
G1 X-12.948 Y7.598 E28.63954
G1 X-6.641 Y9.288 E28.98068
G1 X-4.669 Y16.646 E29.37868
G1 X-9.286 Y21.264 E29.71982
G1 X-7.315 Y28.622 E30.11782
G1 X-1.008 Y30.312 E30.45896
G1 X0.964 Y37.670 E30.85696
G1 X-3.653 Y42.288 E31.19810
G1 X-2.942 Y44.941 E31.34164
G1 X1.523 Y45.685 E31.57813
G1 X9.271 Y44.394 E31.98849
G1 X7.878 Y39.198 E32.26955
G1 X1.571 Y37.508 E32.61070
G1 X-0.401 Y30.149 E33.00870
G1 X4.216 Y25.532 E33.34984
G1 X2.245 Y18.174 E33.74784
G1 X-4.062 Y16.484 E34.08898
G1 X-6.034 Y9.125 E34.48698
G1 X-1.417 Y4.508 E34.82812
G1 X-3.389 Y-2.850 E35.22612
G1 X-9.696 Y-4.540 E35.56726
G1 X-11.667 Y-11.899 E35.96526
G1 X-7.050 Y-16.516 E36.30641
G1 X-9.022 Y-23.874 E36.70440
G1 X-15.329 Y-25.564 E37.04555
G1 X-17.301 Y-32.922 E37.44355
G1 X-12.684 Y-37.540 E37.78469
G1 X-14.550 Y-44.506 E38.16148
G1 X-0.932 Y-42.236 F6000.000
G1 X-13.869 Y-44.393 E38.84669 F3000.000
G1 X-12.077 Y-37.702 E39.20856
G1 X-5.769 Y-36.012 E39.54970
G1 X-3.798 Y-28.654 E39.94770
G1 X-8.415 Y-24.037 E40.28884
G1 X-6.443 Y-16.678 E40.68684
G1 X-0.136 Y-14.988 E41.02798
G1 X1.836 Y-7.630 E41.42598
G1 X-2.782 Y-3.013 E41.76712
G1 X-0.810 Y4.346 E42.16512
G1 X5.497 Y6.036 E42.50627
G1 X7.469 Y13.394 E42.90427
G1 X2.852 Y18.011 E43.24541
G1 X4.823 Y25.370 E43.64341
G1 X11.131 Y27.060 E43.98455
G1 X13.102 Y34.418 E44.38255
G1 X8.485 Y39.035 E44.72369
G1 X9.893 Y44.290 E45.00794
G1 X21.724 Y42.319 E45.63457
G1 X20.016 Y35.945 E45.97928
G1 X13.709 Y34.255 E46.32043
G1 X11.737 Y26.897 E46.71842
G1 X16.355 Y22.280 E47.05957
G1 X14.383 Y14.921 E47.45757
G1 X8.076 Y13.231 E47.79871
G1 X6.104 Y5.873 E48.19671
G1 X10.721 Y1.256 E48.53785
G1 X8.750 Y-6.103 E48.93585
G1 X2.442 Y-7.793 E49.27699
G1 X0.471 Y-15.151 E49.67499
G1 X5.088 Y-19.768 E50.01613
G1 X3.116 Y-27.127 E50.41413
G1 X-3.191 Y-28.817 E50.75528
G1 X-5.163 Y-36.175 E51.15328
G1 X-0.545 Y-40.792 E51.49442
G1 X-0.932 Y-42.236 E51.57254
G1 X6.976 Y-39.427 F6000.000
G1 X10.946 Y-43.398 E51.86589 F3000.000
G1 X1.523 Y-41.827 E52.36499
G1 X-0.251 Y-42.123 E52.45897
G1 X0.062 Y-40.955 E52.52215
G1 X6.369 Y-39.265 E52.86330
G1 X8.340 Y-31.906 E53.26129
G1 X3.723 Y-27.289 E53.60244
G1 X5.695 Y-19.931 E54.00044
G1 X12.002 Y-18.241 E54.34158
G1 X13.974 Y-10.882 E54.73958
G1 X9.357 Y-6.265 E55.08072
G1 X11.328 Y1.093 E55.47872
G1 X17.635 Y2.783 E55.81986
G1 X19.607 Y10.142 E56.21786
G1 X14.990 Y14.759 E56.55900
G1 X16.962 Y22.117 E56.95700
G1 X23.269 Y23.807 E57.29815
G1 X24.339 Y27.800 E57.51412
G1 X24.377 Y25.515 E57.63350
G1 X23.876 Y23.645 E57.73469
G1 X24.414 Y23.106 E57.77449
G1 X24.487 Y11.124 E58.40050
G1 X20.214 Y9.979 E58.63162
G1 X18.242 Y2.621 E59.02962
G1 X22.859 Y-1.997 E59.37076
G1 X20.888 Y-9.355 E59.76876
G1 X14.581 Y-11.045 E60.10990
G1 X12.609 Y-18.403 E60.50790
G1 X17.226 Y-23.021 E60.84904
G1 X15.254 Y-30.379 E61.24704
G1 X8.947 Y-32.069 E61.58819
G1 X6.976 Y-39.427 E61.98619
G1 X19.114 Y-42.680 F6000.000
G1 X21.609 Y-45.175 E62.17054 F3000.000
G1 X13.581 Y-43.837 E62.59572
G1 X18.507 Y-42.517 E62.86213
G1 X20.479 Y-35.159 E63.26013
G1 X15.861 Y-30.542 E63.60127
G1 X17.833 Y-23.183 E63.99927
G1 X24.140 Y-21.493 E64.34041
G1 X24.159 Y-21.422 E64.34424
G1 X23.835 Y-34.585 E65.03209
G1 X21.085 Y-35.321 E65.18083
G1 X19.114 Y-42.680 E65.57883
G1 X24.352 Y-10.407 F6000.000
G1 X24.318 Y-12.341 E65.67990 F3000.000
G1 X21.495 Y-9.518 E65.88853
G1 X23.466 Y-2.159 E66.28653
G1 X24.439 Y-1.899 E66.33915
G1 X24.352 Y-10.407 E66.78370
G1 X24.244 Y33.437 F6000.000
G1 X24.266 Y32.140 E66.85145 F3000.000
G1 X20.623 Y35.783 E67.12059
G1 X22.347 Y42.215 E67.46849
G1 X24.013 Y41.937 E67.55673
G1 X24.244 Y33.437 E68.00101
G1 X-22.032 Y24.679 F6000.000
G1 X-24.486 Y24.021 E68.13378 F3000.000
G1 X-24.476 Y26.447 E68.26054
G1 X-24.365 Y31.928 E68.54696
G1 X-24.195 Y36.172 E68.76886
G1 X-20.060 Y32.037 E69.07440
G1 X-22.032 Y24.679 E69.47240
G1 X-23.369 Y41.537 F6000.000
G1 X-24.049 Y38.998 E69.60973 F3000.000
G1 X-23.903 Y41.448 E69.73795
G1 X-23.369 Y41.537 E69.76626
G1 X-21.834 Y-1.288 F6000.000
G1 X-23.079 Y-5.934 E70.01756 F3000.000
G1 X-23.242 Y-4.116 E70.11290
G1 X-22.441 Y-1.125 E70.27469
G1 X-23.582 Y0.016 E70.35902
G1 X-23.708 Y1.681 E70.44623
G1 X-23.960 Y5.592 E70.65100
G1 X-24.231 Y11.080 E70.93805
G1 X-18.779 Y12.540 E71.23292
G1 X-16.807 Y19.899 E71.63092
G1 X-21.425 Y24.516 E71.97206
G1 X-19.453 Y31.874 E72.37006
G1 X-13.146 Y33.564 E72.71121
