; generated by Slic3r 1.2.9 on 2016-07-17 at 16:07:05

; external perimeters extrusion width = 0.40mm
; perimeters extrusion width = 0.67mm
; infill extrusion width = 0.67mm
; solid infill extrusion width = 0.67mm
; top infill extrusion width = 0.67mm

M107
M104 S215 ; set temperature
G28 ; home all axes
G1 Y-60 Z5 F5000 ; lift nozzle


M109 S215 ; wait for temperature to be reached
G21 ; set units to millimeters
G90 ; use absolute coordinates
M82 ; use absolute distances for extrusion
G92 E0
G1 E-3.00000 F2400.00000
G92 E0
G1 Z0.300 F6000.000
G1 X10.967 Y-0.692 F6000.000
G1 E3.00000 F2400.00000
G1 X11.866 Y7.031 E3.40618 F1800.000
G1 X12.750 Y15.253 E3.83823
G1 X13.443 Y22.171 E4.20148
G1 X14.287 Y31.198 E4.67515
G1 X15.214 Y41.914 E5.23711
G1 X14.972 Y43.768 E5.33478
G1 X13.984 Y45.355 E5.43246
G1 X11.537 Y46.639 E5.57684
G1 X-6.440 Y49.635 E6.52898
G1 X-7.893 Y49.635 E6.60488
G1 X-11.537 Y49.028 E6.79791
G1 X-13.274 Y48.338 E6.89558
G1 X-14.571 Y46.991 E6.99326
G1 X-15.194 Y45.228 E7.09093
G1 X-15.209 Y44.247 E7.14221
G1 X-6.565 Y-45.699 E11.86308
G1 X-5.996 Y-47.480 E11.96075
G1 X-4.742 Y-48.867 E12.05843
G1 X-3.027 Y-49.611 E12.15610
G1 X-1.158 Y-49.579 E12.25377
G1 X0.531 Y-48.777 E12.35145
G1 X2.079 Y-46.505 E12.49507
G1 X4.476 Y-38.220 E12.94567
G1 X5.295 Y-35.215 E13.10841
G1 X5.705 Y-33.576 E13.19666
G1 X6.113 Y-31.839 E13.28990
G1 X6.515 Y-30.001 E13.38817
G1 X6.902 Y-28.098 E13.48966
G1 X7.664 Y-23.949 E13.71001
G1 X8.409 Y-19.415 E13.95010
G1 X9.328 Y-13.246 E14.27594
G1 X10.061 Y-7.876 E14.55909
G1 X10.960 Y-0.751 E14.93427
G1 F4800
G1 X11.654 Y5.208 E12.08427
G1 E11.93427 F2400.00000
G92 E0
G1 X0.260 Y33.731 F6000.000
G1 E3.00000 F2400.00000
G1 X1.408 Y33.731 E3.06000 F1800.000
G1 X2.521 Y34.017 E3.12001
G1 X3.527 Y34.570 E3.18001
G1 X4.364 Y35.356 E3.24002
G1 X4.980 Y36.326 E3.30002
G1 X5.335 Y37.418 E3.36002
G1 X5.407 Y38.564 E3.42003
G1 X5.191 Y39.693 E3.48003
G1 X4.702 Y40.732 E3.54004
G1 X3.970 Y41.617 E3.60004
G1 X3.041 Y42.292 E3.66004
G1 X1.973 Y42.715 E3.72005
G1 X0.830 Y42.859 E3.78023
G1 X-0.355 Y42.695 E3.84278
G1 X-1.373 Y42.292 E3.89998
G1 X-2.305 Y41.615 E3.96017
G1 X-3.058 Y40.683 E4.02271
G1 X-3.524 Y39.693 E4.07992
G1 X-3.739 Y38.564 E4.13992
G1 X-3.667 Y37.418 E4.19992
G1 X-3.312 Y36.326 E4.25993
G1 X-2.696 Y35.356 E4.31993
G1 X-1.859 Y34.570 E4.37993
G1 X-0.853 Y34.017 E4.43994
G1 X0.202 Y33.746 E4.49681
G1 X0.307 Y34.108 F6000.000
G1 X1.360 Y34.108 E4.54089 F1800.000
G1 X2.381 Y34.370 E4.58498
G1 X3.304 Y34.878 E4.62907
G1 X4.071 Y35.599 E4.67316
G1 X4.636 Y36.488 E4.71724
G1 X4.961 Y37.489 E4.76133
G1 X5.027 Y38.541 E4.80542
G1 X4.830 Y39.575 E4.84950
G1 X4.381 Y40.528 E4.89359
G1 X3.710 Y41.340 E4.93768
G1 X2.858 Y41.959 E4.98177
G1 X1.879 Y42.346 E5.02585
G1 X0.833 Y42.478 E5.06999
G1 X-0.259 Y42.327 E5.11611
G1 X-1.190 Y41.959 E5.15805
G1 X-2.043 Y41.339 E5.20219
G1 X-2.736 Y40.482 E5.24831
G1 X-3.162 Y39.575 E5.29025
G1 X-3.359 Y38.541 E5.33434
G1 X-3.293 Y37.489 E5.37842
G1 X-2.968 Y36.488 E5.42251
G1 X-2.404 Y35.599 E5.46660
G1 X-1.636 Y34.878 E5.51069
G1 X-0.713 Y34.370 E5.55477
G1 X0.249 Y34.123 E5.59635
G1 X0.478 Y33.746 F6000.000
G1 F4800
G1 X1.360 Y34.108 E5.06843
G1 F4800
G1 X2.381 Y34.370 E4.56816
G1 F4800
G1 X3.304 Y34.878 E4.06789
G1 F4800
G1 X4.071 Y35.599 E3.56762
G1 F4800
G1 X4.636 Y36.488 E3.06736
G1 F4800
G1 X4.844 Y37.130 E2.74635
G1 E2.59635 F2400.00000
G92 E0
G1 X5.753 Y37.338 F6000.000
G1 X7.576 Y37.429 F6000.000
G1 X7.659 Y38.940 F6000.000
G1 X7.639 Y39.330 F6000.000
G1 X9.546 Y39.168 F6000.000
G1 X10.190 Y41.799 F6000.000
G1 E3.00000 F2400.00000
G1 X-7.166 Y44.691 E3.91926 F1800.000
G1 X-10.144 Y44.195 E4.07699
G1 X-9.152 Y38.377 E4.38534
G1 X-7.861 Y30.492 E4.80280
G1 X-6.673 Y22.849 E5.20687
G1 X-5.594 Y15.479 E5.59605
G1 X-4.858 Y10.144 E5.87740
G1 X-3.979 Y3.312 E6.23727
G1 X-3.220 Y-3.174 E6.57845
G1 X-2.581 Y-9.286 E6.89953
G1 X-2.063 Y-15.002 E7.19937
G1 X-1.663 Y-20.299 E7.47689
G1 X-1.379 Y-25.150 E7.73078
G1 X-1.208 Y-29.527 E7.95961
G1 X-1.161 Y-31.533 E8.06444
G1 X-1.134 Y-34.296 E8.20883
G1 X-1.141 Y-35.977 E8.29664
G1 X-1.211 Y-39.069 E8.45823
G1 X-0.993 Y-39.105 E8.46979
G1 X0.062 Y-35.455 E8.66827
G1 X0.649 Y-33.209 E8.78954
G1 X1.237 Y-30.749 E8.92170
G1 X1.813 Y-28.067 E9.06501
G1 X2.559 Y-24.134 E9.27416
G1 X3.290 Y-19.795 E9.50406
G1 X4.019 Y-15.054 E9.75464
G1 X4.745 Y-9.930 E10.02503
G1 X5.648 Y-3.010 E10.38964
G1 X6.545 Y4.457 E10.78255
G1 X7.255 Y10.804 E11.11621
G1 X7.954 Y17.463 E11.46600
G1 X8.809 Y26.197 E11.92452
G1 X9.476 Y33.492 E12.30725
G1 X10.185 Y41.739 E12.73968
G1 X10.595 Y42.114 F6000.000
G1 X-7.166 Y45.074 E13.49344 F1800.000
G1 X-10.580 Y44.505 E13.63830
G1 X-9.524 Y38.315 E13.90115
G1 X-8.234 Y30.432 E14.23552
G1 X-7.046 Y22.793 E14.55914
G1 X-5.967 Y15.426 E14.87083
G1 X-5.232 Y10.094 E15.09612
G1 X-4.354 Y3.266 E15.38430
G1 X-3.595 Y-3.215 E15.65747
G1 X-2.957 Y-9.323 E15.91453
G1 X-2.439 Y-15.033 E16.15454
G1 X-2.039 Y-20.324 E16.37665
G1 X-1.756 Y-25.169 E16.57979
G1 X-1.585 Y-29.539 E16.76286
G1 X-1.538 Y-31.539 E16.84662
G1 X-1.511 Y-34.297 E16.96209
G1 X-1.519 Y-35.973 E17.03222
G1 X-1.560 Y-38.233 E17.12684
G1 X-1.627 Y-40.186 E17.20863
G1 X-1.734 Y-42.220 E17.29391
G1 X-1.534 Y-42.255 E17.30238
G1 X-0.152 Y-37.597 E17.50580
G1 X0.426 Y-35.554 E17.59466
G1 X1.015 Y-33.301 E17.69215
G1 X1.605 Y-30.832 E17.79839
G1 X2.183 Y-28.142 E17.91358
G1 X2.930 Y-24.200 E18.08152
G1 X3.663 Y-19.855 E18.26600
G1 X4.392 Y-15.109 E18.46697
G1 X5.119 Y-9.981 E18.68380
G1 X6.022 Y-3.057 E18.97610
G1 X6.920 Y4.414 E19.29106
G1 X7.630 Y10.763 E19.55851
G1 X8.330 Y17.424 E19.83889
G1 X9.184 Y26.162 E20.20637
G1 X9.852 Y33.459 E20.51312
G1 X10.590 Y42.054 E20.87423
G1 X10.225 Y41.963 F6000.000
G1 X-1.669 Y-42.434 F6000.000
G1 X-1.987 Y-44.225 E20.96924 F1800.000
G1 X-1.484 Y-41.378 F6000.000
G1 X-1.322 Y-40.429 E21.01954 F1800.000
G1 X-1.322 Y-40.429 F6000.000
G1 X-1.132 Y-39.273 E21.15136 F1800.000
G1 X-0.960 Y-38.215 F6000.000
G1 X-0.831 Y-37.379 E21.19557 F1800.000
G1 X-0.831 Y-37.379 F6000.000
G1 X-0.644 Y-36.111 E21.33975 F1800.000
G1 X-0.383 Y-35.334 F6000.000
G1 X-0.049 Y-34.058 E21.40864 F1800.000
G1 X-0.682 Y-33.426 E21.45538
G1 X-0.681 Y-35.640 E21.57105
G1 X-0.478 Y-35.670 E21.58180
G1 X-0.383 Y-35.334 E21.60003
G1 X0.202 Y-33.097 F6000.000
G1 X0.787 Y-30.647 E21.73165 F1800.000
G1 X1.361 Y-27.976 E21.87439
G1 X2.105 Y-24.053 E22.08301
G1 X2.250 Y-23.196 E22.12840
G1 X-0.421 Y-23.912 E22.27286
G1 X-1.025 Y-23.308 E22.31749
G1 X-0.970 Y-24.251 E22.36688
G1 X-0.866 Y-24.356 E22.37460
G1 X-0.946 Y-24.657 E22.39089
G1 X-0.747 Y-29.512 E22.64476
G1 X-0.691 Y-32.528 E22.80235
G1 X0.135 Y-33.354 E22.86336
G1 X0.202 Y-33.097 E22.87722
G1 X4.167 Y-10.728 F6000.000
G1 X3.078 Y-9.639 E22.95766 F1800.000
G1 X4.768 Y-3.332 E23.29881
G1 X-0.619 Y2.055 E23.69681
G1 X-3.285 Y1.340 E23.84098
G1 X-2.762 Y-3.123 E24.07578
G1 X-2.123 Y-9.242 E24.39717
G1 X-1.935 Y-11.308 E24.50556
G1 X2.633 Y-10.083 E24.75267
G1 X4.056 Y-11.506 E24.85780
G1 X4.167 Y-10.728 E24.89886
G1 X6.087 Y4.510 F6000.000
G1 X6.762 Y10.537 E25.21571 F1800.000
G1 X1.960 Y9.250 E25.47545
G1 X-3.427 Y14.637 E25.87345
G1 X-1.737 Y20.944 E26.21459
G1 X-6.679 Y25.886 E26.57969
G1 X-6.217 Y22.918 E26.73660
G1 X-4.913 Y13.914 E27.21194
G1 X-3.871 Y14.193 E27.26826
G1 X1.515 Y8.806 E27.66626
G1 X-0.175 Y2.499 E28.00740
G1 X5.200 Y-2.876 E28.40451
G1 X6.087 Y4.510 E28.79317
G1 X7.850 Y21.131 F6000.000
G1 X5.459 Y23.523 E28.96987 F1800.000
G1 X7.149 Y29.830 E29.31101
G1 X3.145 Y33.834 E29.60684
G1 X2.692 Y33.585 E29.63386
G1 X1.466 Y33.270 E29.69995
G1 X0.201 Y33.270 E29.76603
G1 X-1.024 Y33.585 E29.83212
G1 X-2.107 Y34.180 E29.89669
G1 X-4.545 Y33.527 E30.02858
G1 X-8.546 Y37.528 E30.32419
G1 X-8.372 Y36.465 E30.38045
G1 X-4.990 Y33.083 E30.63038
G1 X-6.680 Y26.775 E30.97152
G1 X-1.293 Y21.389 E31.36952
G1 X5.014 Y23.079 E31.71066
G1 X7.771 Y20.322 E31.91434
G1 X7.850 Y21.131 E31.95683
G1 X8.747 Y30.584 F6000.000
G1 X9.694 Y41.414 E32.52484 F1800.000
G1 X4.142 Y42.340 E32.81889
G1 X4.053 Y42.126 E32.83098
G1 X4.288 Y41.955 E32.84617
G1 X5.095 Y40.981 E32.91226
G1 X5.633 Y39.836 E32.97835
G1 X5.870 Y38.594 E33.04443
G1 X5.791 Y37.331 E33.11052
G1 X5.400 Y36.128 E33.17660
G1 X4.722 Y35.060 E33.24269
G1 X3.800 Y34.194 E33.30877
G1 X3.718 Y34.149 E33.31365
G1 X7.593 Y30.274 E33.59994
G1 X8.747 Y30.584 E33.66238
G1 X-4.937 Y32.962 F6000.000
G1 X-6.432 Y38.448 F6000.000
G1 X-6.407 Y40.908 F6000.000
G1 X-7.166 Y42.080 F6000.000
G1 X-8.050 Y42.709 F6000.000
G1 X-9.654 Y43.848 F6000.000
G1 X-8.572 Y43.990 F6000.000
G1 X-9.612 Y43.817 E33.71749 F1800.000
G1 X-9.226 Y41.550 E33.83764
G1 X-8.572 Y43.990 E33.96965
G1 X-0.514 Y43.127 F6000.000
G1 X0.824 Y43.108 E34.03953 F1800.000
G1 X2.011 Y42.935 E34.10218
G1 X2.021 Y42.935 F6000.000
G1 X3.195 Y42.609 E34.16583 F1800.000
G1 X3.673 Y42.411 E34.19284
M106 S221.85
G1 F4800
G1 X3.195 Y42.609 E33.94728
G1 F4800
G1 X2.021 Y42.935 E33.36863
G1 E31.19284 F2400.00000
G92 E0
G1 Z0.500 F6000.000
G1 X4.830 Y39.575 F6000.000
G1 E3.00000 F2400.00000
G1 X4.381 Y40.528 E3.03127 F1800.000
G1 X3.710 Y41.340 E3.06254
G1 X2.858 Y41.959 E3.09381
G1 X1.879 Y42.346 E3.12508
G1 X0.834 Y42.478 E3.15635
G1 X-0.211 Y42.346 E3.18763
G1 X-1.190 Y41.959 E3.21890
G1 X-2.042 Y41.340 E3.25017
G1 X-2.714 Y40.528 E3.28144
G1 X-3.162 Y39.575 E3.31271
G1 X-3.359 Y38.541 E3.34398
G1 X-3.293 Y37.489 E3.37525
G1 X-2.968 Y36.488 E3.40652
G1 X-2.404 Y35.599 E3.43779
G1 X-1.636 Y34.878 E3.46906
G1 X-0.713 Y34.370 E3.50033
G1 X0.307 Y34.108 E3.53160
G1 X1.360 Y34.108 E3.56287
G1 X2.381 Y34.370 E3.59415
G1 X3.304 Y34.878 E3.62542
G1 X4.071 Y35.599 E3.65669
G1 X4.636 Y36.488 E3.68796
G1 X4.961 Y37.489 E3.71923
G1 X5.027 Y38.541 E3.75050
G1 X4.841 Y39.516 E3.77999
G1 X5.085 Y39.883 F6000.000
G1 X4.262 Y41.927 F6000.000
G1 X4.262 Y41.927 F6000.000
G1 X4.394 Y42.109 F6000.000
G1 X3.492 Y42.487 F6000.000
G1 X2.537 Y42.615 F6000.000
G1 X3.097 Y42.394 E3.81144 F1200.000
G1 X4.050 Y41.702 E3.87297
G1 X4.801 Y40.794 E3.93450
G1 X5.302 Y39.729 E3.99603
G1 X5.523 Y38.572 E4.05756
G1 X5.449 Y37.396 E4.11908
G1 X5.085 Y36.276 E4.18061
G1 X4.454 Y35.282 E4.24214
G1 X3.595 Y34.476 E4.30367
G1 X2.563 Y33.908 E4.36520
G1 X1.423 Y33.616 E4.42672
G1 X0.245 Y33.616 E4.48825
G1 X-0.896 Y33.908 E4.54978
G1 X-1.928 Y34.476 E4.61131
G1 X-2.786 Y35.282 E4.67283
G1 X-3.417 Y36.276 E4.73436
G1 X-3.781 Y37.396 E4.79589
G1 X-3.855 Y38.572 E4.85742
G1 X-3.634 Y39.729 E4.91895
G1 X-3.133 Y40.794 E4.98047
G1 X-2.382 Y41.702 E5.04200
G1 X-1.430 Y42.394 E5.10353
G1 X-0.335 Y42.827 E5.16506
G1 X0.627 Y42.949 E5.21569
G1 X0.633 Y43.275 E5.23272
G1 X-7.166 Y44.574 E5.64583
G1 X-10.011 Y44.100 E5.79650
G1 X-9.038 Y38.396 E6.09881
G1 X-7.747 Y30.510 E6.51631
G1 X-6.559 Y22.867 E6.92043
G1 X-5.479 Y15.495 E7.30966
G1 X-4.744 Y10.159 E7.59107
G1 X-3.865 Y3.326 E7.95100
G1 X-3.105 Y-3.161 E8.29225
G1 X-2.466 Y-9.275 E8.61341
G1 X-1.948 Y-14.992 E8.91334
G1 X-1.548 Y-20.291 E9.19096
G1 X-1.264 Y-25.145 E9.44496
G1 X-1.093 Y-29.523 E9.67390
G1 X-1.046 Y-31.531 E9.77881
G1 X-1.018 Y-34.296 E9.92328
G1 X-1.059 Y-37.774 E10.10501
G1 X-0.734 Y-37.824 E10.12221
G1 X-0.050 Y-35.425 E10.25258
G1 X0.537 Y-33.181 E10.37372
G1 X1.124 Y-30.723 E10.50575
G1 X1.700 Y-28.044 E10.64891
G1 X2.445 Y-24.113 E10.85793
G1 X3.176 Y-19.776 E11.08773
G1 X3.905 Y-15.037 E11.33822
G1 X4.631 Y-9.914 E11.60855
G1 X5.533 Y-2.995 E11.97309
G1 X6.430 Y4.470 E12.36595
G1 X7.141 Y10.816 E12.69956
G1 X7.840 Y17.474 E13.04931
G1 X8.694 Y26.208 E13.50779
G1 X9.361 Y33.503 E13.89048
G1 X10.066 Y41.703 E14.32046
G1 X2.628 Y42.942 E14.71438
G1 X2.553 Y42.673 E14.72896
G1 X10.595 Y42.114 F6000.000
G1 X-7.166 Y45.074 E15.26360 F600.000
G1 X-10.580 Y44.505 E15.36635
G1 X-9.524 Y38.315 E15.55279
G1 X-8.234 Y30.432 E15.78996
G1 X-7.046 Y22.793 E16.01950
G1 X-5.967 Y15.426 E16.24057
G1 X-5.232 Y10.094 E16.40037
G1 X-4.354 Y3.266 E16.60478
G1 X-3.595 Y-3.215 E16.79854
G1 X-2.957 Y-9.323 E16.98087
G1 X-2.439 Y-15.033 E17.15111
G1 X-2.039 Y-20.324 E17.30864
G1 X-1.756 Y-25.169 E17.45273
G1 X-1.585 Y-29.539 E17.58258
G1 X-1.538 Y-31.539 E17.64199
G1 X-1.511 Y-34.297 E17.72390
G1 X-1.519 Y-35.973 E17.77364
G1 X-1.560 Y-38.233 E17.84075
G1 X-1.627 Y-40.186 E17.89877
G1 X-1.713 Y-41.934 E17.95074
G1 X-1.455 Y-41.978 E17.95852
G1 X-0.152 Y-37.597 E18.09424
G1 X0.426 Y-35.554 E18.15726
G1 X1.015 Y-33.301 E18.22641
G1 X1.605 Y-30.832 E18.30176
G1 X2.183 Y-28.142 E18.38347
G1 X2.930 Y-24.200 E18.50259
G1 X3.663 Y-19.855 E18.63343
G1 X4.392 Y-15.109 E18.77598
G1 X5.119 Y-9.981 E18.92978
G1 X6.022 Y-3.057 E19.13711
G1 X6.920 Y4.414 E19.36051
G1 X7.630 Y10.763 E19.55021
G1 X8.330 Y17.424 E19.74908
G1 X9.184 Y26.162 E20.00974
G1 X9.852 Y33.459 E20.22731
G1 X10.590 Y42.054 E20.48344
G1 X10.225 Y41.963 F6000.000
G1 X-1.620 Y-42.152 F6000.000
G1 X-1.987 Y-44.221 E20.59319 F600.000
G1 X-1.395 Y-40.852 F6000.000
G1 X-1.184 Y-39.587 E20.66021 F1200.000
G1 X-1.184 Y-39.587 F6000.000
G1 X-0.932 Y-38.043 E20.82923 F1200.000
G1 X-0.704 Y-36.520 F6000.000
G1 X-0.533 Y-35.334 E20.89183 F1200.000
G1 X-0.533 Y-35.334 F6000.000
G1 X-0.276 Y-33.319 E21.11132 F1200.000
G1 X-0.421 Y-23.912 F6000.000
G1 X2.049 Y-23.250 E21.24494 F3000.000
G1 X2.649 Y-19.691 E21.43347
G1 X3.376 Y-14.959 E21.68360
G1 X3.944 Y-10.950 E21.89514
G1 X3.240 Y-10.246 E21.94716
G1 X4.816 Y-4.365 E22.26524
G1 X5.900 Y4.532 E22.73352
G1 X6.566 Y10.485 E23.04646
G1 X1.960 Y9.250 E23.29561
G1 X-0.012 Y1.892 E23.69361
G1 X4.605 Y-2.725 E24.03475
G1 X2.633 Y-10.083 E24.43275
G1 X-1.750 Y-11.258 E24.66986
G1 X-1.416 Y-14.948 E24.86344
G1 X-1.015 Y-20.255 E25.14150
G1 X-0.733 Y-25.074 E25.39370
G1 X-0.421 Y-23.912 E25.45658
G1 X-0.619 Y2.055 F6000.000
G1 X1.353 Y9.413 E25.85458 F3000.000
G1 X-3.264 Y14.030 E26.19572
G1 X-1.293 Y21.389 E26.59372
G1 X5.014 Y23.079 E26.93487
G1 X6.986 Y30.437 E27.33286
G1 X3.570 Y33.853 E27.58523
G1 X2.762 Y33.408 E27.63345
G1 X1.490 Y33.081 E27.70203
G1 X0.178 Y33.081 E27.77061
G1 X-1.094 Y33.408 E27.83918
G1 X-2.244 Y34.040 E27.90776
G1 X-2.330 Y34.121 E27.91389
G1 X-4.545 Y33.527 E28.03373
G1 X-6.517 Y26.168 E28.43173
G1 X-1.900 Y21.551 E28.77287
G1 X-3.871 Y14.193 E29.17087
G1 X-4.729 Y13.963 E29.21725
G1 X-4.214 Y10.230 E29.41415
G1 X-3.335 Y3.391 E29.77436
G1 X-3.100 Y1.390 E29.87964
G1 X-0.619 Y2.055 E30.01386
G1 X8.162 Y26.259 F6000.000
G1 X8.553 Y30.532 E30.23804 F3000.000
G1 X7.593 Y30.274 E30.28997
G1 X5.621 Y22.916 E30.68797
G1 X7.638 Y20.899 E30.83697
G1 X8.162 Y26.259 E31.11829
G1 X-5.152 Y33.689 F6000.000
G1 X-8.230 Y36.768 E31.34573 F3000.000
G1 X-7.220 Y30.594 E31.67257
G1 X-6.765 Y27.670 E31.82716
G1 X-5.152 Y33.689 E32.15273
G1 X-8.285 Y43.847 F6000.000
G1 X-8.966 Y43.733 E32.18880 F3000.000
G1 X-9.235 Y42.728 E32.24315
G1 X-8.982 Y41.244 E32.32178
G1 X-8.285 Y43.847 E32.46252
G1 X0.876 Y43.101 F6000.000
G1 X2.357 Y42.885 E32.62417 F1200.000
M106 S224.4
G1 F4800
G1 X0.876 Y43.101 E31.91363
G1 E29.62417 F2400.00000
G92 E0
G1 Z0.700 F6000.000
G1 X4.830 Y39.575 F6000.000
G1 E3.00000 F2400.00000
G1 X4.381 Y40.528 E3.03127 F1800.000
G1 X3.710 Y41.340 E3.06254
G1 X2.858 Y41.959 E3.09381
G1 X1.879 Y42.346 E3.12508
G1 X0.834 Y42.478 E3.15635
G1 X-0.211 Y42.346 E3.18763
G1 X-1.190 Y41.959 E3.21890
G1 X-2.042 Y41.340 E3.25017
G1 X-2.714 Y40.528 E3.28144
G1 X-3.162 Y39.575 E3.31271
G1 X-3.359 Y38.541 E3.34398
G1 X-3.293 Y37.489 E3.37525
G1 X-2.968 Y36.488 E3.40652
G1 X-2.404 Y35.599 E3.43779
G1 X-1.636 Y34.878 E3.46906
G1 X-0.713 Y34.370 E3.50033
G1 X0.307 Y34.108 E3.53160
G1 X1.360 Y34.108 E3.56287
G1 X2.381 Y34.370 E3.59415
G1 X3.304 Y34.878 E3.62542
G1 X4.071 Y35.599 E3.65669
G1 X4.636 Y36.488 E3.68796
G1 X4.961 Y37.489 E3.71923
G1 X5.027 Y38.541 E3.75050
G1 X4.841 Y39.516 E3.77999
G1 X5.085 Y39.883 F6000.000
G1 X4.262 Y41.927 F6000.000
G1 X4.262 Y41.927 F6000.000
G1 X4.394 Y42.109 F6000.000
G1 X3.492 Y42.487 F6000.000
G1 X2.537 Y42.615 F6000.000
G1 X3.097 Y42.394 E3.81144 F1200.000
G1 X4.050 Y41.702 E3.87297
G1 X4.801 Y40.794 E3.93450
G1 X5.302 Y39.729 E3.99603
G1 X5.523 Y38.572 E4.05756
G1 X5.449 Y37.396 E4.11908
G1 X5.085 Y36.276 E4.18061
G1 X4.454 Y35.282 E4.24214
