; generated by Slic3r 1.2.9 on 2016-07-14 at 18:00:30

; external perimeters extrusion width = 0.30mm
; perimeters extrusion width = 0.31mm
; infill extrusion width = 0.31mm
; solid infill extrusion width = 0.31mm
; top infill extrusion width = 0.31mm

M107
M104 S215 ; set temperature
G28 ; home all axes
G1 Z5 F5000 ; lift nozzle

M109 S215 ; wait for temperature to be reached
G21 ; set units to millimeters
G90 ; use absolute coordinates
M82 ; use absolute distances for extrusion
G92 E0
G1 E-2.00000 F2400.00000
G92 E0
G1 Z0.100 F7800.000
G1 X0.000 Y36.179 F7800.000
G1 E2.00000 F2400.00000
G1 X-58.000 Y36.179 E2.58599 F1800.000
G1 X-60.178 Y35.782 E2.60836
G1 X-62.077 Y34.642 E2.63073
G1 X-63.452 Y32.907 E2.65310
G1 X-64.178 Y30.000 E2.68338
G1 X-64.178 Y-30.000 E3.28957
G1 X-63.782 Y-32.178 E3.31194
G1 X-62.642 Y-34.077 E3.33431
G1 X-60.907 Y-35.452 E3.35669
G1 X-58.000 Y-36.179 E3.38696
G1 X52.000 Y-36.179 E4.49832
G1 X54.178 Y-35.782 E4.52069
G1 X56.077 Y-34.642 E4.54306 F1800.000
G1 X57.862 Y-31.954 E4.57566
G1 X60.844 Y-23.007 E4.67095
G1 X61.135 Y-21.615 E4.68532
G1 X64.153 Y11.439 E5.02066
G1 X63.861 Y13.954 E5.04624
G1 X57.862 Y31.954 E5.23793
G1 X56.796 Y33.895 E5.26030
G1 X55.115 Y35.336 E5.28267
G1 X52.000 Y36.179 E5.31528
G1 X0.045 Y36.179 E5.84019
G1 F6240
G1 X-5.155 Y36.179 E3.94019
G1 E3.84019 F2400.00000
G92 E0
G1 X-45.226 Y29.543 F7800.000
G1 E2.00000 F2400.00000
G1 X-57.366 Y29.543 E2.12265 F1800.000
G1 X-47.518 Y0.000 E2.43727
G1 X-48.934 Y-4.273 E2.48275
G1 X-44.977 Y-3.954 E2.52286
G1 X-40.664 Y-3.555 E2.56663 F1800.000
G1 X-34.564 Y-2.918 E2.62859
G1 X-29.743 Y-2.361 E2.67762
G1 X-23.005 Y-1.513 E2.74623
G1 X-17.738 Y-0.800 E2.79994
G1 X-12.298 Y-0.024 E2.85545
G1 X-4.797 Y1.110 E2.93210
G1 X1.000 Y2.029 E2.99140
G1 X8.934 Y3.344 E3.07266
G1 X15.022 Y4.392 E3.13507
G1 X23.300 Y5.864 E3.22001
G1 X29.610 Y7.020 E3.28483
G1 X38.137 Y8.620 E3.37248
G1 X46.767 Y10.275 E3.46126
G1 X57.402 Y12.350 E3.57073
G1 X51.671 Y29.543 E3.75384
G1 X-45.181 Y29.543 E4.73236
G1 X-45.181 Y29.721 F7800.000
G1 X-57.613 Y29.721 E4.85797 F1800.000
G1 X-47.706 Y0.000 E5.17449
G1 X-49.189 Y-4.472 E5.22209
G1 X-44.962 Y-4.132 E5.26493
G1 X-40.646 Y-3.733 E5.30872 F1800.000
G1 X-34.545 Y-3.096 E5.37071
G1 X-29.722 Y-2.538 E5.41976
G1 X-22.982 Y-1.690 E5.48838
G1 X-17.713 Y-0.977 E5.54210
G1 X-12.272 Y-0.200 E5.59763
G1 X-4.770 Y0.933 E5.67429
G1 X1.028 Y1.853 E5.73360
G1 X8.964 Y3.168 E5.81487
G1 X15.053 Y4.216 E5.87730
G1 X23.332 Y5.688 E5.96225
G1 X29.643 Y6.844 E6.02708
G1 X38.170 Y8.445 E6.11474
G1 X46.800 Y10.100 E6.20352
G1 X57.635 Y12.213 E6.31505
G1 X51.799 Y29.721 E6.50151
G1 X-45.136 Y29.721 E7.48088
G1 X-45.136 Y29.900 F7800.000
G1 X-57.861 Y29.900 E7.60944 F1800.000
G1 X-47.895 Y0.000 E7.92787
G1 X-49.443 Y-4.672 E7.97759
G1 X-44.947 Y-4.310 E8.02317
G1 X-40.629 Y-3.911 E8.06698 F1800.000
G1 X-34.525 Y-3.273 E8.12898
G1 X-29.700 Y-2.715 E8.17805
G1 X-22.959 Y-1.867 E8.24669
G1 X-17.689 Y-1.154 E8.30043
G1 X-12.246 Y-0.377 E8.35597
G1 X-4.742 Y0.757 E8.43265
G1 X1.057 Y1.677 E8.49197
G1 X8.994 Y2.992 E8.57325
G1 X15.084 Y4.040 E8.63569
G1 X23.364 Y5.513 E8.72065
G1 X29.675 Y6.669 E8.78548
G1 X38.204 Y8.269 E8.87315
G1 X46.834 Y9.925 E8.96194
G1 X57.869 Y12.077 E9.07553
G1 X51.928 Y29.900 E9.26534
G1 X-45.091 Y29.900 E10.24555
G1 X-45.286 Y29.640 F7800.000
G1 X-53.113 Y23.465 F7800.000
G1 X-54.814 Y22.483 E10.26540 F1800.000
G1 X-56.432 Y27.336 E10.31709
G1 X-55.619 Y27.806 E10.32658
G1 X-55.619 Y29.355 E10.34223
G1 X-55.368 Y29.355 E10.34477
G1 X-55.368 Y27.806 E10.36042
G1 X-53.113 Y26.503 E10.38673
G1 X-53.113 Y23.465 E10.41743
G1 X-53.113 Y17.822 F7800.000
G1 X-53.113 Y17.378 E10.42192 F1800.000
G1 X-53.296 Y17.928 E10.42777
G1 X-53.113 Y17.822 E10.42991
G1 X-48.100 Y6.101 F7800.000
G1 X-49.152 Y5.495 E10.44217 F1800.000
G1 X-50.770 Y10.348 E10.49386
G1 X-50.607 Y10.442 E10.49576
G1 X-50.607 Y13.481 E10.52646
G1 X-52.101 Y14.344 E10.54390
G1 X-52.862 Y16.626 E10.56821
G1 X-52.862 Y17.822 E10.58028
G1 X-50.607 Y19.124 E10.60660
G1 X-50.607 Y22.163 E10.63730
G1 X-52.862 Y23.465 E10.66361
G1 X-52.862 Y26.503 E10.69431
G1 X-50.607 Y27.806 E10.72063
G1 X-50.607 Y29.355 E10.73628
G1 X-50.356 Y29.355 E10.73881
G1 X-50.356 Y27.806 E10.75447
G1 X-48.100 Y26.503 E10.78078
G1 X-48.100 Y23.465 E10.81148
G1 X-50.356 Y22.163 E10.83779
G1 X-50.356 Y19.124 E10.86849
G1 X-48.100 Y17.822 E10.89481
G1 X-48.100 Y14.783 E10.92551
G1 X-50.356 Y13.481 E10.95182
G1 X-50.356 Y10.442 E10.98252
G1 X-48.100 Y9.140 E11.00884
G1 X-48.100 Y6.101 E11.03954
G1 X-46.946 Y-0.000 F7800.000
G1 X-46.946 Y-0.000 F7800.000
G1 X-48.100 Y-2.580 F7800.000
G1 X-48.193 Y-2.634 E11.04062 F1800.000
G1 X-48.100 Y-2.353 E11.04361
G1 X-48.100 Y-2.580 E11.04590
G1 X-45.168 Y-3.781 F7800.000
G1 X-45.696 Y-3.824 E11.05125 F1800.000
G1 X-47.850 Y-2.580 E11.07638
G1 X-47.850 Y-1.597 E11.08631
G1 X-47.320 Y0.001 E11.10331
G1 X-47.534 Y0.641 E11.11013
G1 X-45.594 Y1.761 E11.13276
G1 X-45.594 Y4.799 E11.16346
G1 X-47.850 Y6.101 E11.18977
G1 X-47.850 Y9.140 E11.22047
G1 X-45.594 Y10.442 E11.24679
G1 X-45.594 Y13.481 E11.27749
G1 X-47.850 Y14.783 E11.30380
G1 X-47.850 Y17.822 E11.33450
G1 X-45.594 Y19.124 E11.36082
G1 X-45.594 Y22.163 E11.39152
G1 X-47.850 Y23.465 E11.41783
G1 X-47.850 Y26.503 E11.44853
G1 X-45.594 Y27.806 E11.47484
G1 X-45.594 Y29.355 E11.49050
G1 X-45.344 Y29.355 E11.49303
G1 X-45.344 Y27.806 E11.50868
G1 X-43.088 Y26.503 E11.53500
G1 X-43.088 Y23.465 E11.56570
G1 X-45.344 Y22.163 E11.59201
G1 X-45.344 Y19.124 E11.62271
G1 X-43.088 Y17.822 E11.64903
G1 X-43.088 Y14.783 E11.67973
G1 X-45.344 Y13.481 E11.70604
G1 X-45.344 Y10.442 E11.73674
G1 X-43.088 Y9.140 E11.76305
G1 X-43.088 Y6.101 E11.79375
G1 X-45.344 Y4.799 E11.82007
G1 X-45.344 Y1.761 E11.85077
G1 X-43.088 Y0.458 E11.87708
G1 X-43.088 Y-2.580 E11.90778
G1 X-45.168 Y-3.781 E11.93205
G1 X-40.682 Y-3.369 F7800.000
G1 X-41.363 Y-3.432 E11.93896 F1800.000
G1 X-42.837 Y-2.580 E11.95616
G1 X-42.837 Y0.458 E11.98686
G1 X-40.582 Y1.761 E12.01317
G1 X-40.582 Y4.799 E12.04387
G1 X-42.837 Y6.101 E12.07019
G1 X-42.837 Y9.140 E12.10089
G1 X-40.582 Y10.442 E12.12720
G1 X-40.582 Y13.481 E12.15790
G1 X-42.837 Y14.783 E12.18421
G1 X-42.837 Y17.822 E12.21491
G1 X-40.582 Y19.124 E12.24123
G1 X-40.582 Y22.163 E12.27193
G1 X-42.837 Y23.465 E12.29824
G1 X-42.837 Y26.503 E12.32894
G1 X-40.582 Y27.806 E12.35526
G1 X-40.582 Y29.355 E12.37091
G1 X-40.331 Y29.355 E12.37344
G1 X-40.331 Y27.806 E12.38910
G1 X-38.076 Y26.503 E12.41541
G1 X-38.076 Y23.465 E12.44611
G1 X-40.331 Y22.163 E12.47243
G1 X-40.331 Y19.124 E12.50312
G1 X-38.076 Y17.822 E12.52944
G1 X-38.076 Y14.783 E12.56014
G1 X-40.331 Y13.481 E12.58645
G1 X-40.331 Y10.442 E12.61715
G1 X-38.076 Y9.140 E12.64347
G1 X-38.076 Y6.101 E12.67417
G1 X-40.331 Y4.799 E12.70048
G1 X-40.331 Y1.761 E12.73118
G1 X-38.076 Y0.458 E12.75750
G1 X-38.076 Y-2.580 E12.78819
G1 X-39.167 Y-3.210 E12.80092
G1 X-40.682 Y-3.369 E12.81632
G1 X-34.585 Y-2.732 F7800.000
G1 X-37.107 Y-2.995 E12.84194 F1800.000
G1 X-37.825 Y-2.580 E12.85032
G1 X-37.825 Y0.458 E12.88102
G1 X-35.569 Y1.761 E12.90733
G1 X-35.569 Y4.799 E12.93803
G1 X-37.825 Y6.101 E12.96435
G1 X-37.825 Y9.140 E12.99505
G1 X-35.569 Y10.442 E13.02136
G1 X-35.569 Y13.481 E13.05206
G1 X-37.825 Y14.783 E13.07837
G1 X-37.825 Y17.822 E13.10907
G1 X-35.569 Y19.124 E13.13539
G1 X-35.569 Y22.163 E13.16609
G1 X-37.825 Y23.465 E13.19240
G1 X-37.825 Y26.503 E13.22310
G1 X-35.569 Y27.806 E13.24942
G1 X-35.569 Y29.355 E13.26507
G1 X-35.319 Y29.355 E13.26760
G1 X-35.319 Y27.806 E13.28326
G1 X-33.063 Y26.503 E13.30957
G1 X-33.063 Y23.465 E13.34027
G1 X-35.319 Y22.163 E13.36658
G1 X-35.319 Y19.124 E13.39728
G1 X-33.063 Y17.822 E13.42360
G1 X-33.063 Y14.783 E13.45430
G1 X-35.319 Y13.481 E13.48061
G1 X-35.319 Y10.442 E13.51131
G1 X-33.063 Y9.140 E13.53763
G1 X-33.063 Y6.101 E13.56833
G1 X-35.319 Y4.799 E13.59464
G1 X-35.319 Y1.761 E13.62534
G1 X-33.063 Y0.458 E13.65165
G1 X-33.063 Y-2.556 E13.68211
G1 X-34.585 Y-2.732 E13.69758
G1 X-29.766 Y-2.175 F7800.000
G1 X-32.813 Y-2.527 E13.72857 F1800.000
G1 X-32.813 Y0.458 E13.75873
G1 X-30.557 Y1.761 E13.78504
G1 X-30.557 Y4.799 E13.81574
G1 X-32.813 Y6.101 E13.84206
G1 X-32.813 Y9.140 E13.87276
G1 X-30.557 Y10.442 E13.89907
G1 X-30.557 Y13.481 E13.92977
G1 X-32.813 Y14.783 E13.95609
G1 X-32.813 Y17.822 E13.98679
G1 X-30.557 Y19.124 E14.01310
G1 X-30.557 Y22.163 E14.04380
G1 X-32.813 Y23.465 E14.07011
G1 X-32.813 Y26.503 E14.10081
G1 X-30.557 Y27.806 E14.12713
G1 X-30.557 Y29.355 E14.14278
G1 X-30.306 Y29.355 E14.14531
G1 X-30.306 Y27.806 E14.16097
G1 X-28.051 Y26.503 E14.18728
G1 X-28.051 Y23.465 E14.21798
G1 X-30.306 Y22.163 E14.24430
G1 X-30.306 Y19.124 E14.27500
G1 X-28.051 Y17.822 E14.30131
G1 X-28.051 Y14.783 E14.33201
G1 X-30.306 Y13.481 E14.35832
G1 X-30.306 Y10.442 E14.38902
G1 X-28.051 Y9.140 E14.41534
G1 X-28.051 Y6.101 E14.44604
G1 X-30.306 Y4.799 E14.47235
G1 X-30.306 Y1.761 E14.50305
G1 X-28.051 Y0.458 E14.52937
G1 X-28.051 Y-1.959 E14.55379
G1 X-29.766 Y-2.175 E14.57125
G1 X-23.039 Y-1.328 F7800.000
G1 X-27.800 Y-1.927 E14.61974 F1800.000
G1 X-27.800 Y0.458 E14.64384
G1 X-25.545 Y1.761 E14.67015
G1 X-25.545 Y4.799 E14.70085
G1 X-27.800 Y6.101 E14.72717
G1 X-27.800 Y9.140 E14.75786
G1 X-25.545 Y10.442 E14.78418
G1 X-25.545 Y13.481 E14.81488
G1 X-27.800 Y14.783 E14.84119
G1 X-27.800 Y17.822 E14.87189
G1 X-25.545 Y19.124 E14.89821
G1 X-25.545 Y22.163 E14.92891
G1 X-27.800 Y23.465 E14.95522
G1 X-27.800 Y26.503 E14.98592
G1 X-25.545 Y27.806 E15.01224
G1 X-25.545 Y29.355 E15.02789
G1 X-25.294 Y29.355 E15.03042
G1 X-25.294 Y27.806 E15.04608
G1 X-23.039 Y26.503 E15.07239
G1 X-23.039 Y23.465 E15.10309
G1 X-25.294 Y22.163 E15.12940
G1 X-25.294 Y19.124 E15.16010
G1 X-23.039 Y17.822 E15.18642
G1 X-23.039 Y14.783 E15.21712
G1 X-25.294 Y13.481 E15.24343
G1 X-25.294 Y10.442 E15.27413
G1 X-23.039 Y9.140 E15.30045
G1 X-23.039 Y6.101 E15.33115
G1 X-25.294 Y4.799 E15.35746
G1 X-25.294 Y1.761 E15.38816
G1 X-23.039 Y0.458 E15.41447
G1 X-23.039 Y-1.328 E15.43252
G1 X-18.026 Y-0.650 F7800.000
G1 X-22.788 Y-1.294 E15.48107 F1800.000
G1 X-22.788 Y0.458 E15.49878
G1 X-20.532 Y1.761 E15.52509
G1 X-20.532 Y4.799 E15.55579
G1 X-22.788 Y6.101 E15.58210
G1 X-22.788 Y9.140 E15.61280
G1 X-20.532 Y10.442 E15.63912
G1 X-20.532 Y13.481 E15.66982
G1 X-22.788 Y14.783 E15.69613
G1 X-22.788 Y17.822 E15.72683
G1 X-20.532 Y19.124 E15.75315
G1 X-20.532 Y22.163 E15.78385
G1 X-22.788 Y23.465 E15.81016
G1 X-22.788 Y26.503 E15.84086
G1 X-20.532 Y27.806 E15.86717
G1 X-20.532 Y29.355 E15.88283
G1 X-20.282 Y29.355 E15.88536
G1 X-20.282 Y27.806 E15.90101
G1 X-18.026 Y26.503 E15.92733
G1 X-18.026 Y23.465 E15.95803
G1 X-20.282 Y22.163 E15.98434
G1 X-20.282 Y19.124 E16.01504
G1 X-18.026 Y17.822 E16.04136
G1 X-18.026 Y14.783 E16.07206
G1 X-20.282 Y13.481 E16.09837
G1 X-20.282 Y10.442 E16.12907
G1 X-18.026 Y9.140 E16.15538
G1 X-18.026 Y6.101 E16.18608
G1 X-20.282 Y4.799 E16.21240
G1 X-20.282 Y1.761 E16.24310
G1 X-18.026 Y0.458 E16.26941
G1 X-18.026 Y-0.650 E16.28061
G1 X-17.764 Y-0.614 F7800.000
G1 X-17.776 Y0.458 E16.29145 F1800.000
G1 X-15.520 Y1.761 E16.31776
G1 X-15.520 Y4.799 E16.34846
G1 X-17.776 Y6.101 E16.37478
G1 X-17.776 Y9.140 E16.40548
G1 X-15.520 Y10.442 E16.43179
G1 X-15.520 Y13.481 E16.46249
G1 X-17.776 Y14.783 E16.48881
G1 X-17.776 Y17.822 E16.51951
G1 X-15.520 Y19.124 E16.54582
G1 X-15.520 Y22.163 E16.57652
G1 X-17.776 Y23.465 E16.60283
G1 X-17.776 Y26.503 E16.63353
G1 X-15.520 Y27.806 E16.65985
G1 X-15.520 Y29.355 E16.67550
G1 X-15.269 Y29.355 E16.67803
G1 X-15.269 Y27.806 E16.69369
G1 X-13.014 Y26.503 E16.72000
G1 X-13.014 Y23.465 E16.75070
G1 X-15.269 Y22.163 E16.77702
G1 X-15.269 Y19.124 E16.80772
G1 X-13.014 Y17.822 E16.83403
G1 X-13.014 Y14.783 E16.86473
G1 X-15.269 Y13.481 E16.89104
G1 X-15.269 Y10.442 E16.92174
G1 X-13.014 Y9.140 E16.94806
G1 X-13.014 Y6.101 E16.97876
G1 X-15.269 Y4.799 E17.00507
G1 X-15.269 Y1.761 E17.03577
G1 X-13.014 Y0.458 E17.06209
G1 X-13.014 Y0.064 E17.06607
G1 X-17.764 Y-0.614 E17.11455
G1 X-12.326 Y0.162 F7800.000
G1 X-12.763 Y0.100 E17.11901 F1800.000
G1 X-12.763 Y0.458 E17.12264
G1 X-10.508 Y1.761 E17.14895
G1 X-10.508 Y4.799 E17.17965
G1 X-12.763 Y6.101 E17.20596
G1 X-12.763 Y9.140 E17.23666
G1 X-10.508 Y10.442 E17.26298
G1 X-10.508 Y13.481 E17.29368
G1 X-12.763 Y14.783 E17.31999
G1 X-12.763 Y17.822 E17.35069
G1 X-10.508 Y19.124 E17.37701
G1 X-10.508 Y22.163 E17.40771
G1 X-12.763 Y23.465 E17.43402
G1 X-12.763 Y26.503 E17.46472
G1 X-10.508 Y27.806 E17.49103
G1 X-10.508 Y29.355 E17.50669
G1 X-10.257 Y29.355 E17.50922
G1 X-10.257 Y27.806 E17.52487
G1 X-8.001 Y26.503 E17.55119
G1 X-8.001 Y23.465 E17.58189
G1 X-10.257 Y22.163 E17.60820
G1 X-10.257 Y19.124 E17.63890
G1 X-8.001 Y17.822 E17.66522
G1 X-8.001 Y14.783 E17.69592
G1 X-10.257 Y13.481 E17.72223
G1 X-10.257 Y10.442 E17.75293
G1 X-8.001 Y9.140 E17.77924
G1 X-8.001 Y6.101 E17.80994
G1 X-10.257 Y4.799 E17.83626
G1 X-10.257 Y1.761 E17.86696
G1 X-8.492 Y0.741 E17.88755
G1 X-12.326 Y0.162 E17.92673
G1 X-4.826 Y1.295 F7800.000
G1 X-6.824 Y0.993 E17.94715 F1800.000
G1 X-5.495 Y1.761 E17.96266
G1 X-5.495 Y4.799 E17.99335
G1 X-7.751 Y6.101 E18.01967
G1 X-7.751 Y9.140 E18.05037
G1 X-5.495 Y10.442 E18.07668
G1 X-5.495 Y13.481 E18.10738
G1 X-7.751 Y14.783 E18.13370
G1 X-7.751 Y17.822 E18.16440
G1 X-5.495 Y19.124 E18.19071
G1 X-5.495 Y22.163 E18.22141
G1 X-7.751 Y23.465 E18.24773
G1 X-7.751 Y26.503 E18.27842
G1 X-5.495 Y27.806 E18.30474
G1 X-5.495 Y29.355 E18.32039
G1 X-5.245 Y29.355 E18.32293
G1 X-5.245 Y27.806 E18.33858
G1 X-2.989 Y26.503 E18.36489
G1 X-2.989 Y23.465 E18.39559
G1 X-5.245 Y22.163 E18.42191
G1 X-5.245 Y19.124 E18.45261
G1 X-2.989 Y17.822 E18.47892
G1 X-2.989 Y14.783 E18.50962
G1 X-5.245 Y13.481 E18.53594
G1 X-5.245 Y10.442 E18.56664
G1 X-2.989 Y9.140 E18.59295
G1 X-2.989 Y6.101 E18.62365
G1 X-5.245 Y4.799 E18.64996
G1 X-5.245 Y1.761 E18.68066
G1 X-4.522 Y1.343 E18.68909
G1 X-4.826 Y1.295 E18.69220
G1 X-0.232 Y2.024 F7800.000
G1 X-0.483 Y1.984 E18.69477 F1800.000
G1 X-0.483 Y4.799 E18.72321
G1 X-2.738 Y6.101 E18.74952
G1 X-2.738 Y9.140 E18.78022
G1 X-0.483 Y10.442 E18.80653
G1 X-0.483 Y13.481 E18.83723
G1 X-2.738 Y14.783 E18.86355
G1 X-2.738 Y17.822 E18.89425
G1 X-0.483 Y19.124 E18.92056
G1 X-0.483 Y22.163 E18.95126
G1 X-2.738 Y23.465 E18.97758
G1 X-2.738 Y26.503 E19.00828
G1 X-0.483 Y27.806 E19.03459
G1 X-0.483 Y29.355 E19.05024
G1 X-0.232 Y29.355 E19.05278
G1 X-0.232 Y27.806 E19.06843
G1 X2.023 Y26.503 E19.09474
G1 X2.023 Y23.465 E19.12544
G1 X-0.232 Y22.163 E19.15176
G1 X-0.232 Y19.124 E19.18246
G1 X2.023 Y17.822 E19.20877
G1 X2.023 Y14.783 E19.23947
G1 X-0.232 Y13.481 E19.26579
G1 X-0.232 Y10.442 E19.29649
G1 X2.023 Y9.140 E19.32280
G1 X2.023 Y6.101 E19.35350
G1 X-0.232 Y4.799 E19.37981
G1 X-0.232 Y2.024 E19.40785
G1 X4.780 Y2.846 F7800.000
G1 X4.530 Y2.805 E19.41042 F1800.000
G1 X4.530 Y4.799 E19.43057
G1 X2.274 Y6.101 E19.45689
G1 X2.274 Y9.140 E19.48759
G1 X4.530 Y10.442 E19.51390
G1 X4.530 Y13.481 E19.54460
G1 X2.274 Y14.783 E19.57091
G1 X2.274 Y17.822 E19.60161
G1 X4.530 Y19.124 E19.62793
G1 X4.530 Y22.163 E19.65863
G1 X2.274 Y23.465 E19.68494
G1 X2.274 Y26.503 E19.71564
G1 X4.530 Y27.806 E19.74196
G1 X4.530 Y29.355 E19.75761
G1 X4.780 Y29.355 E19.76014
G1 X4.780 Y27.806 E19.77580
G1 X7.036 Y26.503 E19.80211
G1 X7.036 Y23.465 E19.83281
G1 X4.780 Y22.163 E19.85912
G1 X4.780 Y19.124 E19.88982
G1 X7.036 Y17.822 E19.91614
G1 X7.036 Y14.783 E19.94684
G1 X4.780 Y13.481 E19.97315
G1 X4.780 Y10.442 E20.00385
G1 X7.036 Y9.140 E20.03017
G1 X7.036 Y6.101 E20.06087
G1 X4.780 Y4.799 E20.08718
G1 X4.780 Y2.846 E20.10691
G1 X9.793 Y3.682 F7800.000
G1 X9.542 Y3.639 E20.10948 F1800.000
G1 X9.542 Y4.799 E20.12120
G1 X7.286 Y6.101 E20.14752
G1 X7.286 Y9.140 E20.17822
G1 X9.542 Y10.442 E20.20453
G1 X9.542 Y13.481 E20.23523
G1 X7.286 Y14.783 E20.26155
G1 X7.286 Y17.822 E20.29225
G1 X9.542 Y19.124 E20.31856
G1 X9.542 Y22.163 E20.34926
G1 X7.286 Y23.465 E20.37557
G1 X7.286 Y26.503 E20.40627
G1 X9.542 Y27.806 E20.43259
G1 X9.542 Y29.355 E20.44824
G1 X9.793 Y29.355 E20.45077
G1 X9.793 Y27.806 E20.46643
G1 X12.048 Y26.503 E20.49274
