; generated by Slic3r 1.2.9 on 2016-07-14 at 17:46:54

; external perimeters extrusion width = 0.30mm
; perimeters extrusion width = 0.31mm
; infill extrusion width = 0.31mm
; solid infill extrusion width = 0.31mm
; top infill extrusion width = 0.31mm

M107
M104 S215 ; set temperature
G28 ; home all axes
G1 Z5 F5000 ; lift nozzle

M109 S215 ; wait for temperature to be reached
G21 ; set units to millimeters
G90 ; use absolute coordinates
M82 ; use absolute distances for extrusion
G92 E0
G1 E-2.00000 F2400.00000
G92 E0
G1 Z0.100 F7800.000
G1 X-4.266 Y26.471 F7800.000
G1 E2.00000 F2400.00000
G1 X-11.169 Y25.311 E2.07072 F1800.000
G1 X-19.796 Y23.762 E2.15927
G1 X-28.499 Y22.117 E2.24875
G1 X-39.392 Y19.995 E2.36088
G1 X-56.686 Y16.589 E2.53896
G1 X-58.746 Y15.778 E2.56133
G1 X-60.389 Y14.293 E2.58370
G1 X-61.402 Y12.325 E2.60608
G1 X-61.644 Y11.088 E2.61880
G1 X-64.662 Y-21.965 E2.95414
G1 X-64.465 Y-24.170 E2.97651
G1 X-63.503 Y-26.165 E2.99888
G1 X-61.899 Y-27.692 E3.02125
G1 X-58.863 Y-28.695 E3.05356
G1 X-50.273 Y-29.174 E3.14049
G1 X-37.029 Y-29.838 E3.27446
G1 X-25.883 Y-30.329 E3.38718
G1 X-12.466 Y-30.837 E3.52283
G1 X-1.284 Y-31.187 E3.63586
G1 X9.851 Y-31.468 E3.74840
G1 X20.883 Y-31.676 E3.85988
G1 X31.766 Y-31.803 E3.96984
G1 X42.518 Y-31.848 E4.07847
G1 X50.484 Y-31.826 E4.15896 F1800.000
G1 X52.661 Y-31.417 E4.18133
G1 X54.553 Y-30.268 E4.20370
G1 X56.313 Y-27.601 E4.23598
G1 X64.370 Y-3.428 E4.49342
G1 X64.683 Y-1.236 E4.51579
G1 X64.370 Y0.480 E4.53341
G1 X55.323 Y27.623 E4.82248
G1 X54.257 Y29.564 E4.84485
G1 X52.576 Y31.005 E4.86722
G1 X50.495 Y31.761 E4.88959
G1 X49.308 Y31.846 E4.90161
G1 X48.610 Y31.829 E4.90867
G1 X44.697 Y31.696 E4.94822
G1 X40.711 Y31.511 E4.98854
G1 X34.792 Y31.148 E5.04844
G1 X30.692 Y30.837 E5.08999
G1 X24.619 Y30.291 E5.15160
G1 X18.442 Y29.635 E5.21436
G1 X14.259 Y29.138 E5.25692
G1 X7.980 Y28.315 E5.32089
G1 X1.671 Y27.402 E5.38530
G1 X-4.222 Y26.478 E5.44557
G1 F6240
G1 X-9.350 Y25.617 E3.54557
G1 E3.44557 F2400.00000
G92 E0
G1 X-29.778 Y15.111 F7800.000
G1 E2.00000 F2400.00000
G1 X-54.893 Y10.178 E2.25860 F1800.000
G1 X-52.495 Y2.983 E2.33522
G1 X-45.034 Y2.983 E2.41060
G1 X-45.034 Y-17.931 E2.62191
G1 X-56.495 Y-17.931 E2.73770
G1 X-57.886 Y-22.103 E2.78213
G1 X-45.534 Y-22.778 E2.90711
G1 X-32.282 Y-23.413 E3.04115
G1 X-18.927 Y-23.964 E3.17620
G1 X-5.546 Y-24.423 E3.31147
G1 X7.784 Y-24.783 E3.44619
G1 X18.794 Y-25.006 E3.55745
G1 X25.337 Y-25.102 E3.62357
G1 X31.823 Y-25.168 E3.68910
G1 X42.515 Y-25.212 E3.79713
G1 X50.121 Y-25.191 E3.87397
G1 X58.027 Y-1.474 E4.12656 F1800.000
G1 X49.135 Y25.201 E4.41064
G1 X44.945 Y25.065 E4.45300
G1 X39.128 Y24.777 E4.51184
G1 X35.207 Y24.525 E4.55154
G1 X29.257 Y24.057 E4.61184
G1 X25.251 Y23.685 E4.65249
G1 X19.177 Y23.041 E4.71420
G1 X13.034 Y22.295 E4.77672
G1 X6.824 Y21.452 E4.84004
G1 X2.651 Y20.839 E4.88265
G1 X-3.660 Y19.847 E4.94719
G1 X-10.026 Y18.775 E5.01241
G1 X-16.445 Y17.631 E5.07829
G1 X-22.914 Y16.428 E5.14477
G1 X-29.734 Y15.120 E5.21493
G1 X-29.768 Y15.295 F7800.000
G1 X-55.127 Y10.314 E5.47603 F1800.000
G1 X-52.624 Y2.805 E5.55601
G1 X-45.213 Y2.805 E5.63088
G1 X-45.213 Y-17.752 E5.83858
G1 X-56.624 Y-17.752 E5.95387
G1 X-58.129 Y-22.269 E6.00196
G1 X-45.543 Y-22.956 E6.12931
G1 X-32.290 Y-23.591 E6.26337
G1 X-18.934 Y-24.142 E6.39842
G1 X-5.551 Y-24.601 E6.53371
G1 X7.780 Y-24.962 E6.66845
G1 X18.791 Y-25.184 E6.77972
G1 X25.335 Y-25.280 E6.84584
G1 X31.822 Y-25.347 E6.91138
G1 X42.515 Y-25.391 E7.01942
G1 X50.250 Y-25.369 E7.09757
G1 X58.215 Y-1.474 E7.35205 F1800.000
G1 X49.263 Y25.384 E7.63808
G1 X44.938 Y25.243 E7.68180
G1 X39.118 Y24.956 E7.74067
G1 X35.194 Y24.703 E7.78039
G1 X29.242 Y24.235 E7.84072
G1 X25.233 Y23.863 E7.88140
G1 X19.157 Y23.218 E7.94313
G1 X13.011 Y22.472 E8.00568
G1 X6.799 Y21.629 E8.06902
G1 X2.624 Y21.016 E8.11165
G1 X-3.688 Y20.023 E8.17621
G1 X-10.056 Y18.951 E8.24145
G1 X-16.477 Y17.807 E8.30735
G1 X-22.947 Y16.603 E8.37383
G1 X-29.724 Y15.303 E8.44355
G1 X-29.758 Y15.479 F7800.000
G1 X-55.361 Y10.450 E8.70716 F1800.000
G1 X-52.752 Y2.626 E8.79049
G1 X-45.391 Y2.626 E8.86486
G1 X-45.391 Y-17.574 E9.06895
G1 X-56.752 Y-17.574 E9.18373
G1 X-58.373 Y-22.434 E9.23549
G1 X-45.552 Y-23.134 E9.36521
G1 X-32.298 Y-23.769 E9.49928
G1 X-18.941 Y-24.321 E9.63435
G1 X-5.557 Y-24.780 E9.76965
G1 X7.775 Y-25.140 E9.90439
G1 X18.788 Y-25.363 E10.01568
G1 X25.333 Y-25.459 E10.08181
G1 X31.820 Y-25.525 E10.14736
G1 X42.515 Y-25.569 E10.25541
G1 X50.379 Y-25.547 E10.33486
G1 X58.403 Y-1.474 E10.59124 F1800.000
G1 X49.390 Y25.567 E10.87922
G1 X44.931 Y25.421 E10.92430
G1 X39.108 Y25.134 E10.98320
G1 X35.182 Y24.881 E11.02295
G1 X29.227 Y24.412 E11.08330
G1 X25.215 Y24.041 E11.12400
G1 X19.137 Y23.396 E11.18576
G1 X12.988 Y22.649 E11.24834
G1 X6.774 Y21.806 E11.31170
G1 X2.597 Y21.192 E11.35435
G1 X-3.717 Y20.200 E11.41892
G1 X-10.087 Y19.127 E11.48418
G1 X-16.509 Y17.983 E11.55010
G1 X-22.980 Y16.779 E11.61659
G1 X-29.714 Y15.487 E11.68587
G1 X-29.856 Y15.195 F7800.000
G1 X-43.597 Y1.750 F7800.000
G1 X-43.597 Y4.789 E11.71657 F1800.000
G1 X-45.853 Y6.091 E11.74288
G1 X-45.853 Y9.130 E11.77358
G1 X-43.597 Y10.432 E11.79990
G1 X-43.597 Y12.205 E11.81781
G1 X-48.359 Y11.270 E11.86684
G1 X-48.359 Y10.432 E11.87531
G1 X-46.103 Y9.130 E11.90162
G1 X-46.103 Y6.091 E11.93232
G1 X-48.359 Y4.789 E11.95864
G1 X-48.359 Y3.171 E11.97499
G1 X-44.846 Y3.171 E12.01047
G1 X-44.846 Y1.029 E12.03211
G1 X-43.597 Y1.750 E12.04669
G1 X-48.609 Y4.789 F7800.000
G1 X-50.865 Y6.091 E12.07300 F1800.000
G1 X-50.865 Y9.130 E12.10370
G1 X-48.609 Y10.432 E12.13002
G1 X-48.609 Y11.221 E12.13799
G1 X-53.182 Y10.323 E12.18507
G1 X-51.116 Y9.130 E12.20917
G1 X-51.116 Y6.091 E12.23987
G1 X-52.975 Y5.018 E12.26157
G1 X-52.360 Y3.171 E12.28124
G1 X-48.609 Y3.171 E12.31913
G1 X-48.609 Y4.789 E12.33548
G1 X-54.135 Y10.136 F7800.000
G1 X-54.648 Y10.035 E12.34075 F1800.000
G1 X-54.593 Y9.871 E12.34250
G1 X-54.135 Y10.136 E12.34784
G1 X-51.182 Y10.355 F7800.000
G1 X-48.284 Y7.191 F7800.000
G1 X-44.491 Y7.561 F7800.000
G1 X-44.491 Y3.526 F7800.000
G1 X-43.597 Y-6.931 F7800.000
G1 X-43.597 Y-3.893 E12.37854 F1800.000
G1 X-44.846 Y-3.171 E12.39312
G1 X-44.846 Y-7.653 E12.43839
G1 X-43.597 Y-6.931 E12.45297
G1 X-43.597 Y-15.613 F7800.000
G1 X-43.597 Y-12.574 E12.48367 F1800.000
G1 X-44.846 Y-11.853 E12.49824
G1 X-44.846 Y-16.334 E12.54352
G1 X-43.597 Y-15.613 E12.55809
G1 X-45.853 Y-19.954 F7800.000
G1 X-45.853 Y-18.119 E12.57663 F1800.000
G1 X-46.103 Y-18.119 E12.57916
G1 X-46.103 Y-19.954 E12.59770
G1 X-48.359 Y-21.256 E12.62402
G1 X-48.359 Y-22.435 E12.63593
G1 X-43.597 Y-22.683 E12.68411
G1 X-43.597 Y-21.256 E12.69852
G1 X-45.853 Y-19.954 E12.72483
G1 X-50.865 Y-19.954 F7800.000
G1 X-50.865 Y-18.119 E12.74337 F1800.000
G1 X-51.116 Y-18.119 E12.74591
G1 X-51.116 Y-19.954 E12.76445
G1 X-53.371 Y-21.256 E12.79076
G1 X-53.371 Y-22.162 E12.79991
G1 X-48.609 Y-22.422 E12.84809
G1 X-48.609 Y-21.256 E12.85987
G1 X-50.865 Y-19.954 E12.88618
G1 X-55.877 Y-19.954 F7800.000
G1 X-55.877 Y-18.119 E12.90472 F1800.000
G1 X-56.128 Y-18.119 E12.90725
G1 X-56.128 Y-19.954 E12.92579
G1 X-57.172 Y-20.557 E12.93798
G1 X-57.630 Y-21.929 E12.95259
G1 X-53.622 Y-22.148 E12.99315
G1 X-53.622 Y-21.256 E13.00216
G1 X-55.877 Y-19.954 E13.02847
G1 X-38.585 Y-21.256 F7800.000
G1 X-40.840 Y-19.954 E13.05478 F1800.000
G1 X-40.840 Y-16.915 E13.08548
G1 X-38.585 Y-15.613 E13.11180
G1 X-38.585 Y-12.574 E13.14250
G1 X-40.840 Y-11.272 E13.16881
G1 X-40.840 Y-8.233 E13.19951
G1 X-38.585 Y-6.931 E13.22583
G1 X-38.585 Y-3.893 E13.25653
G1 X-40.840 Y-2.590 E13.28284
G1 X-40.840 Y0.448 E13.31354
G1 X-38.585 Y1.750 E13.33985
G1 X-38.585 Y4.789 E13.37055
G1 X-40.840 Y6.091 E13.39687
G1 X-40.840 Y9.130 E13.42757
G1 X-38.585 Y10.432 E13.45388
G1 X-38.585 Y13.190 E13.48174
G1 X-43.346 Y12.255 E13.53077
G1 X-43.346 Y10.432 E13.54919
G1 X-41.091 Y9.130 E13.57550
G1 X-41.091 Y6.091 E13.60620
G1 X-43.346 Y4.789 E13.63251
G1 X-43.346 Y1.750 E13.66321
G1 X-41.091 Y0.448 E13.68953
G1 X-41.091 Y-2.590 E13.72023
G1 X-43.346 Y-3.893 E13.74654
G1 X-43.346 Y-6.931 E13.77724
G1 X-41.091 Y-8.233 E13.80356
G1 X-41.091 Y-11.272 E13.83426
G1 X-43.346 Y-12.574 E13.86057
G1 X-43.346 Y-15.613 E13.89127
G1 X-41.091 Y-16.915 E13.91758
G1 X-41.091 Y-19.954 E13.94828
G1 X-43.346 Y-21.256 E13.97460
G1 X-43.346 Y-22.695 E13.98913
G1 X-38.585 Y-22.923 E14.03730
G1 X-38.585 Y-21.256 E14.05414
G1 X-33.572 Y-21.256 F7800.000
G1 X-35.828 Y-19.954 E14.08045 F1800.000
G1 X-35.828 Y-16.915 E14.11115
G1 X-33.572 Y-15.613 E14.13746
G1 X-33.572 Y-12.574 E14.16816
G1 X-35.828 Y-11.272 E14.19448
G1 X-35.828 Y-8.233 E14.22518
G1 X-33.572 Y-6.931 E14.25149
G1 X-33.572 Y-3.893 E14.28219
G1 X-35.828 Y-2.590 E14.30851
G1 X-35.828 Y0.448 E14.33921
G1 X-33.572 Y1.750 E14.36552
G1 X-33.572 Y4.789 E14.39622
G1 X-35.828 Y6.091 E14.42253
G1 X-35.828 Y9.130 E14.45323
G1 X-33.572 Y10.432 E14.47955
G1 X-33.572 Y13.471 E14.51025
G1 X-34.481 Y13.996 E14.52086
G1 X-38.334 Y13.239 E14.56052
G1 X-38.334 Y10.432 E14.58888
G1 X-36.078 Y9.130 E14.61520
G1 X-36.078 Y6.091 E14.64590
G1 X-38.334 Y4.789 E14.67221
G1 X-38.334 Y1.750 E14.70291
G1 X-36.078 Y0.448 E14.72922
G1 X-36.078 Y-2.590 E14.75992
G1 X-38.334 Y-3.893 E14.78624
G1 X-38.334 Y-6.931 E14.81694
G1 X-36.078 Y-8.233 E14.84325
G1 X-36.078 Y-11.272 E14.87395
G1 X-38.334 Y-12.574 E14.90027
G1 X-38.334 Y-15.613 E14.93097
G1 X-36.078 Y-16.915 E14.95728
G1 X-36.078 Y-19.954 E14.98798
G1 X-38.334 Y-21.256 E15.01429
G1 X-38.334 Y-22.935 E15.03125
G1 X-33.572 Y-23.163 E15.07942
G1 X-33.572 Y-21.256 E15.09868
G1 X-28.560 Y-21.256 F7800.000
G1 X-30.815 Y-19.954 E15.12500 F1800.000
G1 X-30.815 Y-16.915 E15.15570
G1 X-28.560 Y-15.613 E15.18201
G1 X-28.560 Y-12.574 E15.21271
G1 X-30.815 Y-11.272 E15.23903
G1 X-30.815 Y-8.233 E15.26973
G1 X-28.560 Y-6.931 E15.29604
G1 X-28.560 Y-3.893 E15.32674
G1 X-30.815 Y-2.590 E15.35305
G1 X-30.815 Y0.448 E15.38375
G1 X-28.560 Y1.750 E15.41007
G1 X-28.560 Y4.789 E15.44077
G1 X-30.815 Y6.091 E15.46708
G1 X-30.815 Y9.130 E15.49778
G1 X-28.560 Y10.432 E15.52410
G1 X-28.560 Y13.471 E15.55480
G1 X-30.741 Y14.730 E15.58025
G1 X-31.346 Y14.612 E15.58647
G1 X-33.322 Y13.471 E15.60952
G1 X-33.322 Y10.432 E15.64022
G1 X-31.066 Y9.130 E15.66653
G1 X-31.066 Y6.091 E15.69723
G1 X-33.322 Y4.789 E15.72355
G1 X-33.322 Y1.750 E15.75425
G1 X-31.066 Y0.448 E15.78056
G1 X-31.066 Y-2.590 E15.81126
G1 X-33.322 Y-3.893 E15.83758
G1 X-33.322 Y-6.931 E15.86828
G1 X-31.066 Y-8.233 E15.89459
G1 X-31.066 Y-11.272 E15.92529
G1 X-33.322 Y-12.574 E15.95160
G1 X-33.322 Y-15.613 E15.98230
G1 X-31.066 Y-16.915 E16.00862
G1 X-31.066 Y-19.954 E16.03932
G1 X-33.322 Y-21.256 E16.06563
G1 X-33.322 Y-23.175 E16.08502
G1 X-28.560 Y-23.378 E16.13317
G1 X-28.560 Y-21.256 E16.15461
G1 X-23.547 Y-21.256 F7800.000
G1 X-25.803 Y-19.954 E16.18093 F1800.000
G1 X-25.803 Y-16.915 E16.21163
G1 X-23.547 Y-15.613 E16.23794
G1 X-23.547 Y-12.574 E16.26864
G1 X-25.803 Y-11.272 E16.29496
G1 X-25.803 Y-8.233 E16.32566
G1 X-23.547 Y-6.931 E16.35197
G1 X-23.547 Y-3.893 E16.38267
G1 X-25.803 Y-2.590 E16.40898
G1 X-25.803 Y0.448 E16.43968
G1 X-23.547 Y1.750 E16.46600
G1 X-23.547 Y4.789 E16.49670
G1 X-25.803 Y6.091 E16.52301
G1 X-25.803 Y9.130 E16.55371
G1 X-23.547 Y10.432 E16.58003
G1 X-23.547 Y13.471 E16.61073
G1 X-25.803 Y14.773 E16.63704
G1 X-25.803 Y15.683 E16.64623
G1 X-26.054 Y15.635 E16.64881
G1 X-26.054 Y14.773 E16.65752
G1 X-28.309 Y13.471 E16.68384
G1 X-28.309 Y10.432 E16.71454
G1 X-26.054 Y9.130 E16.74085
G1 X-26.054 Y6.091 E16.77155
G1 X-28.309 Y4.789 E16.79786
G1 X-28.309 Y1.750 E16.82856
G1 X-26.054 Y0.448 E16.85488
G1 X-26.054 Y-2.590 E16.88558
G1 X-28.309 Y-3.893 E16.91189
G1 X-28.309 Y-6.931 E16.94259
G1 X-26.054 Y-8.233 E16.96891
G1 X-26.054 Y-11.272 E16.99961
G1 X-28.309 Y-12.574 E17.02592
G1 X-28.309 Y-15.613 E17.05662
G1 X-26.054 Y-16.915 E17.08293
G1 X-26.054 Y-19.954 E17.11363
G1 X-28.309 Y-21.256 E17.13995
G1 X-28.309 Y-23.389 E17.16149
G1 X-23.547 Y-23.585 E17.20964
G1 X-23.547 Y-21.256 E17.23318
G1 X-18.535 Y-21.256 F7800.000
G1 X-20.791 Y-19.954 E17.25949 F1800.000
G1 X-20.791 Y-16.915 E17.29019
G1 X-18.535 Y-15.613 E17.31650
G1 X-18.535 Y-12.574 E17.34720
G1 X-20.791 Y-11.272 E17.37352
G1 X-20.791 Y-8.233 E17.40422
G1 X-18.535 Y-6.931 E17.43053
G1 X-18.535 Y-3.893 E17.46123
G1 X-20.791 Y-2.590 E17.48755
G1 X-20.791 Y0.448 E17.51825
G1 X-18.535 Y1.750 E17.54456
G1 X-18.535 Y4.789 E17.57526
G1 X-20.791 Y6.091 E17.60157
G1 X-20.791 Y9.130 E17.63227
G1 X-18.535 Y10.432 E17.65859
G1 X-18.535 Y13.471 E17.68929
G1 X-20.791 Y14.773 E17.71560
G1 X-20.791 Y16.632 E17.73438
G1 X-21.041 Y16.585 E17.73696
G1 X-21.041 Y14.773 E17.75527
G1 X-23.297 Y13.471 E17.78158
G1 X-23.297 Y10.432 E17.81228
G1 X-21.041 Y9.130 E17.83859
G1 X-21.041 Y6.091 E17.86929
G1 X-23.297 Y4.789 E17.89561
G1 X-23.297 Y1.750 E17.92631
G1 X-21.041 Y0.448 E17.95262
G1 X-21.041 Y-2.590 E17.98332
G1 X-23.297 Y-3.893 E18.00964
G1 X-23.297 Y-6.931 E18.04034
G1 X-21.041 Y-8.233 E18.06665
G1 X-21.041 Y-11.272 E18.09735
G1 X-23.297 Y-12.574 E18.12366
G1 X-23.297 Y-15.613 E18.15436
G1 X-21.041 Y-16.915 E18.18068
G1 X-21.041 Y-19.954 E18.21138
G1 X-23.297 Y-21.256 E18.23769
G1 X-23.297 Y-23.595 E18.26133
G1 X-18.535 Y-23.789 E18.30948
G1 X-18.535 Y-21.256 E18.33507
G1 X-13.523 Y-21.256 F7800.000
G1 X-15.778 Y-19.954 E18.36139 F1800.000
G1 X-15.778 Y-16.915 E18.39209
G1 X-13.523 Y-15.613 E18.41840
G1 X-13.523 Y-12.574 E18.44910
G1 X-15.778 Y-11.272 E18.47541
G1 X-15.778 Y-8.233 E18.50611
G1 X-13.523 Y-6.931 E18.53243
G1 X-13.523 Y-3.893 E18.56313
G1 X-15.778 Y-2.590 E18.58944
G1 X-15.778 Y0.448 E18.62014
G1 X-13.523 Y1.750 E18.64646
G1 X-13.523 Y4.789 E18.67716
G1 X-15.778 Y6.091 E18.70347
G1 X-15.778 Y9.130 E18.73417
G1 X-13.523 Y10.432 E18.76048
G1 X-13.523 Y13.471 E18.79118
G1 X-15.778 Y14.773 E18.81750
G1 X-15.778 Y17.559 E18.84565
G1 X-16.029 Y17.515 E18.84822
G1 X-16.029 Y14.773 E18.87592
G1 X-18.284 Y13.471 E18.90224
G1 X-18.284 Y10.432 E18.93293
G1 X-16.029 Y9.130 E18.95925
G1 X-16.029 Y6.091 E18.98995
G1 X-18.284 Y4.789 E19.01626
G1 X-18.284 Y1.750 E19.04696
G1 X-16.029 Y0.448 E19.07328
G1 X-16.029 Y-2.590 E19.10398
G1 X-18.284 Y-3.893 E19.13029
G1 X-18.284 Y-6.931 E19.16099
G1 X-16.029 Y-8.233 E19.18730
G1 X-16.029 Y-11.272 E19.21800
G1 X-18.284 Y-12.574 E19.24432
G1 X-18.284 Y-15.613 E19.27502
G1 X-16.029 Y-16.915 E19.30133
G1 X-16.029 Y-19.954 E19.33203
G1 X-18.284 Y-21.256 E19.35835
G1 X-18.284 Y-23.798 E19.38403
G1 X-13.523 Y-23.961 E19.43217
G1 X-13.523 Y-21.256 E19.45950
G1 X-8.510 Y-21.256 F7800.000
G1 X-10.766 Y-19.954 E19.48581 F1800.000
G1 X-10.766 Y-16.915 E19.51651
G1 X-8.510 Y-15.613 E19.54283
G1 X-8.510 Y-12.574 E19.57353
G1 X-10.766 Y-11.272 E19.59984
G1 X-10.766 Y-8.233 E19.63054
G1 X-8.510 Y-6.931 E19.65685
G1 X-8.510 Y-3.893 E19.68755
G1 X-10.766 Y-2.590 E19.71387
G1 X-10.766 Y0.448 E19.74457
G1 X-8.510 Y1.750 E19.77088
G1 X-8.510 Y4.789 E19.80158
G1 X-10.766 Y6.091 E19.82790
G1 X-10.766 Y9.130 E19.85860
G1 X-8.510 Y10.432 E19.88491
G1 X-8.510 Y13.471 E19.91561
G1 X-10.766 Y14.773 E19.94192
G1 X-10.766 Y17.812 E19.97262
G1 X-9.180 Y18.727 E19.99112
G1 X-11.805 Y18.267 E20.01804
G1 X-11.016 Y17.812 E20.02725
G1 X-11.016 Y14.773 E20.05795
G1 X-13.272 Y13.471 E20.08426
G1 X-13.272 Y10.432 E20.11496
G1 X-11.016 Y9.130 E20.14128
G1 X-11.016 Y6.091 E20.17198
G1 X-13.272 Y4.789 E20.19829
G1 X-13.272 Y1.750 E20.22899
G1 X-11.016 Y0.448 E20.25530
G1 X-11.016 Y-2.590 E20.28600
G1 X-13.272 Y-3.893 E20.31232
G1 X-13.272 Y-6.931 E20.34302
G1 X-11.016 Y-8.233 E20.36933
G1 X-11.016 Y-11.272 E20.40003
G1 X-13.272 Y-12.574 E20.42635
G1 X-13.272 Y-15.613 E20.45705
G1 X-11.016 Y-16.915 E20.48336
G1 X-11.016 Y-19.954 E20.51406
G1 X-13.272 Y-21.256 E20.54037
G1 X-13.272 Y-23.970 E20.56779
G1 X-8.510 Y-24.133 E20.61593
G1 X-8.510 Y-21.256 E20.64500
G1 X-3.498 Y-21.256 F7800.000
G1 X-5.753 Y-19.954 E20.67131 F1800.000
G1 X-5.753 Y-16.915 E20.70201
G1 X-3.498 Y-15.613 E20.72833
G1 X-3.498 Y-12.574 E20.75903
G1 X-5.753 Y-11.272 E20.78534
G1 X-5.753 Y-8.233 E20.81604
G1 X-3.498 Y-6.931 E20.84236
G1 X-3.498 Y-3.893 E20.87306
