; generated by Slic3r 1.2.9 on 2016-07-17 at 16:37:46

; external perimeters extrusion width = 0.40mm
; perimeters extrusion width = 0.67mm
; infill extrusion width = 0.67mm
; solid infill extrusion width = 0.67mm
; top infill extrusion width = 0.67mm

M107
M104 S215 ; set temperature
G28 ; home all axes
G1 Y-60 Z5 F5000 ; lift nozzle


M109 S215 ; wait for temperature to be reached
G21 ; set units to millimeters
G90 ; use absolute coordinates
M82 ; use absolute distances for extrusion
G92 E0
G1 E-3.00000 F2400.00000
G92 E0
G1 Z0.300 F6000.000
G1 X23.535 Y-1.443 F6000.000
G1 E3.00000 F2400.00000
G1 X24.004 Y10.927 E3.64673 F1800.000
G1 X24.332 Y20.285 E4.13594
G1 X24.737 Y32.838 E4.79213
G1 X25.028 Y42.682 E5.30666
G1 X24.684 Y44.520 E5.40433
G1 X23.611 Y46.051 E5.50201
G1 X21.337 Y47.165 E5.63427
G1 X-1.446 Y50.962 E6.84101
G1 X-2.899 Y50.962 E6.91692
G1 X-21.322 Y47.892 E7.89269
G1 X-23.059 Y47.201 E7.99036
G1 X-24.356 Y45.854 E8.08804
G1 X-24.979 Y44.092 E8.18571
G1 X-24.976 Y42.950 E8.24536
G1 X-23.654 Y33.186 E8.76010
G1 X-12.929 Y-45.060 E12.88629
G1 X-12.289 Y-46.816 E12.98396
G1 X-10.980 Y-48.151 E13.08163
G1 X-8.920 Y-48.863 E13.19554
G1 X16.692 Y-51.006 E14.53829
G1 X18.546 Y-50.764 E14.63596
G1 X20.134 Y-49.777 E14.73363
G1 X21.172 Y-48.222 E14.83131
G1 X21.473 Y-46.831 E14.90568
G1 X21.940 Y-37.550 E15.39119
G1 X22.501 Y-25.714 E16.01025
G1 X23.034 Y-13.668 E16.64018
G1 X23.533 Y-1.503 E17.27629
G1 F4800
G1 X23.760 Y4.493 E14.42629
G1 E14.27629 F2400.00000
G92 E0
G1 X-8.057 Y-43.792 F6000.000
G1 E3.00000 F2400.00000
G1 X-2.173 Y-42.811 E3.31169 F1800.000
G1 X16.517 Y-45.926 E4.30158
G1 X16.950 Y-37.307 E4.75246
G1 X17.510 Y-25.487 E5.37069
G1 X18.042 Y-13.457 E5.99979
G1 X18.543 Y-1.248 E6.63821
G1 X19.011 Y11.110 E7.28430
G1 X19.339 Y20.456 E7.77288
G1 X19.744 Y32.994 E8.42827
G1 X20.019 Y42.320 E8.91570
G1 X-2.173 Y46.018 E10.09109
G1 X-19.948 Y43.056 E11.03257
G1 X-17.856 Y27.698 E11.84234
G1 X-13.551 Y-3.245 E13.47453
G1 X-11.427 Y-18.645 E14.28671
G1 X-9.772 Y-30.853 E14.93034
G1 X-8.065 Y-43.733 E15.60913
G1 X-8.380 Y-44.228 F6000.000
G1 X-2.173 Y-43.194 E15.87256 F1800.000
G1 X16.872 Y-46.368 E16.68078
G1 X17.327 Y-37.325 E17.05979
G1 X17.887 Y-25.504 E17.55518
G1 X18.419 Y-13.473 E18.05929
G1 X18.920 Y-1.263 E18.57086
G1 X19.388 Y11.096 E19.08858
G1 X19.716 Y20.443 E19.48008
G1 X20.121 Y32.982 E20.00524
G1 X20.406 Y42.638 E20.40960
G1 X-2.173 Y46.401 E21.36777
G1 X-20.371 Y43.368 E22.14007
G1 X-18.230 Y27.646 E22.80424
G1 X-13.924 Y-3.297 E24.11202
G1 X-11.801 Y-18.696 E24.76273
G1 X-10.145 Y-30.903 E25.27839
G1 X-8.388 Y-44.169 E25.83856
G1 X-8.068 Y-43.978 F6000.000
G1 X-7.418 Y-37.821 F6000.000
G1 X-8.531 Y-36.707 E25.92083 F1800.000
G1 X-8.064 Y-40.233 E26.10663
G1 X-7.418 Y-37.821 E26.23711
G1 X16.490 Y-37.285 F6000.000
G1 X16.787 Y-31.010 E26.56529 F1800.000
G1 X14.051 Y-31.743 E26.71332
G1 X8.664 Y-26.356 E27.11132
G1 X10.354 Y-20.049 E27.45246
G1 X4.967 Y-14.663 E27.85046
G1 X-1.340 Y-16.353 E28.19160
G1 X-6.727 Y-10.966 E28.58960
G1 X-5.037 Y-4.659 E28.93074
G1 X-10.423 Y0.728 E29.32874
G1 X-13.523 Y-0.102 E29.49638
G1 X-11.789 Y-12.648 E30.15803
G1 X-7.171 Y-11.410 E30.40780
G1 X-1.784 Y-16.797 E30.80580
G1 X-3.474 Y-23.104 E31.14694
G1 X1.912 Y-28.491 E31.54494
G1 X8.220 Y-26.801 E31.88608
G1 X13.606 Y-32.187 E32.28408
G1 X11.916 Y-38.495 E32.62523
G1 X16.213 Y-42.791 E32.94270
G1 X16.490 Y-37.285 E33.23077
G1 X16.170 Y-43.637 F6000.000
G1 X11.472 Y-38.939 E33.57792 F1800.000
G1 X5.165 Y-40.629 E33.91906
G1 X-0.222 Y-35.242 E34.31706
G1 X1.468 Y-28.935 E34.65820
G1 X-3.919 Y-23.548 E35.05620
G1 X-10.073 Y-25.198 E35.38911
G1 X-8.667 Y-35.683 E35.94183
G1 X-6.973 Y-37.377 E36.06695
G1 X-0.666 Y-35.687 E36.40809
G1 X4.720 Y-41.073 E36.80609
G1 X4.100 Y-43.390 E36.93139
G1 X16.082 Y-45.387 E37.56606
G1 X16.170 Y-43.637 E37.65757
G1 X17.105 Y-17.915 F6000.000
G1 X17.372 Y-18.182 E37.67727 F1800.000
G1 X17.737 Y-9.661 E38.12286
G1 X13.853 Y-5.777 E38.40982
G1 X7.546 Y-7.467 E38.75096
G1 X2.159 Y-2.080 E39.14896
G1 X3.849 Y4.227 E39.49011
G1 X-1.538 Y9.614 E39.88810
G1 X-7.845 Y7.924 E40.22925
G1 X-13.232 Y13.311 E40.62725
G1 X-11.542 Y19.618 E40.96839
G1 X-16.928 Y25.004 E41.36639
G1 X-17.013 Y24.982 E41.37097
G1 X-15.268 Y12.440 E42.03254
G1 X-13.676 Y12.866 E42.11865
G1 X-8.289 Y7.480 E42.51664
G1 X-9.979 Y1.172 E42.85779
G1 X-4.592 Y-4.214 E43.25579
G1 X1.715 Y-2.524 E43.59693
G1 X7.101 Y-7.911 E43.99493
G1 X5.411 Y-14.218 E44.33607
G1 X10.798 Y-19.605 E44.73407
G1 X17.105 Y-17.915 E45.07521
G1 X18.083 Y-1.230 F6000.000
G1 X18.201 Y1.893 E45.23848 F1800.000
G1 X16.431 Y1.419 E45.33418
G1 X11.045 Y6.806 E45.73218
G1 X12.735 Y13.113 E46.07332
G1 X7.348 Y18.500 E46.47132
G1 X1.041 Y16.810 E46.81246
G1 X-4.346 Y22.196 E47.21046
G1 X-2.656 Y28.503 E47.55160
G1 X-8.043 Y33.890 E47.94960
G1 X-14.350 Y32.200 E48.29075
G1 X-18.581 Y36.431 E48.60334
G1 X-18.440 Y35.402 E48.65758
G1 X-14.794 Y31.756 E48.92700
G1 X-16.484 Y25.449 E49.26814
G1 X-11.097 Y20.062 E49.66614
G1 X-4.790 Y21.752 E50.00728
G1 X0.597 Y16.365 E50.40528
G1 X-1.093 Y10.058 E50.74643
G1 X4.293 Y4.671 E51.14443
G1 X10.600 Y6.361 E51.48557
G1 X15.987 Y0.975 E51.88357
G1 X14.297 Y-5.333 E52.22471
G1 X17.772 Y-8.807 E52.48143
G1 X18.083 Y-1.230 E52.87764
G1 X18.687 Y15.033 F6000.000
G1 X19.012 Y24.607 E53.37814 F1800.000
G1 X16.234 Y27.385 E53.58339
G1 X9.927 Y25.695 E53.92453
G1 X4.540 Y31.082 E54.32253
G1 X6.230 Y37.389 E54.66367
G1 X0.843 Y42.776 E55.06167
G1 X-5.464 Y41.086 E55.40281
G1 X-8.821 Y44.443 E55.65085
G1 X-9.583 Y44.316 E55.69119
G1 X-5.908 Y40.642 E55.96268
G1 X-7.598 Y34.334 E56.30382
G1 X-2.212 Y28.948 E56.70182
G1 X4.096 Y30.638 E57.04296
G1 X9.482 Y25.251 E57.44096
G1 X7.792 Y18.944 E57.78210
G1 X13.179 Y13.557 E58.18010
G1 X18.687 Y15.033 E58.47804
G1 X19.283 Y33.008 F6000.000
G1 X19.334 Y34.721 E58.56756 F1800.000
G1 X18.812 Y34.581 E58.59575
G1 X13.426 Y39.968 E58.99375
G1 X14.191 Y42.824 E59.14823
G1 X1.737 Y44.899 E59.80784
G1 X1.287 Y43.220 E59.89866
G1 X6.674 Y37.834 E60.29666
G1 X12.981 Y39.524 E60.63780
G1 X18.368 Y34.137 E61.03580
G1 X16.678 Y27.830 E61.37694
G1 X19.040 Y25.468 E61.55142
G1 X19.283 Y33.008 E61.94554
G1 X-18.324 Y42.859 F6000.000
G1 X-19.431 Y42.675 E62.00419 F1800.000
G1 X-19.074 Y40.057 E62.14219
G1 X-18.324 Y42.859 E62.29374
M106 S140.25
G1 F4800
G1 X-19.074 Y40.057 E60.91590
G1 F4800
G1 X-19.431 Y42.675 E59.66119
G1 F4800
G1 X-18.979 Y42.750 E59.44374
G1 E59.29374 F2400.00000
G92 E0
G1 Z0.500 F6000.000
G1 X-7.927 Y-43.653 F6000.000
G1 E3.00000 F2400.00000
G1 X-2.173 Y-42.694 E3.30476 F1200.000
G1 X16.395 Y-45.789 E4.28823
G1 X16.835 Y-37.051 E4.74531
G1 X17.395 Y-25.232 E5.36352
G1 X17.927 Y-13.202 E5.99260
G1 X18.428 Y-0.993 E6.63101
G1 X18.895 Y11.364 E7.27708
G1 X19.223 Y20.710 E7.76563
G1 X19.628 Y33.247 E8.42101
G1 X19.894 Y42.223 E8.89017
G1 X-2.173 Y45.901 E10.05892
G1 X-19.786 Y42.966 E10.99181
G1 X-17.742 Y27.964 E11.78282
G1 X-13.436 Y-2.979 E13.41501
G1 X-11.313 Y-18.379 E14.22720
G1 X-9.657 Y-30.587 E14.87084
G1 X-7.935 Y-43.594 E15.55630
G1 X-8.348 Y-44.223 F6000.000
G1 X-2.173 Y-43.194 E15.74219 F600.000
G1 X16.859 Y-46.366 E16.31507
G1 X17.327 Y-37.075 E16.59127
G1 X17.887 Y-25.254 E16.94264
G1 X18.419 Y-13.223 E17.30021
G1 X18.920 Y-1.013 E17.66306
G1 X19.388 Y11.346 E18.03027
G1 X19.716 Y20.693 E18.30797
G1 X20.121 Y33.232 E18.68046
G1 X20.399 Y42.639 E18.95988
G1 X-2.173 Y46.401 E19.63930
G1 X-20.339 Y43.373 E20.18611
G1 X-18.230 Y27.896 E20.64987
G1 X-13.924 Y-3.047 E21.57747
G1 X-11.801 Y-18.446 E22.03902
G1 X-10.145 Y-30.653 E22.40477
G1 X-8.356 Y-44.164 E22.80942
G1 X-8.037 Y-43.972 F6000.000
G1 X-7.580 Y-37.214 F6000.000
G1 X-8.342 Y-36.453 E22.86567 F3000.000
G1 X-8.022 Y-38.863 E22.99271
G1 X-7.580 Y-37.214 E23.08193
G1 X4.558 Y-40.466 F6000.000
G1 X-0.059 Y-35.849 E23.42307 F3000.000
G1 X1.912 Y-28.491 E23.82107
G1 X8.220 Y-26.801 E24.16221
G1 X10.191 Y-19.442 E24.56021
G1 X5.574 Y-14.825 E24.90135
G1 X7.546 Y-7.467 E25.29935
G1 X13.853 Y-5.777 E25.64049
G1 X15.825 Y1.582 E26.03849
G1 X11.207 Y6.199 E26.37964
G1 X13.179 Y13.557 E26.77763
G1 X18.488 Y14.980 E27.06478
G1 X18.835 Y25.229 E27.60054
G1 X16.841 Y27.223 E27.74788
G1 X18.812 Y34.581 E28.14588
G1 X19.136 Y34.668 E28.16338
G1 X19.346 Y41.773 E28.53476
G1 X14.453 Y42.589 E28.79391
G1 X13.588 Y39.361 E28.96850
G1 X18.205 Y34.744 E29.30964
G1 X16.234 Y27.385 E29.70764
G1 X9.927 Y25.695 E30.04878
G1 X7.955 Y18.337 E30.44678
G1 X12.572 Y13.720 E30.78793
G1 X10.600 Y6.361 E31.18593
G1 X4.293 Y4.671 E31.52707
G1 X2.322 Y-2.687 E31.92507
G1 X6.939 Y-7.304 E32.26621
G1 X4.967 Y-14.663 E32.66421
G1 X-1.340 Y-16.353 E33.00535
G1 X-3.312 Y-23.711 E33.40335
G1 X1.305 Y-28.328 E33.74449
G1 X-0.666 Y-35.687 E34.14249
G1 X-6.973 Y-37.377 E34.48364
G1 X-7.807 Y-40.488 E34.65193
G1 X-7.470 Y-43.036 E34.78620
G1 X-2.173 Y-42.153 E35.06676
G1 X3.838 Y-43.155 E35.38509
G1 X4.558 Y-40.466 E35.53050
G1 X16.000 Y-43.023 F6000.000
G1 X12.079 Y-39.102 E35.82020 F3000.000
G1 X14.051 Y-31.743 E36.21820
G1 X16.584 Y-31.064 E36.35523
G1 X17.199 Y-17.564 E37.06128
G1 X17.105 Y-17.915 E37.08026
G1 X10.798 Y-19.605 E37.42140
G1 X8.826 Y-26.963 E37.81940
G1 X13.444 Y-31.581 E38.16055
G1 X11.472 Y-38.939 E38.55855
G1 X5.165 Y-40.629 E38.89969
G1 X4.460 Y-43.258 E39.04191
G1 X15.892 Y-45.164 E39.64741
G1 X16.000 Y-43.023 E39.75942
G1 X-3.919 Y-23.548 F6000.000
G1 X-1.947 Y-16.190 E40.15742 F3000.000
G1 X-6.564 Y-11.573 E40.49856
G1 X-4.592 Y-4.214 E40.89656
G1 X1.715 Y-2.524 E41.23770
G1 X3.686 Y4.834 E41.63570
G1 X-0.931 Y9.451 E41.97684
G1 X1.041 Y16.810 E42.37484
G1 X7.348 Y18.500 E42.71599
G1 X9.320 Y25.858 E43.11399
G1 X4.703 Y30.475 E43.45513
G1 X6.674 Y37.834 E43.85313
G1 X12.981 Y39.524 E44.19427
G1 X13.831 Y42.693 E44.36567
G1 X2.000 Y44.664 E44.99230
G1 X1.450 Y42.613 E45.10324
G1 X6.067 Y37.996 E45.44438
G1 X4.096 Y30.638 E45.84238
G1 X-2.212 Y28.948 E46.18352
G1 X-4.183 Y21.589 E46.58152
G1 X0.434 Y16.972 E46.92266
G1 X-1.538 Y9.614 E47.32066
G1 X-7.845 Y7.924 E47.66180
G1 X-9.817 Y0.565 E48.05980
G1 X-5.199 Y-4.052 E48.40095
G1 X-7.171 Y-11.410 E48.79895
G1 X-11.572 Y-12.589 E49.03698
G1 X-9.857 Y-25.140 E49.69876
G1 X-3.919 Y-23.548 E50.01995
G1 X-10.423 Y0.728 F6000.000
G1 X-8.452 Y8.086 E50.41795 F3000.000
G1 X-13.069 Y12.704 E50.75909
G1 X-11.097 Y20.062 E51.15709
G1 X-4.790 Y21.752 E51.49823
G1 X-2.818 Y29.110 E51.89623
G1 X-7.436 Y33.728 E52.23737
G1 X-5.464 Y41.086 E52.63537
G1 X0.843 Y42.776 E52.97652
G1 X1.377 Y44.768 E53.08427
G1 X-2.173 Y45.360 E53.27228
G1 X-9.038 Y44.216 E53.63590
G1 X-6.071 Y41.249 E53.85511
G1 X-8.043 Y33.890 E54.25311
G1 X-14.350 Y32.200 E54.59425
G1 X-16.321 Y24.842 E54.99225
G1 X-11.704 Y20.225 E55.33340
G1 X-13.676 Y12.866 E55.73140
G1 X-15.051 Y12.498 E55.80575
G1 X-13.306 Y-0.044 E56.46732
G1 X-10.423 Y0.728 E56.62320
G1 X17.894 Y-0.972 F6000.000
G1 X18.000 Y1.839 E56.77020 F3000.000
G1 X16.431 Y1.419 E56.85506
G1 X14.460 Y-5.939 E57.25306
G1 X17.563 Y-9.043 E57.48234
G1 X17.894 Y-0.972 E57.90432
G1 X-14.957 Y32.363 F6000.000
G1 X-18.251 Y35.657 E58.14773 F3000.000
G1 X-16.838 Y25.342 E58.69166
G1 X-14.957 Y32.363 E59.07139
G1 X-18.037 Y42.716 F6000.000
G1 X-18.718 Y42.602 E59.10745 F3000.000
G1 X-19.036 Y41.416 E59.17160
G1 X-18.816 Y39.807 E59.25646
G1 X-18.037 Y42.716 E59.41379
M106 S147.9
G1 F4800
G1 X-18.816 Y39.807 E57.98334
G1 F4800
G1 X-19.036 Y41.416 E57.21185
G1 F4800
G1 X-18.718 Y42.602 E56.62859
G1 F4800
G1 X-18.583 Y42.625 E56.56379
G1 E56.41379 F2400.00000
G92 E0
G1 Z0.700 F6000.000
G1 X-7.901 Y-43.649 F6000.000
G1 E3.00000 F2400.00000
G1 X-2.173 Y-42.694 E3.30339 F1200.000
G1 X16.386 Y-45.787 E4.28634
G1 X16.835 Y-36.851 E4.75379
G1 X17.395 Y-25.032 E5.37200
G1 X17.927 Y-13.002 E6.00108
G1 X18.428 Y-0.793 E6.63949
G1 X18.895 Y11.564 E7.28556
G1 X19.223 Y20.910 E7.77412
G1 X19.530 Y30.306 E8.26530
G1 X19.888 Y42.224 E8.88824
G1 X-2.173 Y45.901 E10.05668
G1 X-19.760 Y42.970 E10.98819
G1 X-17.742 Y28.164 E11.76889
G1 X-13.436 Y-2.779 E13.40108
G1 X-11.313 Y-18.179 E14.21328
G1 X-9.251 Y-33.418 E15.01667
G1 X-7.909 Y-43.590 E15.55269
G1 X-8.323 Y-44.219 F6000.000
G1 X-2.173 Y-43.194 E15.73780 F600.000
G1 X16.849 Y-46.364 E16.31038
G1 X17.327 Y-36.875 E16.59247
G1 X17.887 Y-25.054 E16.94384
G1 X18.419 Y-13.023 E17.30141
G1 X18.920 Y-0.813 E17.66426
G1 X19.388 Y11.546 E18.03148
G1 X19.716 Y20.893 E18.30917
G1 X20.023 Y30.291 E18.58835
G1 X20.393 Y42.640 E18.95517
G1 X-2.173 Y46.401 E19.63441
G1 X-20.312 Y43.377 E20.18044
G1 X-18.230 Y28.096 E20.63834
G1 X-13.924 Y-2.847 E21.56594
G1 X-11.801 Y-18.246 E22.02749
G1 X-9.740 Y-33.483 E22.48402
G1 X-8.330 Y-44.159 E22.80376
G1 X-8.011 Y-43.968 F6000.000
G1 X11.916 Y-38.495 F6000.000
G1 X13.606 Y-32.187 E23.14490 F3000.000
G1 X16.559 Y-31.396 E23.30459
G1 X16.590 Y-30.737 E23.33905
G1 X13.444 Y-31.581 E23.50923
G1 X8.826 Y-26.963 E23.85037
G1 X1.468 Y-28.935 E24.24837
G1 X-0.222 Y-35.242 E24.58951
G1 X-7.580 Y-37.214 E24.98751
G1 X-8.307 Y-36.487 E25.04124
G1 X-7.896 Y-39.605 E25.20557
G1 X-7.418 Y-37.821 E25.30208
G1 X-0.059 Y-35.849 E25.70008
G1 X4.558 Y-40.466 E26.04122
G1 X11.916 Y-38.495 E26.43922
G1 X15.990 Y-43.013 F6000.000
G1 X12.079 Y-39.102 E26.72822 F3000.000
G1 X4.720 Y-41.073 E27.12622
G1 X4.149 Y-43.207 E27.24161
G1 X15.882 Y-45.162 E27.86307
G1 X15.990 Y-43.013 E27.97549
G1 X8.664 Y-26.356 F6000.000
G1 X10.354 Y-20.049 E28.31664 F3000.000
G1 X17.161 Y-18.225 E28.68484
G1 X17.190 Y-17.567 E28.71926
G1 X10.191 Y-19.442 E29.09783
G1 X5.574 Y-14.825 E29.43897
G1 X-1.784 Y-16.797 E29.83697
G1 X-3.474 Y-23.104 E30.17812
G1 X-9.876 Y-24.819 E30.52434
G1 X-9.791 Y-25.447 E30.55744
G1 X-3.312 Y-23.711 E30.90786
G1 X1.305 Y-28.328 E31.24901
G1 X8.664 Y-26.356 E31.64701
G1 X5.411 Y-14.218 F6000.000
G1 X7.101 Y-7.911 E31.98815 F3000.000
G1 X14.460 Y-5.939 E32.38615
G1 X17.555 Y-9.035 E32.61484
G1 X17.980 Y1.509 E33.16612
G1 X15.987 Y0.975 E33.27393
G1 X14.297 Y-5.333 E33.61507
G1 X6.939 Y-7.304 E34.01307
G1 X2.322 Y-2.687 E34.35422
G1 X-5.037 Y-4.659 E34.75222
G1 X-6.727 Y-10.966 E35.09336
G1 X-11.589 Y-12.269 E35.35633
G1 X-11.502 Y-12.896 E35.38941
G1 X-6.564 Y-11.573 E35.65650
G1 X-1.947 Y-16.190 E35.99764
G1 X5.411 Y-14.218 E36.39564
G1 X2.159 Y-2.080 F6000.000
G1 X3.849 Y4.227 E36.73678 F3000.000
G1 X11.207 Y6.199 E37.13478
G1 X15.825 Y1.582 E37.47592
G1 X18.005 Y2.166 E37.59387
G1 X18.469 Y14.649 E38.24652
G1 X12.735 Y13.113 E38.55669
G1 X11.045 Y6.806 E38.89783
G1 X3.686 Y4.834 E39.29583
G1 X-0.931 Y9.451 E39.63697
G1 X-8.289 Y7.480 E40.03497
G1 X-9.979 Y1.172 E40.37612
G1 X-13.322 Y0.277 E40.55694
G1 X-13.235 Y-0.351 E40.59002
G1 X-9.817 Y0.565 E40.77491
G1 X-5.199 Y-4.052 E41.11606
G1 X2.159 Y-2.080 E41.51406
G1 X-1.093 Y10.058 F6000.000
G1 X0.597 Y16.365 E41.85520 F3000.000
G1 X7.955 Y18.337 E42.25320
G1 X12.572 Y13.720 E42.59434
G1 X18.492 Y15.306 E42.91455
G1 X18.830 Y25.233 E43.43349
G1 X16.841 Y27.223 E43.58049
G1 X9.482 Y25.251 E43.97849
G1 X7.792 Y18.944 E44.31963
G1 X0.434 Y16.972 E44.71763
G1 X-4.183 Y21.589 E45.05877
G1 X-11.542 Y19.618 E45.45677
G1 X-13.232 Y13.311 E45.79791
G1 X-15.067 Y12.819 E45.89721
G1 X-14.980 Y12.192 E45.93029
G1 X-13.069 Y12.704 E46.03366
G1 X-8.452 Y8.086 E46.37480
G1 X-1.093 Y10.058 E46.77280
G1 X-4.346 Y22.196 F6000.000
G1 X-2.656 Y28.503 E47.11394 F3000.000
G1 X4.703 Y30.475 E47.51194
G1 X9.320 Y25.858 E47.85308
G1 X16.678 Y27.830 E48.25108
G1 X18.368 Y34.137 E48.59223
G1 X19.117 Y34.337 E48.63273
G1 X19.137 Y34.993 E48.66701
G1 X18.205 Y34.744 E48.71737
G1 X13.588 Y39.361 E49.05852
G1 X6.230 Y37.389 E49.45651
G1 X4.540 Y31.082 E49.79766
G1 X-2.818 Y29.110 E50.19566
G1 X-7.436 Y33.728 E50.53680
G1 X-14.794 Y31.756 E50.93480
G1 X-16.484 Y25.449 E51.27594
G1 X-16.813 Y25.361 E51.29371
G1 X-16.725 Y24.734 E51.32679
G1 X-16.321 Y24.842 E51.34863
G1 X-11.704 Y20.225 E51.68977
G1 X-4.346 Y22.196 E52.08777
G1 X-7.598 Y34.334 F6000.000
G1 X-5.908 Y40.642 E52.42892 F3000.000
G1 X1.450 Y42.613 E52.82691
G1 X6.067 Y37.996 E53.16806
G1 X13.426 Y39.968 E53.56606
G1 X14.142 Y42.641 E53.71062
G1 X1.688 Y44.716 E54.37023
G1 X1.287 Y43.220 E54.45115
