; generated by Slic3r 1.2.9 on 2016-07-14 at 19:14:32

; external perimeters extrusion width = 0.30mm
; perimeters extrusion width = 0.31mm
; infill extrusion width = 0.31mm
; solid infill extrusion width = 0.31mm
; top infill extrusion width = 0.31mm

M107
M104 S215 ; set temperature
G28 ; home all axes
G1 Z5 F5000 ; lift nozzle

M109 S215 ; wait for temperature to be reached
G21 ; set units to millimeters
G90 ; use absolute coordinates
M82 ; use absolute distances for extrusion
G92 E0
G1 E-2.00000 F2400.00000
G92 E0
G1 Z0.100 F7800.000
G1 X0.000 Y36.179 F7800.000
G1 E2.00000 F2400.00000
G1 X-56.113 Y36.179 E2.56692 F1800.000
G1 X-58.291 Y35.782 E2.58929
G1 X-60.190 Y34.642 E2.61166
G1 X-61.565 Y32.907 E2.63403
G1 X-62.291 Y30.000 E2.66431
G1 X-62.291 Y-30.000 E3.27050
G1 X-61.894 Y-32.178 E3.29288
G1 X-60.755 Y-34.077 E3.31525
G1 X-59.019 Y-35.452 E3.33762
G1 X-56.113 Y-36.179 E3.36789
G1 X53.887 Y-36.179 E4.47925
G1 X56.066 Y-35.782 E4.50162
G1 X57.964 Y-34.642 E4.52399 F1800.000
G1 X59.749 Y-31.954 E4.55660
G1 X61.973 Y-25.280 E4.62767
G1 X62.290 Y-23.222 E4.64870
G1 X61.462 Y25.914 E5.14521
G1 X61.146 Y27.764 E5.16417
G1 X59.749 Y31.954 E5.20880
G1 X58.684 Y33.895 E5.23117
G1 X57.002 Y35.336 E5.25354
G1 X53.887 Y36.179 E5.28614
G1 X0.045 Y36.179 E5.83013
G1 F6240
G1 X-5.155 Y36.179 E3.93013
G1 E3.83013 F2400.00000
G92 E0
G1 X50.858 Y29.543 F7800.000
G1 E2.00000 F2400.00000
G1 X-55.478 Y29.543 E3.07435 F1800.000
G1 X-53.646 Y24.045 E3.13291
G1 X-46.990 Y24.677 E3.20045
G1 X-38.288 Y25.424 E3.28870 F1800.000
G1 X-29.685 Y26.070 E3.37586
G1 X-24.006 Y26.442 E3.43336
G1 X-15.578 Y26.912 E3.51864
G1 X-10.019 Y27.164 E3.57486
G1 X-4.511 Y27.368 E3.63056
G1 X3.653 Y27.583 E3.71307
G1 X9.031 Y27.665 E3.76740
G1 X16.991 Y27.697 E3.84782
G1 X22.228 Y27.658 E3.90074
G1 X29.972 Y27.511 E3.97899
G1 X35.061 Y27.354 E4.03044
G1 X42.578 Y27.037 E4.10644
G1 X49.950 Y26.626 E4.18104
G1 X54.635 Y26.312 E4.22849
G1 X53.558 Y29.543 E4.26290
G1 X50.903 Y29.543 E4.28972
G1 X50.903 Y29.721 F7800.000
G1 X-55.726 Y29.721 E5.36703 F1800.000
G1 X-53.770 Y23.853 E5.42952
G1 X-46.974 Y24.500 E5.49849
G1 X-38.274 Y25.246 E5.58672 F1800.000
G1 X-29.672 Y25.892 E5.67386
G1 X-23.995 Y26.264 E5.73135
G1 X-15.569 Y26.733 E5.81661
G1 X-10.012 Y26.986 E5.87281
G1 X-4.505 Y27.190 E5.92849
G1 X3.657 Y27.404 E6.01098
G1 X9.032 Y27.486 E6.06530
G1 X16.990 Y27.518 E6.14570
G1 X22.225 Y27.479 E6.19859
G1 X29.967 Y27.332 E6.27682
G1 X35.055 Y27.176 E6.32825
G1 X42.569 Y26.858 E6.40423
G1 X49.939 Y26.448 E6.47881
G1 X54.889 Y26.116 E6.52893
G1 X53.687 Y29.721 E6.56733
G1 X50.948 Y29.721 E6.59500
G1 X50.948 Y29.900 F7800.000
G1 X-55.974 Y29.900 E7.67526 F1800.000
G1 X-53.895 Y23.662 E7.74169
G1 X-46.958 Y24.322 E7.81209
G1 X-38.260 Y25.068 E7.90030 F1800.000
G1 X-29.660 Y25.714 E7.98743
G1 X-23.984 Y26.086 E8.04489
G1 X-15.560 Y26.555 E8.13014
G1 X-10.004 Y26.808 E8.18632
G1 X-4.499 Y27.011 E8.24198
G1 X3.661 Y27.226 E8.32445
G1 X9.034 Y27.308 E8.37875
G1 X16.990 Y27.340 E8.45913
G1 X22.223 Y27.301 E8.51200
G1 X29.963 Y27.154 E8.59021
G1 X35.048 Y26.997 E8.64162
G1 X42.560 Y26.680 E8.71758
G1 X49.928 Y26.270 E8.79213
G1 X55.142 Y25.920 E8.84493
G1 X53.815 Y29.900 E8.88732
G1 X50.993 Y29.900 E8.91583
G1 X50.798 Y29.640 F7800.000
G1 X51.779 Y27.806 F7800.000
G1 X51.779 Y29.355 E8.93149 F1800.000
G1 X51.528 Y29.355 E8.93402
G1 X51.528 Y27.806 E8.94967
G1 X49.823 Y26.821 E8.96956
G1 X53.963 Y26.545 E9.01148
G1 X51.779 Y27.806 E9.03695
G1 X54.359 Y26.546 F7800.000
G1 X54.316 Y26.521 E9.03745 F1800.000
G1 X54.368 Y26.518 E9.03798
G1 X54.359 Y26.546 E9.03828
G1 X46.767 Y27.806 F7800.000
G1 X46.767 Y29.355 E9.05394 F1800.000
G1 X46.516 Y29.355 E9.05647
G1 X46.516 Y27.806 E9.07212
G1 X45.252 Y27.076 E9.08687
G1 X48.328 Y26.905 E9.11800
G1 X46.767 Y27.806 E9.13620
G1 X41.754 Y27.806 F7800.000
G1 X41.754 Y29.355 E9.15186 F1800.000
G1 X41.504 Y29.355 E9.15439
G1 X41.504 Y27.806 E9.17004
G1 X40.639 Y27.307 E9.18013
G1 X42.780 Y27.213 E9.20178
G1 X41.754 Y27.806 E9.21375
G1 X36.742 Y27.806 F7800.000
G1 X36.742 Y29.355 E9.22941 F1800.000
G1 X36.491 Y29.355 E9.23194
G1 X36.491 Y27.806 E9.24759
G1 X35.969 Y27.504 E9.25369
G1 X37.367 Y27.445 E9.26783
G1 X36.742 Y27.806 E9.27512
G1 X31.730 Y27.806 F7800.000
G1 X31.730 Y29.355 E9.29078 F1800.000
G1 X31.479 Y29.355 E9.29331
G1 X31.479 Y27.806 E9.30896
G1 X31.226 Y27.660 E9.31191
G1 X32.025 Y27.635 E9.31998
G1 X31.730 Y27.806 E9.32342
G1 X26.717 Y27.806 F7800.000
G1 X26.717 Y29.355 E9.33908 F1800.000
G1 X26.467 Y29.355 E9.34161
G1 X26.467 Y27.806 E9.35726
G1 X26.398 Y27.766 E9.35806
G1 X26.799 Y27.759 E9.36211
G1 X26.717 Y27.806 E9.36306
G1 X21.705 Y29.355 F7800.000
G1 X21.454 Y29.355 E9.36559 F1800.000
G1 X21.454 Y27.851 E9.38079
G1 X21.705 Y27.849 E9.38332
G1 X21.705 Y29.355 E9.39853
G1 X16.692 Y27.883 F7800.000
G1 X16.692 Y29.355 E9.41340 F1800.000
G1 X16.442 Y29.355 E9.41593
G1 X16.442 Y27.882 E9.43082
G1 X16.692 Y27.883 E9.43335
G1 X11.680 Y27.863 F7800.000
G1 X11.680 Y29.355 E9.44842 F1800.000
G1 X11.429 Y29.355 E9.45095
G1 X11.429 Y27.862 E9.46604
G1 X11.680 Y27.863 E9.46857
G1 X6.668 Y27.817 F7800.000
G1 X6.668 Y29.355 E9.48411 F1800.000
G1 X6.417 Y29.355 E9.48664
G1 X6.417 Y27.813 E9.50223
G1 X6.668 Y27.817 E9.50476
G1 X1.800 Y27.722 F7800.000
G1 X1.655 Y27.806 E9.50645 F1800.000
G1 X1.655 Y29.355 E9.52210
G1 X1.405 Y29.355 E9.52464
G1 X1.405 Y27.806 E9.54029
G1 X1.234 Y27.707 E9.54228
G1 X1.800 Y27.722 E9.54801
G1 X-2.994 Y27.596 F7800.000
G1 X-3.357 Y27.806 E9.55224 F1800.000
G1 X-3.357 Y29.355 E9.56790
G1 X-3.608 Y29.355 E9.57043
G1 X-3.608 Y27.806 E9.58608
G1 X-4.018 Y27.569 E9.59086
G1 X-2.994 Y27.596 E9.60121
G1 X-7.731 Y27.437 F7800.000
G1 X-8.370 Y27.806 E9.60866 F1800.000
G1 X-8.370 Y29.355 E9.62431
G1 X-8.620 Y29.355 E9.62684
G1 X-8.620 Y27.806 E9.64250
G1 X-9.364 Y27.377 E9.65117
G1 X-7.731 Y27.437 E9.66767
G1 X-12.408 Y27.244 F7800.000
G1 X-13.382 Y27.806 E9.67903 F1800.000
G1 X-13.382 Y29.355 E9.69468
G1 X-13.633 Y29.355 E9.69722
G1 X-13.633 Y27.806 E9.71287
G1 X-14.794 Y27.135 E9.72642
G1 X-12.408 Y27.244 E9.75054
G1 X-17.031 Y27.019 F7800.000
G1 X-18.394 Y27.806 E9.76645 F1800.000
G1 X-18.394 Y29.355 E9.78210
G1 X-18.645 Y29.355 E9.78463
G1 X-18.645 Y27.806 E9.80029
G1 X-20.326 Y26.835 E9.81990
G1 X-17.031 Y27.019 E9.85324
G1 X-24.017 Y26.630 F7800.000
G1 X-21.603 Y26.764 E9.87767 F1800.000
G1 X-23.407 Y27.806 E9.89872
G1 X-23.407 Y29.355 E9.91437
G1 X-23.657 Y29.355 E9.91690
G1 X-23.657 Y27.806 E9.93256
G1 X-25.909 Y26.506 E9.95883
G1 X-24.017 Y26.630 E9.97799
G1 X-29.698 Y26.257 F7800.000
G1 X-26.164 Y26.489 E10.01378 F1800.000
G1 X-26.164 Y26.503 E10.01392
G1 X-28.419 Y27.806 E10.04024
G1 X-28.419 Y29.355 E10.05589
G1 X-28.670 Y29.355 E10.05842
G1 X-28.670 Y27.806 E10.07408
G1 X-30.925 Y26.503 E10.10039
G1 X-30.925 Y26.165 E10.10381
G1 X-29.698 Y26.257 E10.11625
G1 X-31.176 Y26.146 F7800.000
G1 X-31.176 Y26.503 E10.11985 F1800.000
G1 X-33.432 Y27.806 E10.14617
G1 X-33.432 Y29.355 E10.16182
G1 X-33.682 Y29.355 E10.16435
G1 X-33.682 Y27.806 E10.18001
G1 X-35.938 Y26.503 E10.20632
G1 X-35.938 Y25.789 E10.21354
G1 X-31.176 Y26.146 E10.26179
G1 X-38.303 Y25.612 F7800.000
G1 X-36.188 Y25.770 E10.28321 F1800.000
G1 X-36.188 Y26.503 E10.29062
G1 X-38.444 Y27.806 E10.31693
G1 X-38.444 Y29.355 E10.33259
G1 X-38.695 Y29.355 E10.33512
G1 X-38.695 Y27.806 E10.35077
G1 X-40.950 Y26.503 E10.37709
G1 X-40.950 Y25.384 E10.38840
G1 X-38.303 Y25.612 E10.41524
G1 X-41.201 Y25.363 F7800.000
G1 X-41.201 Y26.503 E10.42676 F1800.000
G1 X-43.456 Y27.806 E10.45307
G1 X-43.456 Y29.355 E10.46873
G1 X-43.707 Y29.355 E10.47126
G1 X-43.707 Y27.806 E10.48691
G1 X-45.962 Y26.503 E10.51323
G1 X-45.962 Y24.954 E10.52888
G1 X-41.201 Y25.363 E10.57717
G1 X-47.007 Y24.864 F7800.000
G1 X-46.213 Y24.933 E10.58522 F1800.000
G1 X-46.213 Y26.503 E10.60109
G1 X-48.469 Y27.806 E10.62741
G1 X-48.469 Y29.355 E10.64306
G1 X-48.719 Y29.355 E10.64559
G1 X-48.719 Y27.806 E10.66125
G1 X-50.975 Y26.503 E10.68756
G1 X-50.975 Y24.487 E10.70793
G1 X-47.007 Y24.864 E10.74820
G1 X-51.225 Y24.463 F7800.000
G1 X-51.225 Y26.503 E10.76881 F1800.000
G1 X-53.481 Y27.806 E10.79512
G1 X-53.481 Y29.355 E10.81078
G1 X-53.732 Y29.355 E10.81331
G1 X-53.732 Y27.806 E10.82897
G1 X-54.545 Y27.336 E10.83845
G1 X-53.515 Y24.246 E10.87137
G1 X-51.225 Y24.463 E10.89460
G1 F6240
G1 X-53.515 Y24.246 E10.05439
G1 F6240
G1 X-54.432 Y26.997 E8.99460
G1 E8.89460 F2400.00000
G92 E0
G1 X-21.158 Y26.154 F7800.000
G1 X-8.950 Y1.269 F7800.000
G1 X-2.269 Y1.387 F7800.000
G1 X1.573 Y1.443 F7800.000
G1 X3.587 Y1.468 F7800.000
G1 X3.669 Y-24.182 F7800.000
G1 X28.318 Y-29.543 F7800.000
G1 E2.00000 F2400.00000
G1 X53.558 Y-29.543 E2.25500 F1800.000
G1 X55.472 Y-23.802 E2.31614
G1 X48.601 Y-24.004 E2.38558 F1800.000
G1 X43.250 Y-24.138 E2.43966
G1 X32.305 Y-24.359 E2.55026
G1 X21.055 Y-24.518 E2.66394
G1 X6.607 Y-24.628 E2.80991
G1 X-8.215 Y-24.650 E2.95967
G1 X-23.351 Y-24.590 E3.11259
G1 X-38.737 Y-24.446 E3.26805
G1 X-53.708 Y-24.233 E3.41932
G1 X-55.478 Y-29.543 E3.47587
G1 X28.273 Y-29.543 E4.32204
G1 X28.273 Y-29.721 F7800.000
G1 X53.687 Y-29.721 E4.57880 F1800.000
G1 X55.722 Y-23.616 E4.64382
G1 X48.597 Y-23.825 E4.71584 F1800.000
G1 X43.246 Y-23.960 E4.76991
G1 X32.302 Y-24.181 E4.88051
G1 X21.053 Y-24.339 E4.99417
G1 X6.606 Y-24.450 E5.14013
G1 X-8.215 Y-24.472 E5.28987
G1 X-23.350 Y-24.411 E5.44279
G1 X-38.735 Y-24.267 E5.59824
G1 X-53.836 Y-24.052 E5.75083
G1 X-55.726 Y-29.721 E5.81120
G1 X28.228 Y-29.721 E6.65942
G1 X28.228 Y-29.900 F7800.000
G1 X53.815 Y-29.900 E6.91793 F1800.000
G1 X53.841 Y-29.824 E6.91874
G1 X55.972 Y-23.430 E6.98683 F1800.000
G1 X48.592 Y-23.647 E7.06142
G1 X43.242 Y-23.781 E7.11549
G1 X32.299 Y-24.002 E7.22608
G1 X21.051 Y-24.161 E7.33973
G1 X6.605 Y-24.271 E7.48568
G1 X-8.215 Y-24.293 E7.63541
G1 X-23.348 Y-24.232 E7.78831
G1 X-38.733 Y-24.089 E7.94375
G1 X-53.964 Y-23.872 E8.09766
G1 X-55.974 Y-29.900 E8.16186
G1 X28.183 Y-29.900 E9.01212
G1 X28.378 Y-29.640 F7800.000
G1 X28.973 Y-28.625 F7800.000
G1 X27.709 Y-29.355 E9.02687 F1800.000
G1 X25.475 Y-29.355 E9.04944
G1 X24.211 Y-28.625 E9.06418
G1 X24.211 Y-25.587 E9.09488
G1 X25.854 Y-24.638 E9.11405
G1 X27.294 Y-24.618 E9.12860
G1 X28.973 Y-25.587 E9.14818
G1 X28.973 Y-28.625 E9.17888
G1 X23.960 Y-28.625 F7800.000
G1 X22.696 Y-29.355 E9.19363 F1800.000
G1 X20.463 Y-29.355 E9.21620
G1 X19.199 Y-28.625 E9.23095
G1 X19.199 Y-25.587 E9.26165
G1 X20.721 Y-24.708 E9.27940
G1 X22.401 Y-24.686 E9.29638
G1 X23.960 Y-25.587 E9.31457
G1 X23.960 Y-28.625 E9.34527
G1 X18.948 Y-28.625 F7800.000
G1 X17.684 Y-29.355 E9.36002 F1800.000
G1 X15.450 Y-29.355 E9.38259
G1 X14.186 Y-28.625 E9.39733
G1 X14.186 Y-25.587 E9.42803
G1 X15.641 Y-24.747 E9.44501
G1 X17.469 Y-24.733 E9.46347
G1 X18.948 Y-25.587 E9.48073
G1 X18.948 Y-28.625 E9.51143
G1 X13.936 Y-28.625 F7800.000
G1 X12.672 Y-29.355 E9.52617 F1800.000
G1 X10.438 Y-29.355 E9.54874
G1 X9.174 Y-28.625 E9.56349
G1 X9.174 Y-25.587 E9.59419
G1 X10.561 Y-24.786 E9.61038
G1 X12.522 Y-24.771 E9.63019
G1 X13.936 Y-25.587 E9.64668
G1 X13.936 Y-28.625 E9.67738
G1 X8.923 Y-28.625 F7800.000
G1 X7.659 Y-29.355 E9.69212 F1800.000
G1 X5.425 Y-29.355 E9.71469
G1 X4.161 Y-28.625 E9.72944
G1 X4.161 Y-25.587 E9.76014
G1 X5.494 Y-24.818 E9.77568
G1 X7.575 Y-24.809 E9.79671
G1 X8.923 Y-25.587 E9.81244
G1 X8.923 Y-28.625 E9.84314
G1 X3.911 Y-28.625 F7800.000
G1 X2.647 Y-29.355 E9.85788 F1800.000
G1 X0.413 Y-29.355 E9.88045
G1 X-0.851 Y-28.625 E9.89520
G1 X-0.851 Y-25.587 E9.92590
G1 X0.468 Y-24.825 E9.94129
G1 X2.586 Y-24.822 E9.96268
G1 X3.911 Y-25.587 E9.97814
G1 X3.911 Y-28.625 E10.00884
G1 X-1.102 Y-28.625 F7800.000
G1 X-2.366 Y-29.355 E10.02358 F1800.000
G1 X-4.599 Y-29.355 E10.04615
G1 X-5.863 Y-28.625 E10.06090
G1 X-5.863 Y-25.587 E10.09160
G1 X-4.557 Y-24.833 E10.10684
G1 X-2.413 Y-24.829 E10.12850
G1 X-1.102 Y-25.587 E10.14380
G1 X-1.102 Y-28.625 E10.17450
G1 X-6.114 Y-28.625 F7800.000
G1 X-7.378 Y-29.355 E10.18925 F1800.000
G1 X-9.612 Y-29.355 E10.21182
G1 X-10.876 Y-28.625 E10.22656
G1 X-10.876 Y-25.587 E10.25726
G1 X-9.569 Y-24.833 E10.27250
G1 X-7.413 Y-24.837 E10.29429
G1 X-6.114 Y-25.587 E10.30944
G1 X-6.114 Y-28.625 E10.34014
G1 X-11.126 Y-28.625 F7800.000
G1 X-12.390 Y-29.355 E10.35489 F1800.000
G1 X-14.624 Y-29.355 E10.37746
G1 X-15.888 Y-28.625 E10.39220
G1 X-15.888 Y-25.587 E10.42290
G1 X-14.547 Y-24.813 E10.43855
G1 X-12.453 Y-24.821 E10.45971
G1 X-11.126 Y-25.587 E10.47518
G1 X-11.126 Y-28.625 E10.50588
G1 X-16.139 Y-28.625 F7800.000
G1 X-17.403 Y-29.355 E10.52063 F1800.000
G1 X-19.637 Y-29.355 E10.54320
G1 X-20.901 Y-28.625 E10.55794
G1 X-20.901 Y-25.587 E10.58864
G1 X-19.525 Y-24.793 E10.60469
G1 X-17.500 Y-24.801 E10.62515
G1 X-16.139 Y-25.587 E10.64103
G1 X-16.139 Y-28.625 E10.67173
G1 X-21.151 Y-28.625 F7800.000
G1 X-22.415 Y-29.355 E10.68647 F1800.000
G1 X-24.649 Y-29.355 E10.70904
G1 X-25.913 Y-28.625 E10.72379
G1 X-25.913 Y-25.587 E10.75449
G1 X-24.492 Y-24.767 E10.77106
G1 X-22.548 Y-24.781 E10.79071
G1 X-21.151 Y-25.587 E10.80700
G1 X-21.151 Y-28.625 E10.83770
G1 X-26.164 Y-28.625 F7800.000
G1 X-27.427 Y-29.355 E10.85245 F1800.000
G1 X-29.661 Y-29.355 E10.87502
G1 X-30.925 Y-28.625 E10.88976
G1 X-30.925 Y-25.587 E10.92046
G1 X-29.425 Y-24.721 E10.93797
G1 X-27.635 Y-24.737 E10.95605
G1 X-26.164 Y-25.587 E10.97322
G1 X-26.164 Y-28.625 E11.00392
G1 X-31.176 Y-28.625 F7800.000
G1 X-32.440 Y-29.355 E11.01866 F1800.000
G1 X-34.674 Y-29.355 E11.04123
G1 X-35.938 Y-28.625 E11.05598
G1 X-35.938 Y-25.587 E11.08668
G1 X-34.357 Y-24.674 E11.10511
G1 X-32.730 Y-24.690 E11.12156
G1 X-31.176 Y-25.587 E11.13969
G1 X-31.176 Y-28.625 E11.17039
G1 X-36.188 Y-28.625 F7800.000
G1 X-37.452 Y-29.355 E11.18513 F1800.000
G1 X-39.686 Y-29.355 E11.20770
G1 X-40.950 Y-28.625 E11.22245
G1 X-40.950 Y-25.587 E11.25315
G1 X-39.286 Y-24.626 E11.27257
G1 X-37.825 Y-24.642 E11.28733
G1 X-36.188 Y-25.587 E11.30642
G1 X-36.188 Y-28.625 E11.33712
G1 X-41.201 Y-28.625 F7800.000
G1 X-42.465 Y-29.355 E11.35186 F1800.000
G1 X-44.699 Y-29.355 E11.37443
G1 X-45.962 Y-28.625 E11.38918
G1 X-45.962 Y-25.587 E11.41988
G1 X-44.177 Y-24.556 E11.44070
G1 X-42.956 Y-24.574 E11.45305
G1 X-41.201 Y-25.587 E11.47352
G1 X-41.201 Y-28.625 E11.50422
G1 X-46.213 Y-28.625 F7800.000
G1 X-47.477 Y-29.355 E11.51897 F1800.000
G1 X-49.711 Y-29.355 E11.54154
G1 X-50.975 Y-28.625 E11.55628
G1 X-50.975 Y-25.587 E11.58698
G1 X-49.069 Y-24.487 E11.60921
G1 X-48.095 Y-24.500 E11.61906
G1 X-46.213 Y-25.587 E11.64101
G1 X-46.213 Y-28.625 E11.67171
G1 X-51.225 Y-28.625 F7800.000
G1 X-52.489 Y-29.355 E11.68646 F1800.000
G1 X-54.723 Y-29.355 E11.70903
G1 X-55.138 Y-29.116 E11.71386
G1 X-53.574 Y-24.422 E11.76385
G1 X-53.234 Y-24.427 E11.76728
G1 X-51.225 Y-25.587 E11.79071
G1 X-51.225 Y-28.625 E11.82141
G1 X33.985 Y-28.625 F7800.000
G1 X32.721 Y-29.355 E11.83616 F1800.000
G1 X30.487 Y-29.355 E11.85873
G1 X29.223 Y-28.625 E11.87347
G1 X29.223 Y-25.587 E11.90417
G1 X30.992 Y-24.566 E11.92480
G1 X32.187 Y-24.549 E11.93688
G1 X33.985 Y-25.587 E11.95786
G1 X33.985 Y-28.625 E11.98856
G1 X38.998 Y-28.625 F7800.000
G1 X37.734 Y-29.355 E12.00330 F1800.000
G1 X35.500 Y-29.355 E12.02587
G1 X34.236 Y-28.625 E12.04062
G1 X34.236 Y-25.587 E12.07132
G1 X36.172 Y-24.469 E12.09390
G1 X37.032 Y-24.452 E12.10259
G1 X38.998 Y-25.587 E12.12553
G1 X38.998 Y-28.625 E12.15623
G1 X44.010 Y-28.625 F7800.000
G1 X42.746 Y-29.355 E12.17097 F1800.000
G1 X40.512 Y-29.355 E12.19354
G1 X39.248 Y-28.625 E12.20829
G1 X39.248 Y-25.587 E12.23899
G1 X41.366 Y-24.364 E12.26369
G1 X41.874 Y-24.354 E12.26883
G1 X44.010 Y-25.587 E12.29374
G1 X44.010 Y-28.625 E12.32444
G1 X49.022 Y-28.625 F7800.000
G1 X47.758 Y-29.355 E12.33919 F1800.000
G1 X45.524 Y-29.355 E12.36176
G1 X44.261 Y-28.625 E12.37650
G1 X44.261 Y-25.587 E12.40720
G1 X46.516 Y-24.285 E12.43352
G1 X46.516 Y-24.244 E12.43393
G1 X46.767 Y-24.238 E12.43646
G1 X46.767 Y-24.285 E12.43693
G1 X49.022 Y-25.587 E12.46325
G1 X49.022 Y-28.625 E12.49395
G1 X53.578 Y-28.889 F7800.000
G1 X52.771 Y-29.355 E12.50336 F1800.000
G1 X50.537 Y-29.355 E12.52593
G1 X49.273 Y-28.625 E12.54068
