; generated by Slic3r 1.2.9 on 2016-07-17 at 16:36:53

; external perimeters extrusion width = 0.40mm
; perimeters extrusion width = 0.67mm
; infill extrusion width = 0.67mm
; solid infill extrusion width = 0.67mm
; top infill extrusion width = 0.67mm

M107
M104 S215 ; set temperature
G28 ; home all axes
G1 Y-60 Z5 F5000 ; lift nozzle


M109 S215 ; wait for temperature to be reached
G21 ; set units to millimeters
G90 ; use absolute coordinates
M82 ; use absolute distances for extrusion
G92 E0
G1 E-3.00000 F2400.00000
G92 E0
G1 Z0.300 F6000.000
G1 X24.156 Y49.902 F6000.000
G1 E3.00000 F2400.00000
G1 X-26.797 Y49.474 E5.66212 F1800.000
G1 X-27.486 Y49.414 E5.69827
G1 X-30.726 Y48.874 E5.86990
G1 X-32.464 Y48.184 E5.96757
G1 X-33.760 Y46.837 E6.06524
G1 X-34.419 Y44.516 E6.19130
G1 X-34.419 Y-45.484 E10.89334
G1 X-34.023 Y-47.312 E10.99101
G1 X-32.908 Y-48.812 E11.08869
G1 X-31.272 Y-49.716 E11.18636
G1 X-30.000 Y-49.903 E11.25351
G1 X30.000 Y-49.903 E14.38820
G1 X31.827 Y-49.508 E14.48588
G1 X33.327 Y-48.392 E14.58355
G1 X34.232 Y-46.756 E14.68122
G1 X34.419 Y-45.484 E14.74838
G1 X34.419 Y44.516 E19.45042
G1 X34.023 Y46.343 E19.54809
G1 X32.908 Y47.843 E19.64576
G1 X30.726 Y48.874 E19.77182
G1 X24.919 Y49.842 E20.07940
G1 X24.216 Y49.897 E20.11627
G1 F4800
G1 X18.216 Y49.848 E17.26627
G1 E17.11627 F2400.00000
G92 E0
G1 X24.768 Y44.802 F6000.000
G1 E3.00000 F2400.00000
G1 X24.728 Y33.426 E3.59436 F1800.000
G1 X24.662 Y24.248 E4.07386
G1 X24.566 Y14.989 E4.55762
G1 X24.394 Y2.540 E5.20808
G1 X24.232 Y-7.016 E5.70741
G1 X23.983 Y-19.446 E6.35696
G1 X23.687 Y-32.066 E7.01647
G1 X23.374 Y-43.795 E7.62946
G1 X29.423 Y-44.803 E7.94984
G1 X29.423 Y44.027 E12.59073
G1 X24.827 Y44.793 E12.83414
G1 X24.392 Y45.248 F6000.000
G1 X24.351 Y33.428 E13.32891 F1800.000
G1 X24.285 Y24.252 E13.71305
G1 X24.189 Y14.994 E14.10059
G1 X24.017 Y2.546 E14.62171
G1 X23.855 Y-7.009 E15.02174
G1 X23.606 Y-19.438 E15.54213
G1 X23.310 Y-32.056 E16.07050
G1 X22.988 Y-44.113 E16.57536
G1 X29.800 Y-45.248 E16.86445
G1 X29.800 Y44.346 E20.61490
G1 X24.451 Y45.238 E20.84188
G1 X24.572 Y44.890 F6000.000
G1 X28.962 Y43.636 F6000.000
G1 X28.962 Y42.823 E20.88438 F1800.000
G1 X27.986 Y43.799 E20.95651
G1 X28.962 Y43.636 E21.00821
G1 X28.962 Y33.937 F6000.000
G1 X28.962 Y33.048 E21.05463 F1800.000
G1 X27.873 Y34.138 E21.13511
G1 X25.189 Y33.419 E21.28026
G1 X25.227 Y44.259 E21.84661
G1 X26.920 Y43.977 E21.93626
G1 X28.962 Y41.934 E22.08717
G1 X28.962 Y36.989 E22.34554
G1 X28.317 Y34.582 E22.47573
G1 X28.962 Y33.937 E22.52338
G1 X28.962 Y8.410 F6000.000
G1 X28.070 Y8.171 E22.57160 F1800.000
G1 X24.975 Y11.266 E22.80028
G1 X25.083 Y20.380 E23.27648
G1 X28.962 Y21.420 E23.48630
G1 X28.962 Y8.410 E24.16599
G1 X28.962 Y-1.606 F6000.000
G1 X28.962 Y-2.495 E24.21241 F1800.000
G1 X25.492 Y0.976 E24.46881
G1 X24.825 Y0.797 E24.50486
G1 X24.963 Y10.390 E25.00610
G1 X27.626 Y7.727 E25.20285
G1 X25.936 Y1.420 E25.54399
G1 X28.962 Y-1.606 E25.76756
G1 X28.962 Y-24.114 F6000.000
G1 X25.689 Y-24.991 E25.94456 F1800.000
G1 X24.345 Y-23.647 E26.04386
G1 X24.587 Y-12.276 E26.63804
G1 X28.744 Y-11.163 E26.86288
G1 X28.962 Y-11.380 E26.87897
G1 X28.962 Y-24.114 E27.54424
G1 X25.245 Y-25.435 F6000.000
G1 X24.213 Y-29.286 E27.75250 F1800.000
G1 X24.325 Y-24.515 E28.00181
G1 X25.245 Y-25.435 E28.06978
G1 X28.962 Y-37.124 F6000.000
G1 X28.962 Y-44.259 E28.44257 F1800.000
G1 X26.831 Y-43.904 E28.55544
G1 X26.808 Y-43.880 E28.55717
G1 X28.498 Y-37.573 E28.89831
G1 X24.118 Y-33.194 E29.22189
G1 X24.141 Y-32.328 E29.26712
G1 X28.942 Y-37.129 E29.62181
G1 X28.962 Y-37.124 E29.62290
G1 F4800
G1 X28.942 Y-37.129 E29.61301
G1 F4800
G1 X24.714 Y-32.901 E26.77290
G1 E26.62290 F2400.00000
G92 E0
G1 X23.817 Y2.549 F6000.000
G1 X-0.328 Y12.207 F6000.000
G1 X-0.611 Y20.244 F6000.000
G1 X-0.692 Y22.722 F6000.000
G1 X-0.999 Y23.006 F6000.000
G1 X-25.410 Y21.220 F6000.000
G1 X-27.309 Y44.379 F6000.000
G1 E3.00000 F2400.00000
G1 X-29.423 Y44.027 E3.11196 F1800.000
G1 X-29.423 Y-44.803 E7.75285
G1 X-19.067 Y-43.077 E8.30133
G1 X-20.516 Y-31.981 E8.88598
G1 X-21.272 Y-25.930 E9.20457
G1 X-21.996 Y-19.912 E9.52122
G1 X-22.686 Y-13.929 E9.83589
G1 X-23.339 Y-7.981 E10.14852
G1 X-23.953 Y-2.069 E10.45904
G1 X-24.526 Y3.805 E10.76737
G1 X-25.057 Y9.639 E11.07341
G1 X-25.544 Y15.431 E11.37710
G1 X-26.190 Y24.035 E11.82788
G1 X-26.562 Y29.715 E12.12526
G1 X-26.887 Y35.347 E12.42000
G1 X-27.164 Y40.931 E12.71207
G1 X-27.306 Y44.319 E12.88926
G1 X-26.950 Y44.821 F6000.000
G1 X-29.800 Y44.346 E13.01021 F1800.000
G1 X-29.800 Y-45.248 E16.76066
G1 X-18.646 Y-43.389 E17.23400
G1 X-20.142 Y-31.933 E17.71764
G1 X-20.898 Y-25.884 E17.97283
G1 X-21.622 Y-19.868 E18.22647
G1 X-22.311 Y-13.887 E18.47851
G1 X-22.964 Y-7.941 E18.72891
G1 X-23.578 Y-2.031 E18.97761
G1 X-24.151 Y3.840 E19.22455
G1 X-24.681 Y9.671 E19.46966
G1 X-25.168 Y15.461 E19.71286
G1 X-25.813 Y24.061 E20.07389
G1 X-26.186 Y29.738 E20.31203
G1 X-26.510 Y35.367 E20.54806
G1 X-26.787 Y40.948 E20.78195
G1 X-26.947 Y44.761 E20.94173
G1 X-27.269 Y44.580 F6000.000
G1 X-27.747 Y43.834 F6000.000
G1 X-28.962 Y39.301 E21.18693 F1800.000
G1 X-28.962 Y43.636 E21.41342
G1 X-27.747 Y43.834 E21.47772
G1 X-27.431 Y37.016 F6000.000
G1 X-27.385 Y36.081 E21.52663 F1800.000
G1 X-28.962 Y37.658 E21.64316
G1 X-28.962 Y38.546 E21.68958
G1 X-27.431 Y37.016 E21.80269
G1 X-25.823 Y13.245 F6000.000
G1 X-28.962 Y12.404 E21.97248 F1800.000
G1 X-28.962 Y25.414 E22.65217
G1 X-26.780 Y25.998 E22.77018
G1 X-26.649 Y24.003 E22.87467
G1 X-26.004 Y15.394 E23.32567
G1 X-25.823 Y13.245 E23.43835
G1 X-23.797 Y-8.030 F6000.000
G1 X-23.425 Y-11.419 E23.61650 F1800.000
G1 X-28.250 Y-6.594 E23.97299
G1 X-26.560 Y-0.287 E24.31413
G1 X-28.962 Y2.115 E24.49160
G1 X-28.962 Y3.003 E24.53803
G1 X-26.116 Y0.157 E24.74833
G1 X-24.671 Y0.544 E24.82646
G1 X-23.797 Y-8.030 E25.27672
G1 X-22.275 Y-21.455 F6000.000
G1 X-22.153 Y-22.466 E25.32987 F1800.000
G1 X-25.442 Y-19.177 E25.57286
G1 X-28.962 Y-20.120 E25.76325
G1 X-28.962 Y-7.110 E26.44294
G1 X-28.694 Y-7.039 E26.45742
G1 X-23.316 Y-12.417 E26.85483
G1 X-24.998 Y-18.733 E27.19627
G1 X-22.275 Y-21.455 E27.39745
G1 X-21.318 Y-29.278 F6000.000
G1 X-21.030 Y-31.586 E27.51897 F1800.000
G1 X-21.745 Y-30.871 E27.57182
G1 X-21.318 Y-29.278 E27.65797
G1 X-19.582 Y-42.696 F6000.000
G1 X-26.533 Y-43.854 E28.02616 F1800.000
G1 X-28.962 Y-41.425 E28.20561
G1 X-28.962 Y-33.528 E28.61821
G1 X-28.941 Y-33.449 E28.62247
G1 X-28.962 Y-33.428 E28.62402
G1 X-28.962 Y-32.540 E28.67045
G1 X-28.497 Y-33.005 E28.70483
G1 X-22.189 Y-31.315 E29.04597
G1 X-20.899 Y-32.605 E29.14128
G1 X-19.582 Y-42.696 E29.67294
G1 X-27.626 Y-44.036 F6000.000
G1 X-28.962 Y-44.259 E29.74371 F1800.000
G1 X-28.962 Y-42.314 E29.84533
G1 X-27.295 Y-43.981 E29.96851
G1 X-27.626 Y-44.036 E29.98604
G1 F4800
G1 X-27.295 Y-43.981 E29.82664
G1 F4800
G1 X-28.962 Y-42.314 E28.70673
G1 F4800
G1 X-28.962 Y-44.259 E27.78286
G1 F4800
G1 X-27.626 Y-44.036 E27.13944
G1 E26.98604 F2400.00000
G92 E0
G1 Z0.500 F6000.000
G1 X24.882 Y44.666 F6000.000
G1 E3.00000 F2400.00000
G1 X24.844 Y33.675 E3.57422 F1200.000
G1 X24.778 Y24.497 E4.05375
G1 X24.681 Y15.238 E4.53752
G1 X24.509 Y2.789 E5.18800
G1 X24.350 Y-6.611 E5.67914
G1 X24.098 Y-19.199 E6.33692
G1 X23.803 Y-31.819 E6.99644
G1 X23.485 Y-43.696 E7.61720
G1 X29.307 Y-44.667 E7.92558
G1 X29.307 Y43.929 E12.55424
G1 X24.942 Y44.656 E12.78547
G1 X24.392 Y45.248 F6000.000
G1 X24.351 Y33.678 E13.12899 F600.000
G1 X24.285 Y24.502 E13.40146
G1 X24.189 Y15.244 E13.67634
G1 X24.017 Y2.796 E14.04597
G1 X23.857 Y-6.602 E14.32504
G1 X23.606 Y-19.188 E14.69882
G1 X23.310 Y-31.806 E15.07358
G1 X22.981 Y-44.112 E15.43908
G1 X29.800 Y-45.248 E15.64433
G1 X29.800 Y44.346 E18.30451
G1 X24.451 Y45.238 E18.46552
G1 X24.572 Y44.890 F6000.000
G1 X28.773 Y35.071 F6000.000
G1 X28.773 Y33.682 E18.53809 F3000.000
G1 X28.480 Y33.975 E18.55979
G1 X28.773 Y35.071 E18.61905
G1 X27.873 Y34.138 F6000.000
G1 X25.376 Y33.469 E18.75406 F3000.000
G1 X25.414 Y44.036 E19.30616
G1 X27.682 Y43.658 E19.42628
G1 X28.773 Y42.567 E19.50689
G1 X28.773 Y37.498 E19.77171
G1 X27.873 Y34.138 E19.95348
G1 X28.744 Y-11.163 F6000.000
G1 X24.772 Y-12.227 E20.16834 F3000.000
G1 X25.011 Y0.847 E20.85148
G1 X25.492 Y0.976 E20.87751
G1 X27.463 Y8.334 E21.27550
G1 X25.152 Y10.645 E21.44629
G1 X25.269 Y20.430 E21.95754
G1 X28.773 Y21.369 E22.14706
G1 X28.773 Y8.360 E22.82675
G1 X28.070 Y8.171 E22.86476
G1 X26.099 Y0.813 E23.26276
G1 X28.773 Y-1.862 E23.46037
G1 X28.773 Y-11.054 E23.94065
G1 X28.744 Y-11.163 E23.94650
G1 X25.083 Y-24.828 F6000.000
G1 X24.445 Y-27.207 E24.07519 F3000.000
G1 X24.514 Y-24.260 E24.22923
G1 X25.083 Y-24.828 E24.27123
G1 X28.773 Y-37.758 F6000.000
G1 X27.163 Y-43.768 E24.59627 F3000.000
G1 X26.540 Y-43.664 E24.62925
G1 X28.335 Y-36.966 E24.99152
G1 X24.307 Y-32.939 E25.28912
G1 X24.383 Y-29.867 E25.44961
G1 X25.689 Y-24.991 E25.71338
G1 X28.773 Y-24.164 E25.88018
G1 X28.773 Y-37.758 E26.59039
G1 F4800
G1 X28.773 Y-31.758 E23.74039
G1 E23.59039 F2400.00000
G92 E0
G1 X23.817 Y2.799 F6000.000
G1 X-0.328 Y12.457 F6000.000
G1 X-0.611 Y20.494 F6000.000
G1 X-0.684 Y22.732 F6000.000
G1 X-1.231 Y23.239 F6000.000
G1 X-25.410 Y21.470 F6000.000
G1 X-27.409 Y44.245 F6000.000
G1 E3.00000 F2400.00000
G1 X-29.307 Y43.929 E3.10054 F1200.000
G1 X-29.307 Y-44.667 E7.72921
G1 X-19.164 Y-42.976 E8.26647
G1 X-20.631 Y-31.745 E8.85820
G1 X-21.387 Y-25.694 E9.17682
G1 X-22.111 Y-19.676 E9.49351
G1 X-22.801 Y-13.692 E9.80821
G1 X-23.454 Y-7.743 E10.12087
G1 X-24.068 Y-1.830 E10.43142
G1 X-24.641 Y4.044 E10.73979
G1 X-25.172 Y9.879 E11.04588
G1 X-25.659 Y15.672 E11.34961
G1 X-26.305 Y24.277 E11.80044
G1 X-26.677 Y29.958 E12.09788
G1 X-27.002 Y35.591 E12.39267
G1 X-27.279 Y41.175 E12.68479
G1 X-27.406 Y44.185 E12.84219
G1 X-26.940 Y44.823 F6000.000
G1 X-29.800 Y44.346 E12.92827 F600.000
G1 X-29.800 Y-45.248 E15.58844
G1 X-18.614 Y-43.384 E15.92517
G1 X-20.142 Y-31.683 E16.27553
G1 X-20.898 Y-25.634 E16.45654
G1 X-21.622 Y-19.618 E16.63644
G1 X-22.311 Y-13.637 E16.81521
G1 X-22.964 Y-7.691 E16.99282
G1 X-23.578 Y-1.781 E17.16922
G1 X-24.151 Y4.090 E17.34438
G1 X-24.681 Y9.921 E17.51823
G1 X-25.168 Y15.711 E17.69073
G1 X-25.813 Y24.311 E17.94681
G1 X-26.186 Y29.988 E18.11572
G1 X-26.510 Y35.617 E18.28313
G1 X-26.787 Y41.198 E18.44903
G1 X-26.938 Y44.763 E18.55498
G1 X-27.259 Y44.581 F6000.000
G1 X-27.858 Y42.209 F6000.000
G1 X-28.773 Y38.792 E18.73981 F3000.000
G1 X-28.773 Y41.219 E18.86664
G1 X-28.140 Y43.582 E18.99443
G1 X-27.917 Y43.619 E19.00624
G1 X-27.858 Y42.209 E19.07999
G1 X-26.950 Y25.953 F6000.000
G1 X-28.773 Y25.464 E19.17861 F3000.000
G1 X-28.773 Y37.913 E19.82901
G1 X-27.594 Y36.734 E19.91615
G1 X-27.210 Y29.925 E20.27246
G1 X-26.950 Y25.953 E20.48042
G1 X-25.442 Y-19.177 F6000.000
G1 X-28.773 Y-20.070 E20.66061 F3000.000
G1 X-28.773 Y-7.060 E21.34029
G1 X-28.694 Y-7.039 E21.34457
G1 X-26.723 Y0.320 E21.74257
G1 X-28.773 Y2.370 E21.89408
G1 X-28.773 Y12.455 E22.42093
G1 X-25.987 Y13.201 E22.57161
G1 X-25.704 Y9.832 E22.74825
G1 X-25.173 Y3.994 E23.05452
G1 X-24.832 Y0.501 E23.23787
G1 X-26.116 Y0.157 E23.30730
G1 X-28.087 Y-7.201 E23.70529
G1 X-23.553 Y-11.736 E24.04033
G1 X-23.522 Y-12.013 E24.05491
G1 X-25.442 Y-19.177 E24.44238
G1 X-22.641 Y-19.738 F6000.000
G1 X-22.396 Y-21.779 E24.54975 F3000.000
G1 X-24.835 Y-19.339 E24.72996
G1 X-23.333 Y-13.735 E25.03308
G1 X-22.641 Y-19.738 E25.34878
G1 X-23.571 Y-43.169 F6000.000
G1 X-27.078 Y-43.754 E25.53455 F3000.000
G1 X-28.773 Y-42.058 E25.65980
G1 X-28.773 Y-34.037 E26.07886
G1 X-28.497 Y-33.005 E26.13470
G1 X-22.189 Y-31.315 E26.47584
G1 X-21.530 Y-28.855 E26.60892
G1 X-21.323 Y-30.510 E26.69609
G1 X-21.583 Y-31.478 E26.74842
G1 X-21.148 Y-31.913 E26.78055
G1 X-19.760 Y-42.534 E27.34018
G1 X-23.571 Y-43.169 E27.54200
G1 F4800
G1 X-19.760 Y-42.534 E25.70707
G1 F4800
G1 X-20.037 Y-40.415 E24.69200
G1 E24.54200 F2400.00000
G92 E0
G1 Z0.700 F6000.000
G1 X24.882 Y44.666 F6000.000
G1 E3.00000 F2400.00000
G1 X24.844 Y33.875 E3.56378 F1200.000
G1 X24.778 Y24.697 E4.04330
G1 X24.681 Y15.438 E4.52707
G1 X24.509 Y2.989 E5.17755
G1 X24.350 Y-6.411 E5.66869
G1 X24.098 Y-18.999 E6.32648
G1 X23.803 Y-31.619 E6.98600
G1 X23.479 Y-43.695 E7.61716
G1 X29.307 Y-44.667 E7.92584
G1 X29.307 Y43.929 E12.55450
G1 X24.941 Y44.657 E12.78575
G1 X24.391 Y45.248 F6000.000
G1 X24.351 Y33.878 E13.12333 F600.000
G1 X24.285 Y24.702 E13.39580
G1 X24.189 Y15.444 E13.67068
G1 X24.017 Y2.996 E14.04031
G1 X23.857 Y-6.402 E14.31938
G1 X23.606 Y-18.988 E14.69316
G1 X23.310 Y-31.606 E15.06792
G1 X22.975 Y-44.111 E15.43933
G1 X29.800 Y-45.248 E15.64475
G1 X29.800 Y44.346 E18.30493
G1 X24.451 Y45.238 E18.46595
G1 X24.571 Y44.890 F6000.000
G1 X28.317 Y34.582 F6000.000
G1 X25.377 Y33.794 E18.62495 F3000.000
G1 X25.414 Y44.036 E19.16004
G1 X27.682 Y43.658 E19.28019
G1 X28.773 Y42.567 E19.36079
G1 X28.773 Y36.285 E19.68904
G1 X28.317 Y34.582 E19.78112
G1 X28.773 Y21.695 F6000.000
G1 X25.271 Y20.756 E19.97057 F3000.000
G1 X25.373 Y33.143 E20.61772
G1 X28.480 Y33.975 E20.78577
G1 X28.773 Y33.682 E20.80746
G1 X28.773 Y21.695 E21.43372
G1 X28.773 Y8.685 F6000.000
G1 X27.463 Y8.334 E21.50456 F3000.000
G1 X25.149 Y10.648 E21.67555
G1 X25.264 Y20.104 E22.16959
G1 X28.773 Y21.044 E22.35940
G1 X28.773 Y8.685 E23.00511
G1 X28.773 Y8.034 F6000.000
G1 X28.773 Y-1.862 E23.52212 F3000.000
G1 X26.099 Y0.813 E23.71973
G1 X25.002 Y0.519 E23.77906
G1 X25.013 Y1.172 E23.81321
G1 X25.936 Y1.420 E23.86315
G1 X27.626 Y7.727 E24.20429
G1 X28.773 Y8.034 E24.26633
G1 X28.773 Y-11.480 F6000.000
G1 X24.761 Y-12.555 E24.48333 F3000.000
G1 X24.774 Y-11.901 E24.51750
G1 X28.773 Y-10.830 E24.73379
G1 X28.773 Y-11.480 E24.76777
G1 X25.245 Y-25.435 F6000.000
G1 X24.409 Y-28.557 E24.93661 F3000.000
G1 X24.510 Y-24.255 E25.16140
G1 X25.083 Y-24.828 E25.20374
G1 X28.773 Y-23.839 E25.40336
G1 X28.773 Y-24.490 E25.43734
G1 X25.245 Y-25.435 E25.62817
G1 X28.498 Y-37.573 F6000.000
G1 X26.852 Y-43.716 E25.96041 F3000.000
G1 X24.026 Y-43.245 E26.11009
G1 X24.302 Y-32.933 E26.64901
G1 X28.335 Y-36.966 E26.94700
G1 X28.773 Y-36.849 E26.97070
G1 X28.773 Y-37.499 E27.00469
G1 X28.498 Y-37.573 E27.01960
G1 F4800
G1 X28.773 Y-37.499 E26.88405
G1 F4800
G1 X28.773 Y-36.849 E26.57507
G1 F4800
G1 X28.335 Y-36.966 E26.35955
G1 F4800
G1 X25.075 Y-33.706 E24.16960
G1 E24.01960 F2400.00000
G92 E0
G1 X23.817 Y2.999 F6000.000
G1 X-0.328 Y12.657 F6000.000
G1 X-0.611 Y20.694 F6000.000
G1 X-0.678 Y22.740 F6000.000
G1 X-1.417 Y23.426 F6000.000
G1 X-25.410 Y21.670 F6000.000
G1 X-27.401 Y44.247 F6000.000
G1 E3.00000 F2400.00000
G1 X-29.307 Y43.929 E3.10096 F1200.000
G1 X-29.307 Y-44.667 E7.72963
G1 X-19.138 Y-42.972 E8.26826
G1 X-20.631 Y-31.545 E8.87031
G1 X-21.387 Y-25.494 E9.18893
G1 X-22.111 Y-19.476 E9.50562
G1 X-22.801 Y-13.492 E9.82032
G1 X-23.454 Y-7.543 E10.13298
G1 X-24.068 Y-1.630 E10.44353
G1 X-24.641 Y4.244 E10.75190
G1 X-25.172 Y10.079 E11.05798
G1 X-25.659 Y15.872 E11.36172
G1 X-26.305 Y24.477 E11.81255
G1 X-26.677 Y30.158 E12.10999
G1 X-27.002 Y35.791 E12.40478
G1 X-27.279 Y41.375 E12.69689
G1 X-27.399 Y44.187 E12.84391
G1 X-26.932 Y44.824 F6000.000
G1 X-29.800 Y44.346 E12.93022 F600.000
G1 X-29.800 Y-45.248 E15.59040
G1 X-18.588 Y-43.380 E15.92791
G1 X-20.142 Y-31.483 E16.28413
G1 X-20.898 Y-25.434 E16.46514
G1 X-21.622 Y-19.418 E16.64504
G1 X-22.311 Y-13.437 E16.82381
G1 X-22.964 Y-7.491 E17.00142
G1 X-23.578 Y-1.581 E17.17782
G1 X-24.151 Y4.290 E17.35298
G1 X-24.681 Y10.121 E17.52683
G1 X-25.168 Y15.911 E17.69933
G1 X-25.813 Y24.511 E17.95541
G1 X-26.186 Y30.188 E18.12432
G1 X-26.510 Y35.817 E18.29173
G1 X-26.787 Y41.398 E18.45763
G1 X-26.930 Y44.764 E18.55768
G1 X-27.251 Y44.583 F6000.000
G1 X-27.813 Y41.351 F6000.000
G1 X-27.583 Y36.724 E18.79971 F3000.000
G1 X-28.773 Y37.913 E18.88763
G1 X-28.773 Y40.005 E18.99693
G1 X-27.895 Y43.284 E19.17424
G1 X-27.813 Y41.351 E19.27532
G1 X-26.916 Y25.637 F6000.000
G1 X-28.773 Y25.139 E19.37577 F3000.000
G1 X-28.773 Y25.790 E19.40975
G1 X-26.958 Y26.276 E19.50793
G1 X-26.916 Y25.637 E19.54140
G1 X-25.944 Y12.887 F6000.000
G1 X-28.773 Y12.129 E19.69441 F3000.000
