; generated by Slic3r 1.2.9 on 2016-07-14 at 19:13:15

; external perimeters extrusion width = 0.30mm
; perimeters extrusion width = 0.31mm
; infill extrusion width = 0.31mm
; solid infill extrusion width = 0.31mm
; top infill extrusion width = 0.31mm

M107
M104 S215 ; set temperature
G28 ; home all axes
G1 Z5 F5000 ; lift nozzle

M109 S215 ; wait for temperature to be reached
G21 ; set units to millimeters
G90 ; use absolute coordinates
M82 ; use absolute distances for extrusion
G92 E0
G1 E-2.00000 F2400.00000
G92 E0
G1 Z0.100 F7800.000
G1 X4.665 Y-23.141 F7800.000
G1 E2.00000 F2400.00000
G1 X9.319 Y-22.171 E2.04802 F1800.000
G1 X12.773 Y-21.401 E2.08379
G1 X16.121 Y-20.610 E2.11854
G1 X19.402 Y-19.789 E2.15271
G1 X22.534 Y-18.958 E2.18544
G1 X25.555 Y-18.111 E2.21715
G1 X28.464 Y-17.246 E2.24781
G1 X32.565 Y-15.935 E2.29131
G1 X35.189 Y-15.032 E2.31935
G1 X37.699 Y-14.114 E2.34635
G1 X40.094 Y-13.181 E2.37232
G1 X42.440 Y-12.206 E2.39799
G1 X44.606 Y-11.244 E2.42193
G1 X45.646 Y-10.759 E2.43353
G1 X47.561 Y-9.819 E2.45508
G1 X49.522 Y-8.785 E2.47748
G1 X51.294 Y-7.775 E2.49807
G1 X52.956 Y-6.746 E2.51783
G1 X54.509 Y-5.693 E2.53678
G1 X55.939 Y-4.623 E2.55484
G1 X56.608 Y-4.083 E2.56351
G1 X57.727 Y-3.109 E2.57851
G1 X58.430 Y-2.446 E2.58827
G1 X58.977 Y-1.894 E2.59612
G1 X59.498 Y-1.337 E2.60383
G1 X60.001 Y-0.762 E2.61155
G1 X60.494 Y-0.153 E2.61946
G1 X60.971 Y0.496 E2.62760
G1 X61.230 Y0.881 E2.63228
G1 X61.650 Y1.573 E2.64046
G1 X62.045 Y2.335 E2.64914
G1 X62.260 Y2.825 E2.65454
G1 X62.598 Y3.779 E2.66477
G1 X62.696 Y4.131 E2.66846
G1 X62.848 Y4.842 E2.67581
G1 X62.901 Y5.188 E2.67934
G1 X62.970 Y5.988 E2.68746
G1 X62.978 Y6.324 E2.69085
G1 X62.938 Y7.163 E2.69934
G1 X62.900 Y7.495 E2.70272
G1 X62.748 Y8.317 E2.71116
G1 X62.664 Y8.646 E2.71459
G1 X62.417 Y9.403 E2.72263
G1 X62.287 Y9.728 E2.72617
G1 X61.975 Y10.389 E2.73356
G1 X61.802 Y10.707 E2.73722
G1 X61.463 Y11.259 E2.74376
G1 X61.244 Y11.576 E2.74765
G1 X60.907 Y12.019 E2.75327
G1 X60.325 Y12.690 E2.76225
G1 X59.728 Y13.285 E2.77077
G1 X59.116 Y13.824 E2.77900
G1 X58.490 Y14.321 E2.78707
G1 X57.849 Y14.784 E2.79507
G1 X57.187 Y15.224 E2.80310
G1 X56.506 Y15.644 E2.81118
G1 X55.805 Y16.048 E2.81936
G1 X54.451 Y16.764 E2.83483
G1 X52.749 Y17.571 E2.85387
G1 X51.145 Y18.256 E2.87149
G1 X50.242 Y18.615 E2.88130
G1 X48.251 Y19.348 E2.90274
G1 X46.226 Y20.021 E2.92430
G1 X45.167 Y20.349 E2.93550
G1 X43.023 Y20.968 E2.95805
G1 X40.615 Y21.604 E2.98321
G1 X36.918 Y22.480 E3.02159
G1 X34.206 Y23.061 E3.04961
G1 X30.016 Y23.872 E3.09274
G1 X26.989 Y24.403 E3.12379
G1 X23.875 Y24.907 E3.15565
G1 X18.999 Y25.622 E3.20545
G1 X15.535 Y26.082 E3.24075
G1 X10.154 Y26.730 E3.29551
G1 X6.413 Y27.139 E3.33353
G1 X0.575 Y27.716 E3.39280
G1 X-5.510 Y28.251 E3.45451
G1 X-11.895 Y28.748 E3.51922
G1 X-18.515 Y29.204 E3.58626
G1 X-25.382 Y29.618 E3.65577
G1 X-32.487 Y29.990 E3.72765
G1 X-42.313 Y30.425 E3.82702
G1 X-49.924 Y30.706 E3.90397
G1 X-55.801 Y30.893 E3.96338
G1 X-57.990 Y30.560 E3.98575
G1 X-59.922 Y29.477 E4.00812
G1 X-61.347 Y27.783 E4.03049
G1 X-62.161 Y24.825 E4.06149
G1 X-63.027 Y-24.607 E4.56099
G1 X-62.668 Y-26.792 E4.58336
G1 X-61.563 Y-28.710 E4.60573
G1 X-59.851 Y-30.116 E4.62811
G1 X-57.755 Y-30.827 E4.65048
G1 X-56.424 Y-30.879 E4.66393
G1 X-49.157 Y-30.350 E4.73755 F1800.000
G1 X-44.445 Y-29.957 E4.78531
G1 X-39.783 Y-29.529 E4.83262
G1 X-32.912 Y-28.824 E4.90240
G1 X-28.478 Y-28.322 E4.94748
G1 X-24.103 Y-27.786 E4.99202
G1 X-17.676 Y-26.926 E5.05753
G1 X-13.553 Y-26.324 E5.09963
G1 X-9.465 Y-25.687 E5.14143
G1 X-5.532 Y-25.035 E5.18170
G1 X-1.668 Y-24.353 E5.22135
G1 X2.096 Y-23.648 E5.26004
G1 X4.621 Y-23.150 E5.28604
G1 F6240
G1 X9.319 Y-22.171 E3.53279
G1 F6240
G1 X9.711 Y-22.084 E3.38604
G1 E3.28604 F2400.00000
G92 E0
G1 X24.104 Y3.185 F7800.000
G1 E2.00000 F2400.00000
G1 X24.832 Y2.721 E2.00872 F1800.000
G1 X25.924 Y2.249 E2.02074
G1 X27.301 Y1.928 E2.03502
G1 X28.697 Y1.844 E2.04915 F1800.000
G1 X30.105 Y1.999 E2.06347
G1 X31.429 Y2.387 E2.07741
G1 X32.600 Y2.992 E2.09072
G1 X33.548 Y3.785 E2.10321
G1 X34.121 Y4.553 E2.11289
G1 X34.457 Y5.324 E2.12139
G1 X34.567 Y5.814 E2.12646
G1 X34.604 Y6.312 E2.13151
G1 X34.506 Y7.105 E2.13959
G1 X34.214 Y7.877 E2.14793
G1 X33.745 Y8.589 E2.15654
G1 X33.119 Y9.221 E2.16552
G1 X32.361 Y9.758 E2.17491
G1 X31.488 Y10.190 E2.18475
G1 X30.207 Y10.581 E2.19828
G1 X28.666 Y10.758 E2.21395
G1 X27.111 Y10.646 E2.22970
G1 X25.643 Y10.252 E2.24506
G1 X24.356 Y9.596 E2.25966
G1 X23.419 Y8.806 E2.27204
G1 X22.808 Y7.963 E2.28256
G1 X22.497 Y7.206 E2.29082
G1 X22.376 Y6.472 E2.29833
G1 X22.423 Y5.725 E2.30590
G1 X22.627 Y5.019 E2.31332
G1 X22.987 Y4.344 E2.32105
G1 X23.485 Y3.728 E2.32905
G1 X24.070 Y3.214 E2.33692
G1 X24.188 Y3.349 F7800.000
G1 X24.916 Y2.879 E2.34567 F1800.000
G1 X25.981 Y2.420 E2.35739
G1 X27.326 Y2.105 E2.37135
G1 X28.692 Y2.024 E2.38518 F1800.000
G1 X30.070 Y2.175 E2.39918
G1 X31.363 Y2.553 E2.41279
G1 X32.501 Y3.141 E2.42573
G1 X33.417 Y3.909 E2.43781
G1 X33.965 Y4.643 E2.44707
G1 X34.287 Y5.380 E2.45519
G1 X34.390 Y5.840 E2.45996
G1 X34.425 Y6.307 E2.46469
G1 X34.332 Y7.062 E2.47237
G1 X34.054 Y7.796 E2.48030
G1 X33.605 Y8.476 E2.48853
G1 X33.003 Y9.084 E2.49717
G1 X32.269 Y9.604 E2.50626
G1 X31.422 Y10.024 E2.51582
G1 X30.170 Y10.406 E2.52904
G1 X28.662 Y10.578 E2.54438
G1 X27.141 Y10.469 E2.55978
G1 X25.707 Y10.084 E2.57478
G1 X24.455 Y9.446 E2.58898
G1 X23.551 Y8.683 E2.60094
G1 X22.965 Y7.876 E2.61102
G1 X22.670 Y7.157 E2.61887
G1 X22.555 Y6.463 E2.62597
G1 X22.600 Y5.756 E2.63313
G1 X22.793 Y5.087 E2.64016
G1 X23.136 Y4.443 E2.64753
G1 X23.614 Y3.852 E2.65521
G1 X24.154 Y3.378 E2.66247
G1 X24.272 Y3.513 F7800.000
G1 X25.000 Y3.037 E2.67125 F1800.000
G1 X26.037 Y2.590 E2.68266
G1 X27.352 Y2.283 E2.69631
G1 X28.688 Y2.203 E2.70983 F1800.000
G1 X30.035 Y2.351 E2.72352
G1 X31.296 Y2.720 E2.73680
G1 X32.401 Y3.291 E2.74936
G1 X33.287 Y4.032 E2.76104
G1 X33.810 Y4.733 E2.76987
G1 X34.116 Y5.435 E2.77761
G1 X34.213 Y5.866 E2.78207
G1 X34.246 Y6.303 E2.78650
G1 X34.157 Y7.019 E2.79379
G1 X33.894 Y7.714 E2.80129
G1 X33.466 Y8.363 E2.80915
G1 X32.888 Y8.947 E2.81746
G1 X32.177 Y9.450 E2.82625
G1 X31.356 Y9.857 E2.83551
G1 X30.134 Y10.230 E2.84842
G1 X28.658 Y10.399 E2.86342
G1 X27.171 Y10.292 E2.87849
G1 X25.771 Y9.917 E2.89313
G1 X24.554 Y9.296 E2.90693
G1 X23.682 Y8.561 E2.91846
G1 X23.122 Y7.788 E2.92810
G1 X22.843 Y7.108 E2.93553
G1 X22.735 Y6.454 E2.94222
G1 X22.777 Y5.787 E2.94898
G1 X22.960 Y5.154 E2.95563
G1 X23.286 Y4.542 E2.96264
G1 X23.743 Y3.977 E2.96999
G1 X24.238 Y3.542 E2.97664
G1 X24.241 Y3.214 F7800.000
G1 F6240
G1 X25.000 Y3.037 E2.64284
G1 F6240
G1 X26.037 Y2.590 E2.23009
G1 F6240
G1 X27.352 Y2.283 E1.73646
G1 E0.97664 F2400.00000
G92 E0
G1 X28.677 Y11.303 F7800.000
G1 X29.597 Y13.909 F7800.000
G1 X30.945 Y13.691 F7800.000
G1 X31.459 Y16.291 F7800.000
G1 X34.266 Y16.257 F7800.000
G1 E2.00000 F2400.00000
G1 X31.563 Y16.824 E2.02790 F1800.000
G1 X28.803 Y17.348 E2.05628
G1 X25.906 Y17.856 E2.08600
G1 X22.873 Y18.347 E2.11704
G1 X19.706 Y18.821 E2.14939
G1 X16.407 Y19.277 E2.18304
G1 X12.978 Y19.715 E2.21797
G1 X7.591 Y20.339 E2.27276
G1 X3.843 Y20.732 E2.31084
G1 X-0.030 Y21.108 E2.35015
G1 X-4.025 Y21.466 E2.39067
G1 X-10.241 Y21.970 E2.45368
G1 X-14.566 Y22.287 E2.49750
G1 X-21.139 Y22.720 E2.56405
G1 X-30.425 Y23.243 E2.65802
G1 X-35.207 Y23.477 E2.70639
G1 X-42.572 Y23.794 E2.78087
G1 X-50.155 Y24.074 E2.85754
G1 X-55.342 Y24.239 E2.90996
G1 X-47.696 Y1.301 E3.15426
G1 X-56.200 Y-24.211 E3.42596
G1 X-52.062 Y-23.919 E3.46786
G1 X-47.343 Y-23.545 E3.51569 F1800.000
G1 X-42.699 Y-23.138 E3.56279
G1 X-35.877 Y-22.468 E3.63204
G1 X-31.433 Y-21.983 E3.67721
G1 X-24.924 Y-21.202 E3.74344
G1 X-20.698 Y-20.646 E3.78651
G1 X-14.527 Y-19.760 E3.84949
G1 X-10.534 Y-19.138 E3.89032
G1 X-4.725 Y-18.159 E3.94984
G1 X-0.980 Y-17.478 E3.98830
G1 X4.447 Y-16.416 E4.04417
G1 X7.930 Y-15.682 E4.08013
G1 X12.954 Y-14.545 E4.13217
G1 X17.727 Y-13.368 E4.18184
G1 X22.244 Y-12.154 E4.22910
G1 X25.109 Y-11.327 E4.25923
G1 X29.188 Y-10.061 E4.30238
G1 X32.999 Y-8.768 E4.34304
G1 X34.205 Y-8.333 E4.35599
G1 X36.532 Y-7.455 E4.38112
G1 X38.736 Y-6.568 E4.40512
G1 X39.788 Y-6.123 E4.41666
G1 X41.806 Y-5.228 E4.43897
G1 X42.764 Y-4.781 E4.44965
G1 X44.595 Y-3.883 E4.47025
G1 X45.458 Y-3.436 E4.48007
G1 X47.097 Y-2.540 E4.49895
G1 X47.876 Y-2.088 E4.50804
G1 X49.307 Y-1.204 E4.52504
G1 X49.973 Y-0.764 E4.53310
G1 X51.218 Y0.118 E4.54851
G1 X51.783 Y0.550 E4.55570
G1 X52.828 Y1.412 E4.56939
G1 X53.743 Y2.251 E4.58193
G1 X54.531 Y3.064 E4.59337
G1 X55.197 Y3.844 E4.60373
G1 X55.717 Y4.573 E4.61277
G1 X55.921 Y4.920 E4.61685
G1 X56.085 Y5.254 E4.62060
G1 X56.209 Y5.572 E4.62405
G1 X56.293 Y5.874 E4.62722
G1 X56.337 Y6.160 E4.63015
G1 X56.342 Y6.440 E4.63298
G1 X56.312 Y6.703 E4.63565
G1 X56.244 Y6.969 E4.63842
G1 X56.136 Y7.237 E4.64133
G1 X55.987 Y7.510 E4.64448
G1 X55.795 Y7.789 E4.64791
G1 X55.556 Y8.076 E4.65168
G1 X55.271 Y8.369 E4.65581
G1 X54.939 Y8.669 E4.66033
G1 X54.561 Y8.974 E4.66523
G1 X54.143 Y9.280 E4.67047
G1 X53.170 Y9.908 E4.68217
G1 X52.044 Y10.541 E4.69522
G1 X50.768 Y11.178 E4.70963
G1 X50.082 Y11.494 E4.71726
G1 X48.594 Y12.130 E4.73361
G1 X47.802 Y12.444 E4.74222
G1 X46.101 Y13.070 E4.76053
G1 X45.185 Y13.383 E4.77031
G1 X43.300 Y13.981 E4.79029
G1 X41.223 Y14.581 E4.81213
G1 X39.020 Y15.162 E4.83515
G1 X35.448 Y16.009 E4.87224
G1 X34.310 Y16.248 E4.88399
G1 X34.347 Y16.423 F7800.000
G1 X31.598 Y16.999 E4.91236 F1800.000
G1 X28.835 Y17.524 E4.94078
G1 X25.935 Y18.032 E4.97052
G1 X22.900 Y18.524 E5.00158
G1 X19.732 Y18.998 E5.03395
G1 X16.431 Y19.454 E5.06762
G1 X13.000 Y19.893 E5.10257
G1 X7.611 Y20.517 E5.15738
G1 X3.861 Y20.910 E5.19548
G1 X-0.014 Y21.286 E5.23480
G1 X-4.009 Y21.644 E5.27533
G1 X-10.227 Y22.148 E5.33836
G1 X-14.554 Y22.465 E5.38219
G1 X-21.128 Y22.899 E5.44876
G1 X-30.416 Y23.422 E5.54274
G1 X-35.199 Y23.655 E5.59112
G1 X-42.565 Y23.973 E5.66561
G1 X-50.149 Y24.253 E5.74229
G1 X-55.592 Y24.426 E5.79731
G1 X-47.884 Y1.301 E6.04359
G1 X-56.453 Y-24.408 E6.31739
G1 X-52.049 Y-24.097 E6.36200
G1 X-47.328 Y-23.723 E6.40984 F1800.000
G1 X-42.683 Y-23.316 E6.45696
G1 X-35.859 Y-22.646 E6.52623
G1 X-31.413 Y-22.161 E6.57142
G1 X-24.902 Y-21.379 E6.63767
G1 X-20.673 Y-20.822 E6.68076
G1 X-14.501 Y-19.937 E6.74376
G1 X-10.505 Y-19.315 E6.78462
G1 X-4.694 Y-18.335 E6.84416
G1 X-0.947 Y-17.654 E6.88264
G1 X4.482 Y-16.591 E6.93854
G1 X7.968 Y-15.857 E6.97453
G1 X12.995 Y-14.719 E7.02660
G1 X17.771 Y-13.541 E7.07630
G1 X22.292 Y-12.326 E7.12360
G1 X25.160 Y-11.498 E7.15375
G1 X29.243 Y-10.230 E7.19695
G1 X33.058 Y-8.936 E7.23765
G1 X34.267 Y-8.501 E7.25063
G1 X36.597 Y-7.621 E7.27579
G1 X38.804 Y-6.733 E7.29983
G1 X39.859 Y-6.287 E7.31140
G1 X41.880 Y-5.391 E7.33374
G1 X42.841 Y-4.943 E7.34446
G1 X44.675 Y-4.043 E7.36509
G1 X45.542 Y-3.594 E7.37495
G1 X47.185 Y-2.695 E7.39388
G1 X47.967 Y-2.241 E7.40302
G1 X49.403 Y-1.354 E7.42007
G1 X50.074 Y-0.911 E7.42819
G1 X51.324 Y-0.026 E7.44366
G1 X51.894 Y0.410 E7.45092
G1 X52.945 Y1.277 E7.46468
G1 X53.867 Y2.123 E7.47732
G1 X54.664 Y2.943 E7.48887
G1 X55.336 Y3.732 E7.49935
G1 X55.868 Y4.478 E7.50860
G1 X56.078 Y4.835 E7.51279
G1 X56.249 Y5.182 E7.51669
G1 X56.379 Y5.516 E7.52031
G1 X56.468 Y5.837 E7.52368
G1 X56.515 Y6.145 E7.52683
G1 X56.521 Y6.449 E7.52990
G1 X56.488 Y6.735 E7.53282
G1 X56.414 Y7.024 E7.53583
G1 X56.298 Y7.313 E7.53897
G1 X56.140 Y7.604 E7.54231
G1 X55.937 Y7.898 E7.54592
G1 X55.689 Y8.196 E7.54984
G1 X55.394 Y8.498 E7.55410
G1 X55.055 Y8.805 E7.55873
G1 X54.670 Y9.115 E7.56372
G1 X54.244 Y9.427 E7.56905
G1 X53.263 Y10.061 E7.58086
G1 X52.127 Y10.699 E7.59402
G1 X50.845 Y11.339 E7.60850
G1 X50.155 Y11.658 E7.61618
G1 X48.662 Y12.295 E7.63258
G1 X47.866 Y12.611 E7.64123
G1 X46.160 Y13.238 E7.65959
G1 X45.241 Y13.552 E7.66941
G1 X43.352 Y14.152 E7.68943
G1 X41.270 Y14.753 E7.71132
G1 X39.063 Y15.336 E7.73438
G1 X35.487 Y16.184 E7.77152
G1 X34.391 Y16.414 E7.78283
G1 X34.427 Y16.588 F7800.000
G1 X31.633 Y17.174 E7.81168 F1800.000
G1 X28.867 Y17.699 E7.84012
G1 X25.965 Y18.208 E7.86989
G1 X22.928 Y18.700 E7.90098
G1 X19.757 Y19.174 E7.93337
G1 X16.454 Y19.631 E7.96706
G1 X13.021 Y20.070 E8.00202
G1 X7.630 Y20.694 E8.05686
G1 X3.878 Y21.088 E8.09497
G1 X0.003 Y21.464 E8.13431
G1 X-3.994 Y21.822 E8.17485
G1 X-10.213 Y22.326 E8.23789
G1 X-14.541 Y22.644 E8.28174
G1 X-21.117 Y23.077 E8.34832
G1 X-30.406 Y23.600 E8.44232
G1 X-35.191 Y23.833 E8.49071
G1 X-42.557 Y24.151 E8.56521
G1 X-50.143 Y24.431 E8.64190
G1 X-55.843 Y24.613 E8.69952
G1 X-48.072 Y1.301 E8.94779
G1 X-56.707 Y-24.605 E9.22368
G1 X-52.035 Y-24.275 E9.27100
G1 X-47.314 Y-23.901 E9.31885 F1800.000
G1 X-42.666 Y-23.494 E9.36599
G1 X-35.841 Y-22.823 E9.43528
G1 X-31.393 Y-22.338 E9.48048
G1 X-24.880 Y-21.556 E9.54676
G1 X-20.649 Y-20.999 E9.58987
G1 X-14.474 Y-20.114 E9.65289
G1 X-10.477 Y-19.491 E9.69377
G1 X-4.663 Y-18.511 E9.75333
G1 X-0.914 Y-17.829 E9.79184
G1 X4.518 Y-16.766 E9.84776
G1 X8.006 Y-16.031 E9.88377
G1 X13.036 Y-14.893 E9.93588
G1 X17.816 Y-13.714 E9.98561
G1 X22.340 Y-12.498 E10.03295
G1 X25.211 Y-11.669 E10.06314
G1 X29.298 Y-10.400 E10.10638
G1 X33.117 Y-9.105 E10.14712
G1 X34.329 Y-8.668 E10.16013
G1 X36.662 Y-7.787 E10.18533
G1 X38.872 Y-6.898 E10.20939
G1 X39.930 Y-6.451 E10.22100
G1 X41.954 Y-5.553 E10.24337
G1 X42.918 Y-5.104 E10.25412
G1 X44.755 Y-4.202 E10.27479
G1 X45.626 Y-3.752 E10.28469
G1 X47.273 Y-2.851 E10.30366
G1 X48.059 Y-2.394 E10.31285
G1 X49.499 Y-1.505 E10.32995
G1 X50.175 Y-1.059 E10.33813
G1 X51.429 Y-0.170 E10.35367
G1 X52.005 Y0.270 E10.36099
G1 X53.063 Y1.143 E10.37484
G1 X53.992 Y1.995 E10.38758
G1 X54.796 Y2.823 E10.39924
G1 X55.476 Y3.621 E10.40983
G1 X56.019 Y4.382 E10.41928
G1 X56.235 Y4.751 E10.42359
G1 X56.412 Y5.110 E10.42764
G1 X56.549 Y5.459 E10.43143
G1 X56.643 Y5.799 E10.43499
G1 X56.693 Y6.130 E10.43837
G1 X56.700 Y6.457 E10.44168
G1 X56.664 Y6.768 E10.44484
G1 X56.584 Y7.080 E10.44809
G1 X56.460 Y7.389 E10.45146
G1 X56.292 Y7.697 E10.45500
G1 X56.079 Y8.006 E10.45879
G1 X55.821 Y8.315 E10.46286
G1 X55.518 Y8.627 E10.46725
G1 X55.171 Y8.941 E10.47199
G1 X54.779 Y9.257 E10.47707
G1 X54.346 Y9.574 E10.48249
G1 X53.355 Y10.214 E10.49441
G1 X52.211 Y10.856 E10.50767
G1 X50.922 Y11.500 E10.52222
G1 X50.227 Y11.821 E10.52995
G1 X48.730 Y12.461 E10.54641
G1 X47.930 Y12.778 E10.55510
G1 X46.220 Y13.407 E10.57351
G1 X45.297 Y13.722 E10.58336
G1 X43.403 Y14.323 E10.60343
G1 X41.318 Y14.925 E10.62536
G1 X39.107 Y15.509 E10.64847
G1 X35.526 Y16.358 E10.68565
G1 X34.471 Y16.579 E10.69654
G1 X34.227 Y16.365 F7800.000
G1 X33.247 Y11.383 F7800.000
G1 X31.510 Y10.380 E10.71681 F1800.000
G1 X30.245 Y10.766 E10.73017
G1 X29.383 Y10.865 E10.73893
G1 X28.485 Y11.383 E10.74941
G1 X28.485 Y14.421 E10.78011
G1 X30.741 Y15.724 E10.80642
G1 X30.741 Y16.789 E10.81718
G1 X30.992 Y16.742 E10.81976
G1 X30.992 Y15.724 E10.83005
G1 X33.247 Y14.421 E10.85636
G1 X33.247 Y11.383 E10.88706
G1 X25.575 Y10.428 F7800.000
G1 X25.337 Y10.307 E10.88976 F1800.000
G1 X23.473 Y11.383 E10.91150
G1 X23.473 Y14.421 E10.94220
G1 X25.729 Y15.724 E10.96852
G1 X25.729 Y17.695 E10.98843
G1 X25.979 Y17.653 E10.99100
G1 X25.979 Y15.724 E11.01048
G1 X28.235 Y14.421 E11.03680
G1 X28.235 Y11.383 E11.06750
G1 X27.310 Y10.849 E11.07829
G1 X27.080 Y10.832 E11.08062
G1 X25.575 Y10.428 E11.09636
G1 F6240
G1 X27.080 Y10.832 E10.52700
G1 F6240
G1 X27.310 Y10.849 E10.44288
G1 F6240
G1 X28.235 Y11.383 E10.05248
G1 F6240
G1 X28.235 Y13.726 E9.19636
G1 E9.09636 F2400.00000
G92 E0
G1 X28.710 Y1.300 F7800.000
G1 X29.284 Y-3.921 F7800.000
G1 X29.893 Y-3.786 F7800.000
G1 X31.581 Y-8.689 F7800.000
G1 X30.992 Y-9.251 F7800.000
G1 E2.00000 F2400.00000
G1 X30.741 Y-9.336 E2.00267 F1800.000
G1 X30.741 Y-7.283 E2.02341
G1 X28.485 Y-5.981 E2.04973
G1 X28.485 Y-2.942 E2.08043
G1 X30.741 Y-1.640 E2.10674
G1 X30.741 Y1.399 E2.13744
G1 X30.041 Y1.803 E2.14561
G1 X30.142 Y1.814 E2.14664
G1 X31.500 Y2.212 E2.16093
G1 X32.705 Y2.834 E2.17463
G1 X33.247 Y3.289 E2.18178
G1 X33.247 Y2.701 E2.18772
G1 X30.992 Y1.399 E2.21403
G1 X30.992 Y-1.640 E2.24473
