; generated by Slic3r 1.2.9 on 2016-07-17 at 16:38:00

; external perimeters extrusion width = 0.40mm
; perimeters extrusion width = 0.67mm
; infill extrusion width = 0.67mm
; solid infill extrusion width = 0.67mm
; top infill extrusion width = 0.67mm

M107
M104 S215 ; set temperature
G28 ; home all axes
G1 Y-60 Z5 F5000 ; lift nozzle


M109 S215 ; wait for temperature to be reached
G21 ; set units to millimeters
G90 ; use absolute coordinates
M82 ; use absolute distances for extrusion
G92 E0
G1 E-3.00000 F2400.00000
G92 E0
G1 Z0.300 F6000.000
G1 X-6.010 Y51.342 F6000.000
G1 E3.00000 F2400.00000
G1 X-7.105 Y51.297 E3.05725 F1800.000
G1 X-30.726 Y47.360 E4.30837
G1 X-32.464 Y46.670 E4.40604
G1 X-33.760 Y45.323 E4.50371
G1 X-34.419 Y43.001 E4.62977
G1 X-34.419 Y-46.999 E9.33182
G1 X-34.023 Y-48.826 E9.42949
G1 X-32.908 Y-50.326 E9.52716
G1 X-31.272 Y-51.231 E9.62483
G1 X-30.000 Y-51.418 E9.69199
G1 X30.000 Y-51.418 E12.82668
G1 X31.827 Y-51.022 E12.92435
G1 X33.327 Y-49.906 E13.02203
G1 X34.232 Y-48.270 E13.11970
G1 X34.419 Y-46.999 E13.18685
G1 X34.419 Y43.001 E17.88889
G1 X34.023 Y44.829 E17.98656
G1 X32.908 Y46.329 E18.08424
G1 X30.726 Y47.360 E18.21030
G1 X19.960 Y49.155 E18.78057
G1 X19.601 Y49.199 E18.79943
G1 X-5.950 Y51.337 E20.13904
G1 F4800
G1 X-7.105 Y51.297 E19.59028
G1 F4800
G1 X-11.884 Y50.501 E17.28904
G1 E17.13904 F2400.00000
G92 E0
G1 X-29.423 Y42.512 F6000.000
G1 E3.00000 F2400.00000
G1 X-29.423 Y-46.317 E7.64089 F1800.000
G1 X-0.000 Y-41.413 E9.19928
G1 X2.749 Y-41.872 E9.34489
G1 X2.039 Y-33.283 E9.79513
G1 X1.161 Y-23.634 E10.30132
G1 X0.168 Y-13.535 E10.83152
G1 X-0.938 Y-3.022 E11.38377
G1 X-2.152 Y7.865 E11.95611
G1 X-3.810 Y21.941 E12.69660
G1 X-5.240 Y33.523 E13.30629
G1 X-6.875 Y46.270 E13.97771
G1 X-29.364 Y42.522 E15.16883
G1 X-29.800 Y42.832 F6000.000
G1 X-29.800 Y-46.763 E18.91928 F1800.000
G1 X-0.000 Y-41.796 E20.18393
G1 X3.165 Y-42.323 E20.31824
G1 X2.414 Y-33.250 E20.69934
G1 X1.537 Y-23.599 E21.10503
G1 X0.543 Y-13.496 E21.52996
G1 X-0.563 Y-2.982 E21.97254
G1 X-1.777 Y7.908 E22.43121
G1 X-3.435 Y21.987 E23.02461
G1 X-4.866 Y33.571 E23.51320
G1 X-6.551 Y46.707 E24.06759
G1 X-29.741 Y42.842 E25.05174
G1 X-29.581 Y42.497 F6000.000
G1 X-27.746 Y42.325 F6000.000
G1 X-28.962 Y37.787 E25.29718 F1800.000
G1 X-28.962 Y42.122 E25.52368
G1 X-27.746 Y42.325 E25.58808
G1 X-7.271 Y45.737 F6000.000
G1 X-6.721 Y41.448 E25.81398 F1800.000
G1 X-8.098 Y42.825 E25.91568
G1 X-7.319 Y45.729 E26.07276
G1 X-7.271 Y45.737 E26.07532
G1 X-5.299 Y30.240 F6000.000
G1 X-11.597 Y28.552 E26.41594 F1800.000
G1 X-16.983 Y33.939 E26.81394
G1 X-15.293 Y40.246 E27.15508
G1 X-18.854 Y43.807 E27.41814
G1 X-18.092 Y43.934 E27.45848
G1 X-14.849 Y40.691 E27.69809
G1 X-8.542 Y42.381 E28.03923
G1 X-6.590 Y40.429 E28.18342
G1 X-5.299 Y30.240 E28.72001
G1 X-2.299 Y5.024 F6000.000
G1 X-5.092 Y4.276 E28.87109 F1800.000
G1 X-10.478 Y9.663 E29.26909
G1 X-8.788 Y15.970 E29.61023
G1 X-14.175 Y21.357 E30.00823
G1 X-20.482 Y19.667 E30.34937
G1 X-25.869 Y25.053 E30.74737
G1 X-24.179 Y31.361 E31.08851
G1 X-28.962 Y36.144 E31.44190
G1 X-28.962 Y37.032 E31.48833
G1 X-23.735 Y31.805 E31.87454
G1 X-17.428 Y33.495 E32.21569
G1 X-12.041 Y28.108 E32.61369
G1 X-13.731 Y21.801 E32.95483
G1 X-8.344 Y16.414 E33.35283
G1 X-3.767 Y17.641 E33.60038
G1 X-2.609 Y7.813 E34.11738
G1 X-2.299 Y5.024 E34.26396
G1 X-0.291 Y-13.581 F6000.000
G1 X0.224 Y-18.811 E34.53850 F1800.000
G1 X-3.974 Y-14.614 E34.84863
G1 X-2.284 Y-8.306 E35.18977
G1 X-7.670 Y-2.920 E35.58777
G1 X-13.977 Y-4.610 E35.92891
G1 X-19.364 Y0.777 E36.32691
G1 X-17.674 Y7.084 E36.66805
G1 X-23.061 Y12.471 E37.06605
G1 X-28.962 Y10.890 E37.38523
G1 X-28.962 Y23.899 E38.06492
G1 X-26.313 Y24.609 E38.20818
G1 X-20.927 Y19.222 E38.60618
G1 X-22.617 Y12.915 E38.94732
G1 X-17.230 Y7.529 E39.34532
G1 X-10.923 Y9.219 E39.68646
G1 X-5.536 Y3.832 E40.08446
G1 X-7.226 Y-2.475 E40.42560
G1 X-1.839 Y-7.862 E40.82360
G1 X-0.918 Y-7.615 E40.87342
G1 X-0.291 Y-13.581 E41.18683
G1 X1.152 Y-28.625 F6000.000
G1 X1.241 Y-29.603 E41.23811 F1800.000
G1 X-1.165 Y-27.196 E41.41594
G1 X-7.473 Y-28.886 E41.75708
G1 X-12.859 Y-23.499 E42.15508
G1 X-11.169 Y-17.192 E42.49622
G1 X-16.556 Y-11.805 E42.89422
G1 X-22.863 Y-13.495 E43.23536
G1 X-28.250 Y-8.109 E43.63336
G1 X-26.560 Y-1.802 E43.97450
G1 X-28.962 Y0.600 E44.15198
G1 X-28.962 Y1.489 E44.19840
G1 X-26.116 Y-1.357 E44.40870
G1 X-19.808 Y0.333 E44.74985
G1 X-14.422 Y-5.054 E45.14785
G1 X-16.112 Y-11.361 E45.48899
G1 X-10.725 Y-16.748 E45.88699
G1 X-4.418 Y-15.058 E46.22813
G1 X0.321 Y-19.796 E46.57824
G1 X0.541 Y-22.040 E46.69601
G1 X-0.721 Y-26.752 E46.95087
G1 X1.152 Y-28.625 E47.08931
G1 X-0.000 Y-40.946 F6000.000
G1 X-4.736 Y-41.736 E47.34016 F1800.000
G1 X-4.665 Y-41.469 E47.35461
G1 X-10.051 Y-36.082 E47.75261
G1 X-16.358 Y-37.772 E48.09375
G1 X-21.745 Y-32.385 E48.49175
G1 X-20.055 Y-26.078 E48.83289
G1 X-25.442 Y-20.691 E49.23089
G1 X-28.962 Y-21.634 E49.42129
G1 X-28.962 Y-8.625 E50.10098
G1 X-28.694 Y-8.553 E50.11546
G1 X-23.308 Y-13.940 E50.51346
G1 X-24.998 Y-20.247 E50.85460
G1 X-19.611 Y-25.634 E51.25260
G1 X-13.304 Y-23.944 E51.59374
G1 X-7.917 Y-29.330 E51.99174
G1 X-9.607 Y-35.638 E52.33289
G1 X-4.220 Y-41.024 E52.73089
G1 X2.077 Y-39.337 E53.07149
G1 X2.241 Y-41.320 E53.17545
G1 X-0.000 Y-40.946 E53.29415
G1 X-18.354 Y-44.005 F6000.000
G1 X-26.533 Y-45.369 E53.72737 F1800.000
G1 X-28.962 Y-42.940 E53.90682
G1 X-28.962 Y-35.042 E54.31942
G1 X-28.941 Y-34.964 E54.32368
G1 X-28.962 Y-34.943 E54.32524
G1 X-28.962 Y-34.054 E54.37166
G1 X-28.497 Y-34.519 E54.40604
G1 X-22.189 Y-32.829 E54.74719
G1 X-16.803 Y-38.216 E55.14519
G1 X-18.354 Y-44.005 E55.45832
G1 X-28.817 Y-45.749 F6000.000
G1 X-28.962 Y-45.773 E55.46600 F1800.000
G1 X-28.962 Y-43.828 E55.56761
G1 X-27.295 Y-45.496 E55.69079
G1 X-28.817 Y-45.749 E55.77141
G1 F4800
G1 X-27.295 Y-45.496 E55.03843
G1 F4800
G1 X-28.962 Y-43.828 E53.91852
G1 F4800
G1 X-28.962 Y-45.773 E52.99465
G1 F4800
G1 X-28.817 Y-45.749 E52.92481
G1 E52.77141 F2400.00000
G92 E0
G1 X-0.658 Y-0.271 F6000.000
G1 X7.737 Y10.072 F6000.000
G1 X7.534 Y17.510 F6000.000
G1 X7.449 Y20.389 F6000.000
G1 X7.438 Y20.774 F6000.000
G1 X17.870 Y20.156 F6000.000
G1 X19.775 Y44.120 F6000.000
G1 E3.00000 F2400.00000
G1 X19.079 Y31.135 E3.67936 F1800.000
G1 X18.446 Y20.122 E4.25572
G1 X17.793 Y9.439 E4.81487
G1 X16.956 Y-3.406 E5.48741
G1 X16.097 Y-15.642 E6.12822
G1 X15.394 Y-24.959 E6.61640
G1 X14.681 Y-33.830 E7.08134
G1 X13.827 Y-43.718 E7.59987
G1 X29.423 Y-46.317 E8.42588
G1 X29.423 Y42.512 E13.06678
G1 X19.834 Y44.110 E13.57464
G1 X19.421 Y44.562 F6000.000
G1 X18.702 Y31.156 E14.13660 F1800.000
G1 X18.069 Y20.144 E14.59833
G1 X17.417 Y9.463 E15.04629
G1 X16.580 Y-3.381 E15.58508
G1 X15.721 Y-15.614 E16.09843
G1 X15.018 Y-24.930 E16.48950
G1 X14.305 Y-33.798 E16.86193
G1 X13.422 Y-44.033 E17.29194
G1 X29.800 Y-46.763 E17.98700
G1 X29.800 Y42.832 E21.73746
G1 X19.480 Y44.552 E22.17541
G1 X19.589 Y44.199 F6000.000
G1 X28.962 Y42.122 F6000.000
G1 X28.962 Y41.308 E22.21791 F1800.000
G1 X27.986 Y42.285 E22.29004
G1 X28.962 Y42.122 E22.34175
G1 X27.873 Y32.623 F6000.000
G1 X21.566 Y30.933 E22.68289 F1800.000
G1 X19.633 Y32.866 E22.82568
G1 X20.207 Y43.579 E23.38619
G1 X26.920 Y42.462 E23.74169
G1 X28.962 Y40.420 E23.89259
G1 X28.962 Y35.475 E24.15096
G1 X28.317 Y33.068 E24.28115
G1 X28.962 Y32.423 E24.32880
G1 X28.962 Y31.534 E24.37522
G1 X27.873 Y32.623 E24.45570
G1 X28.962 Y6.896 F6000.000
G1 X28.070 Y6.657 E24.50393 F1800.000
G1 X22.684 Y12.044 E24.90193
G1 X24.374 Y18.351 E25.24307
G1 X19.108 Y23.616 E25.63212
G1 X19.588 Y32.023 E26.07201
G1 X21.121 Y30.489 E26.18531
G1 X19.431 Y24.182 E26.52646
G1 X24.818 Y18.795 E26.92446
G1 X28.962 Y19.906 E27.14860
G1 X28.962 Y6.896 E27.82828
G1 X28.962 Y-3.120 F6000.000
G1 X28.962 Y-4.009 E27.87471 F1800.000
G1 X25.492 Y-0.539 E28.13110
G1 X19.185 Y-2.229 E28.47225
G1 X17.598 Y-0.642 E28.58947
G1 X18.323 Y10.550 E29.17543
G1 X22.239 Y11.599 E29.38727
G1 X27.626 Y6.213 E29.78527
G1 X25.936 Y-0.094 E30.12641
G1 X28.962 Y-3.120 E30.34998
G1 X28.962 Y-25.628 F6000.000
G1 X25.689 Y-26.505 E30.52698 F1800.000
G1 X20.303 Y-21.118 E30.92498
G1 X21.993 Y-14.811 E31.26613
G1 X16.970 Y-9.788 E31.63724
G1 X17.544 Y-1.476 E32.07253
G1 X18.740 Y-2.673 E32.16095
G1 X17.050 Y-8.980 E32.50209
G1 X22.437 Y-14.367 E32.90009
G1 X28.744 Y-12.677 E33.24123
G1 X28.962 Y-12.895 E33.25732
G1 X28.962 Y-25.628 E33.92259
G1 X28.962 Y-38.638 F6000.000
G1 X28.962 Y-45.773 E34.29538 F1800.000
G1 X26.831 Y-45.418 E34.40825
G1 X26.808 Y-45.395 E34.40998
G1 X28.498 Y-39.088 E34.75112
G1 X23.111 Y-33.701 E35.14912
G1 X16.804 Y-35.391 E35.49026
G1 X15.150 Y-33.737 E35.61242
G1 X16.035 Y-22.587 E36.19680
G1 X19.858 Y-21.563 E36.40360
G1 X25.245 Y-26.949 E36.80160
G1 X23.555 Y-33.257 E37.14275
G1 X28.942 Y-38.643 E37.54075
G1 X28.962 Y-38.638 E37.54183
G1 X14.669 Y-42.142 F6000.000
G1 X16.168 Y-43.641 E37.65256 F1800.000
G1 X15.102 Y-43.463 E37.70904
G1 X14.375 Y-42.736 E37.76277
G1 X15.080 Y-34.556 E38.19172
G1 X16.359 Y-35.835 E38.28622
G1 X14.669 Y-42.142 E38.62736
G1 F4800
G1 X16.222 Y-36.347 E35.77736
G1 E35.62736 F2400.00000
G92 E0
G1 Z0.500 F6000.000
G1 X-6.942 Y46.142 F6000.000
G1 E3.00000 F2400.00000
G1 X-29.307 Y42.415 E4.18458 F1200.000
G1 X-29.307 Y-46.181 E8.81324
G1 X-0.000 Y-41.296 E10.36552
G1 X2.641 Y-41.737 E10.50543
G1 X1.924 Y-33.043 E10.96117
G1 X1.046 Y-23.395 E11.46731
G1 X0.053 Y-13.296 E11.99746
G1 X-1.053 Y-2.785 E12.54968
G1 X-2.266 Y8.102 E13.12198
G1 X-3.925 Y22.178 E13.86243
G1 X-5.355 Y33.759 E14.47210
G1 X-6.935 Y46.083 E15.12121
G1 X-6.519 Y46.712 F6000.000
G1 X-29.800 Y42.832 E15.82200 F600.000
G1 X-29.800 Y-46.763 E18.48217
G1 X-0.000 Y-41.796 E19.37918
G1 X3.185 Y-42.327 E19.47504
G1 X2.414 Y-33.000 E19.75289
G1 X1.537 Y-23.349 E20.04064
G1 X0.543 Y-13.246 E20.34204
G1 X-0.563 Y-2.732 E20.65596
G1 X-1.777 Y8.158 E20.98130
G1 X-3.435 Y22.237 E21.40219
G1 X-4.866 Y33.821 E21.74875
G1 X-6.511 Y46.653 E22.13287
G1 X-6.831 Y46.462 F6000.000
G1 X-7.287 Y44.634 F6000.000
G1 X-6.837 Y41.120 E22.31798 F3000.000
G1 X-7.935 Y42.218 E22.39911
G1 X-7.287 Y44.634 E22.52981
G1 X-27.459 Y42.181 F6000.000
G1 X-28.773 Y37.277 E22.79504 F3000.000
G1 X-28.773 Y39.705 E22.92187
G1 X-28.140 Y42.068 E23.04966
G1 X-27.459 Y42.181 E23.08573
G1 X-26.313 Y24.609 F6000.000
G1 X-28.773 Y23.950 E23.21878 F3000.000
G1 X-28.773 Y36.399 E23.86918
G1 X-24.342 Y31.967 E24.19661
G1 X-26.313 Y24.609 E24.59461
G1 X-25.442 Y-20.691 F6000.000
G1 X-28.773 Y-21.584 E24.77480 F3000.000
G1 X-28.773 Y-8.574 E25.45448
G1 X-28.694 Y-8.553 E25.45876
G1 X-26.723 Y-1.195 E25.85676
G1 X-28.773 Y0.856 E26.00827
G1 X-28.773 Y10.940 E26.53512
G1 X-23.061 Y12.471 E26.84409
G1 X-21.089 Y19.829 E27.24209
G1 X-25.706 Y24.446 E27.58323
G1 X-23.735 Y31.805 E27.98123
G1 X-17.428 Y33.495 E28.32237
G1 X-15.456 Y40.853 E28.72037
G1 X-18.309 Y43.706 E28.93116
G1 X-7.713 Y45.472 E29.49235
G1 X-8.542 Y42.381 E29.65956
G1 X-14.849 Y40.691 E30.00070
G1 X-16.821 Y33.332 E30.39870
G1 X-12.203 Y28.715 E30.73984
G1 X-14.175 Y21.357 E31.13784
G1 X-20.482 Y19.667 E31.47898
G1 X-22.454 Y12.308 E31.87698
G1 X-17.837 Y7.691 E32.21813
G1 X-19.808 Y0.333 E32.61613
G1 X-26.116 Y-1.357 E32.95727
G1 X-28.087 Y-8.716 E33.35527
G1 X-23.470 Y-13.333 E33.69641
G1 X-25.442 Y-20.691 E34.09441
G1 X-26.202 Y-45.122 F6000.000
G1 X-27.078 Y-45.268 E34.14083 F3000.000
G1 X-28.773 Y-43.573 E34.26608
G1 X-28.773 Y-35.552 E34.68514
G1 X-28.497 Y-34.519 E34.74098
G1 X-22.189 Y-32.829 E35.08212
G1 X-20.218 Y-25.471 E35.48012
G1 X-24.835 Y-20.854 E35.82126
G1 X-22.863 Y-13.495 E36.21926
G1 X-16.556 Y-11.805 E36.56040
G1 X-14.584 Y-4.447 E36.95840
G1 X-19.202 Y0.170 E37.29954
G1 X-17.230 Y7.529 E37.69754
G1 X-10.923 Y9.219 E38.03869
G1 X-8.951 Y16.577 E38.43668
G1 X-13.568 Y21.194 E38.77783
G1 X-11.597 Y28.552 E39.17583
G1 X-5.453 Y30.199 E39.50811
G1 X-4.455 Y22.114 E39.93371
G1 X-3.923 Y17.599 E40.17121
G1 X-8.344 Y16.414 E40.41034
G1 X-10.316 Y9.056 E40.80834
G1 X-5.699 Y4.439 E41.14949
G1 X-7.670 Y-2.920 E41.54749
G1 X-13.977 Y-4.610 E41.88863
G1 X-15.949 Y-11.968 E42.28663
G1 X-11.332 Y-16.585 E42.62777
G1 X-13.304 Y-23.944 E43.02577
G1 X-19.611 Y-25.634 E43.36691
G1 X-21.583 Y-32.992 E43.76491
G1 X-16.965 Y-37.609 E44.10605
G1 X-18.641 Y-43.862 E44.44424
G1 X-26.202 Y-45.122 E44.84471
G1 X-5.023 Y-41.592 F6000.000
G1 X-17.960 Y-43.748 E45.52993 F3000.000
G1 X-16.358 Y-37.772 E45.85318
G1 X-10.051 Y-36.082 E46.19432
G1 X-8.080 Y-28.723 E46.59232
G1 X-12.697 Y-24.106 E46.93347
G1 X-10.725 Y-16.748 E47.33147
G1 X-4.418 Y-15.058 E47.67261
G1 X-2.446 Y-7.699 E48.07061
G1 X-7.063 Y-3.082 E48.41175
G1 X-5.092 Y4.276 E48.80975
G1 X-2.456 Y4.982 E48.95231
G1 X-1.584 Y-2.842 E49.36363
G1 X-1.077 Y-7.658 E49.61662
G1 X-1.839 Y-7.862 E49.65783
G1 X-3.811 Y-15.220 E50.05583
G1 X0.089 Y-19.121 E50.34399
G1 X0.333 Y-21.603 E50.47429
G1 X-1.165 Y-27.196 E50.77683
G1 X-7.473 Y-28.886 E51.11797
G1 X-9.444 Y-36.244 E51.51597
G1 X-4.827 Y-40.862 E51.85711
G1 X-5.023 Y-41.592 E51.89663
G1 X-0.000 Y-40.755 F6000.000
G1 X-4.342 Y-41.479 E52.12661 F3000.000
G1 X-4.220 Y-41.024 E52.15119
G1 X1.911 Y-39.381 E52.48282
G1 X2.053 Y-41.097 E52.57277
G1 X-0.000 Y-40.755 E52.68149
G1 X0.515 Y-23.445 F6000.000
G1 X1.013 Y-28.931 E52.96925 F3000.000
G1 X-0.559 Y-27.359 E53.08540
G1 X0.508 Y-23.378 E53.30069
G1 X0.515 Y-23.445 E53.30421
G1 F4800
G1 X0.508 Y-23.378 E53.27216
G1 F4800
G1 X-0.559 Y-27.359 E51.31477
G1 F4800
G1 X0.722 Y-28.640 E50.45421
G1 E50.30421 F2400.00000
G92 E0
G1 X-1.578 Y8.181 F6000.000
G1 X7.533 Y17.773 F6000.000
G1 X7.360 Y23.550 F6000.000
G1 X7.268 Y26.466 F6000.000
G1 X7.267 Y26.500 F6000.000
G1 X18.189 Y25.872 F6000.000
G1 X19.870 Y43.987 F6000.000
G1 E3.00000 F2400.00000
G1 X19.194 Y31.379 E3.65966 F1200.000
G1 X18.561 Y20.365 E4.23604
G1 X17.909 Y9.682 E4.79522
G1 X17.071 Y-3.164 E5.46779
G1 X16.212 Y-15.400 E6.10863
G1 X15.509 Y-24.719 E6.59685
G1 X14.616 Y-35.734 E7.17422
G1 X13.930 Y-43.618 E7.58770
G1 X29.307 Y-46.181 E8.40218
G1 X29.307 Y42.415 E13.03084
G1 X19.930 Y43.977 E13.52754
G1 X19.408 Y44.564 F6000.000
G1 X18.702 Y31.406 E13.91876 F600.000
G1 X18.069 Y20.394 E14.24627
G1 X17.417 Y9.713 E14.56400
G1 X16.580 Y-3.131 E14.94616
G1 X15.721 Y-15.364 E15.31028
G1 X15.018 Y-24.680 E15.58766
G1 X14.125 Y-35.692 E15.91570
G1 X13.399 Y-44.029 E16.16417
G1 X29.800 Y-46.763 E16.65784
G1 X29.800 Y42.832 E19.31802
G1 X19.467 Y44.554 E19.62905
G1 X19.576 Y44.201 F6000.000
G1 X28.773 Y33.556 F6000.000
G1 X28.773 Y32.167 E19.70163 F3000.000
G1 X28.480 Y32.461 E19.72332
G1 X28.773 Y33.556 E19.78258
G1 X22.239 Y11.599 F6000.000
G1 X18.500 Y10.597 E19.98486 F3000.000
G1 X19.373 Y25.176 E20.74790
G1 X20.959 Y31.096 E21.06808
G1 X19.777 Y32.278 E21.15538
G1 X20.372 Y43.362 E21.73534
G1 X27.682 Y42.144 E22.12254
G1 X28.773 Y41.053 E22.20315
G1 X28.773 Y35.984 E22.46798
G1 X27.873 Y32.623 E22.64975
G1 X21.566 Y30.933 E22.99089
G1 X19.594 Y23.575 E23.38889
G1 X24.211 Y18.958 E23.73003
G1 X22.239 Y11.599 E24.12803
G1 X18.578 Y-2.066 F6000.000
G1 X17.366 Y-6.587 E24.37255 F3000.000
G1 X17.733 Y-1.222 E24.65352
G1 X18.578 Y-2.066 E24.71592
G1 X28.773 Y-39.273 F6000.000
G1 X27.163 Y-45.282 E25.04096 F3000.000
G1 X26.540 Y-45.178 E25.07394
G1 X28.335 Y-38.481 E25.43620
G1 X23.718 Y-33.863 E25.77735
G1 X25.689 Y-26.505 E26.17535
G1 X28.773 Y-25.679 E26.34214
G1 X28.773 Y-39.273 E27.05235
G1 X14.832 Y-42.749 F6000.000
G1 X15.405 Y-43.323 E27.09471 F3000.000
G1 X14.505 Y-43.172 E27.14242
G1 X14.715 Y-40.759 E27.26898
G1 X16.197 Y-35.228 E27.56813
G1 X15.268 Y-34.300 E27.63673
G1 X16.209 Y-22.541 E28.25305
G1 X19.858 Y-21.563 E28.45045
G1 X21.830 Y-14.204 E28.84844
G1 X17.213 Y-9.587 E29.18959
G1 X19.185 Y-2.229 E29.58759
G1 X25.492 Y-0.539 E29.92873
G1 X27.463 Y6.820 E30.32673
G1 X22.846 Y11.437 E30.66787
G1 X24.818 Y18.795 E31.06587
G1 X28.773 Y19.855 E31.27980
G1 X28.773 Y6.845 E31.95949
G1 X28.070 Y6.657 E31.99751
G1 X26.099 Y-0.701 E32.39550
G1 X28.773 Y-3.376 E32.59311
G1 X28.773 Y-12.569 E33.07339
G1 X28.744 Y-12.677 E33.07924
G1 X22.437 Y-14.367 E33.42039
G1 X20.465 Y-21.725 E33.81839
