; generated by Slic3r 1.2.9 on 2016-07-17 at 16:36:22

; external perimeters extrusion width = 0.40mm
; perimeters extrusion width = 0.67mm
; infill extrusion width = 0.67mm
; solid infill extrusion width = 0.67mm
; top infill extrusion width = 0.67mm

M107
M104 S215 ; set temperature
G28 ; home all axes
G1 Y-60 Z5 F5000 ; lift nozzle


M109 S215 ; wait for temperature to be reached
G21 ; set units to millimeters
G90 ; use absolute coordinates
M82 ; use absolute distances for extrusion
G92 E0
G1 E-3.00000 F2400.00000
G92 E0
G1 Z0.300 F6000.000
G1 X22.206 Y50.066 F6000.000
G1 E3.00000 F2400.00000
G1 X-23.269 Y49.895 E5.37584 F1800.000
G1 X-23.978 Y49.835 E5.41305
G1 X-30.726 Y48.710 E5.77046
G1 X-32.464 Y48.019 E5.86814
G1 X-33.760 Y46.672 E5.96581
G1 X-34.419 Y44.351 E6.09187
G1 X-34.419 Y-45.649 E10.79391
G1 X-34.023 Y-47.476 E10.89158
G1 X-32.908 Y-48.976 E10.98926
G1 X-31.272 Y-49.881 E11.08693
G1 X-30.000 Y-50.068 E11.15408
G1 X30.000 Y-50.068 E14.28877
G1 X31.827 Y-49.672 E14.38645
G1 X33.327 Y-48.557 E14.48412
G1 X34.232 Y-46.920 E14.58179
G1 X34.419 Y-45.649 E14.64895
G1 X34.419 Y44.351 E19.35099
G1 X34.023 Y46.178 E19.44866
G1 X32.908 Y47.679 E19.54633
G1 X30.726 Y48.710 E19.67239
G1 X22.949 Y50.006 E20.08432
G1 X22.266 Y50.061 E20.12014
G1 F4800
G1 X16.266 Y50.039 E17.27014
G1 E17.12014 F2400.00000
G92 E0
G1 X22.836 Y44.960 F6000.000
G1 E3.00000 F2400.00000
G1 X23.095 Y39.976 E3.26073 F1800.000
G1 X23.320 Y35.137 E3.51384
G1 X23.718 Y25.162 E4.03536
G1 X24.051 Y14.812 E4.57641
G1 X24.320 Y4.111 E5.13565
G1 X24.525 Y-6.914 E5.71176
G1 X24.667 Y-18.237 E6.30335
G1 X24.748 Y-29.829 E6.90899
G1 X24.770 Y-44.192 E7.65938
G1 X29.423 Y-44.967 E7.90584
G1 X29.423 Y43.862 E12.54673
G1 X22.896 Y44.950 E12.89245
G1 X22.435 Y45.409 F6000.000
G1 X22.718 Y39.958 E13.12096 F1800.000
G1 X22.943 Y35.120 E13.32368
G1 X23.341 Y25.149 E13.74142
G1 X23.674 Y14.801 E14.17481
G1 X23.942 Y4.103 E14.62278
G1 X24.148 Y-6.920 E15.08428
G1 X24.290 Y-18.241 E15.55819
G1 X24.371 Y-29.830 E16.04336
G1 X24.393 Y-44.512 E16.65791
G1 X29.800 Y-45.413 E16.88738
G1 X29.800 Y44.182 E20.63783
G1 X22.494 Y45.399 E20.94786
G1 X22.628 Y45.059 F6000.000
G1 X28.962 Y43.472 F6000.000
G1 X28.962 Y42.658 E20.99037 F1800.000
G1 X27.986 Y43.635 E21.06249
G1 X28.962 Y43.472 E21.11420
G1 X28.962 Y33.773 F6000.000
G1 X28.962 Y32.884 E21.16062 F1800.000
G1 X27.873 Y33.973 E21.24110
G1 X23.870 Y32.901 E21.45760
G1 X23.555 Y39.999 E21.82880
G1 X23.326 Y44.411 E22.05964
G1 X26.920 Y43.812 E22.24996
G1 X28.962 Y41.770 E22.40087
G1 X28.962 Y36.825 E22.65924
G1 X28.317 Y34.418 E22.78942
G1 X28.962 Y33.773 E22.83708
G1 X28.962 Y8.246 F6000.000
G1 X28.070 Y8.007 E22.88530 F1800.000
G1 X24.595 Y11.482 E23.14205
G1 X24.512 Y14.825 E23.31676
G1 X24.357 Y19.638 E23.56834
G1 X24.374 Y19.701 E23.57175
G1 X24.354 Y19.720 E23.57319
G1 X24.325 Y20.638 E23.62118
G1 X24.818 Y20.145 E23.65764
G1 X28.962 Y21.255 E23.88178
G1 X28.962 Y8.246 E24.56147
G1 X28.962 Y-1.770 F6000.000
G1 X28.962 Y-2.659 E24.60789 F1800.000
G1 X25.492 Y0.811 E24.86429
G1 X24.845 Y0.638 E24.89926
G1 X24.780 Y4.121 E25.08126
G1 X24.618 Y10.570 E25.41832
G1 X27.626 Y7.563 E25.64056
G1 X25.936 Y1.255 E25.98170
G1 X28.962 Y-1.770 E26.20527
G1 X28.962 Y-24.278 F6000.000
G1 X25.689 Y-25.155 E26.38227 F1800.000
G1 X25.173 Y-24.639 E26.42044
G1 X25.128 Y-18.232 E26.75514
G1 X25.054 Y-12.316 E27.06427
G1 X28.744 Y-11.327 E27.26388
G1 X28.962 Y-11.545 E27.27997
G1 X28.962 Y-24.278 E27.94523
G1 X25.245 Y-25.600 F6000.000
G1 X25.181 Y-25.838 E27.95814 F1800.000
G1 X25.179 Y-25.533 E27.97405
G1 X25.245 Y-25.600 E27.97893
G1 X28.962 Y-37.288 F6000.000
G1 X28.962 Y-44.423 E28.35172 F1800.000
G1 X26.831 Y-44.068 E28.46459
G1 X26.808 Y-44.045 E28.46632
G1 X28.498 Y-37.738 E28.80747
G1 X25.216 Y-34.456 E29.04993
G1 X25.215 Y-33.566 E29.09642
G1 X28.942 Y-37.293 E29.37181
G1 X28.962 Y-37.288 E29.37290
G1 F4800
G1 X28.942 Y-37.293 E29.36301
G1 F4800
G1 X25.215 Y-33.566 E26.85923
G1 F4800
G1 X25.216 Y-34.274 E26.52290
G1 E26.37290 F2400.00000
G92 E0
G1 X23.742 Y4.098 F6000.000
G1 X-1.298 Y14.088 F6000.000
G1 X-1.194 Y19.226 F6000.000
G1 X-1.100 Y23.359 F6000.000
G1 X-1.146 Y23.409 F6000.000
G1 X-25.301 Y25.423 F6000.000
G1 X-23.913 Y44.780 F6000.000
G1 E3.00000 F2400.00000
G1 X-29.423 Y43.862 E3.29181 F1800.000
G1 X-29.423 Y-44.967 E7.93270
G1 X-27.354 Y-44.623 E8.04228
G1 X-27.572 Y-38.216 E8.37717
G1 X-27.703 Y-32.785 E8.66102
G1 X-27.785 Y-27.407 E8.94200
G1 X-27.818 Y-22.085 E9.22007
G1 X-27.803 Y-16.819 E9.49519
G1 X-27.741 Y-11.611 E9.76733
G1 X-27.631 Y-6.460 E10.03647
G1 X-27.379 Y1.150 E10.43428
G1 X-27.157 Y6.147 E10.69562
G1 X-26.893 Y11.080 E10.95368
G1 X-26.590 Y15.946 E11.20843
G1 X-26.068 Y23.116 E11.58400
G1 X-25.677 Y27.808 E11.82998
G1 X-25.029 Y34.700 E12.19164
G1 X-24.558 Y39.196 E12.42784
G1 X-23.920 Y44.721 E12.71838
G1 X-23.481 Y45.235 F6000.000
G1 X-29.800 Y44.182 E12.98654 F1800.000
G1 X-29.800 Y-45.413 E16.73699
G1 X-26.966 Y-44.940 E16.85728
G1 X-27.195 Y-38.205 E17.13937
G1 X-27.326 Y-32.777 E17.36665
G1 X-27.408 Y-27.403 E17.59164
G1 X-27.441 Y-22.084 E17.81430
G1 X-27.426 Y-16.822 E18.03459
G1 X-27.363 Y-11.617 E18.25249
G1 X-27.254 Y-6.470 E18.46797
G1 X-27.002 Y1.135 E18.78652
G1 X-26.780 Y6.129 E18.99576
G1 X-26.516 Y11.058 E19.20238
G1 X-26.214 Y15.921 E19.40635
G1 X-25.692 Y23.087 E19.70710
G1 X-25.301 Y27.775 E19.90402
G1 X-24.654 Y34.663 E20.19362
G1 X-24.183 Y39.155 E20.38271
G1 X-23.488 Y45.175 E20.63639
G1 X-23.812 Y45.011 F6000.000
G1 X-27.746 Y43.675 F6000.000
G1 X-28.962 Y39.137 E20.88184 F1800.000
G1 X-28.962 Y43.472 E21.10834
G1 X-27.746 Y43.675 E21.17274
G1 X-25.487 Y34.745 F6000.000
G1 X-25.550 Y34.081 E21.20759 F1800.000
G1 X-28.962 Y37.493 E21.45970
G1 X-28.962 Y38.382 E21.50612
G1 X-25.472 Y34.892 E21.76397
G1 X-25.487 Y34.745 E21.77168
G1 X-27.254 Y12.697 F6000.000
G1 X-28.962 Y12.240 E21.86407 F1800.000
G1 X-28.962 Y25.249 E22.54376
G1 X-26.313 Y25.959 E22.68702
G1 X-26.295 Y25.940 E22.68840
G1 X-26.527 Y23.152 E22.83459
G1 X-27.050 Y15.977 E23.21041
G1 X-27.254 Y12.697 E23.38211
G1 X-27.840 Y1.168 F6000.000
G1 X-27.851 Y0.839 E23.39930 F1800.000
G1 X-28.962 Y1.950 E23.48141
G1 X-28.962 Y2.839 E23.52783
G1 X-27.816 Y1.693 E23.61248
G1 X-27.840 Y1.168 E23.63996
G1 X-28.091 Y-6.448 F6000.000
G1 X-28.101 Y-6.908 E23.66400 F1800.000
G1 X-28.250 Y-6.759 E23.67500
G1 X-28.081 Y-6.127 E23.70918
G1 X-28.091 Y-6.448 E23.72595
G1 X-28.273 Y-20.100 F6000.000
G1 X-28.962 Y-20.285 E23.76320 F1800.000
G1 X-28.962 Y-7.275 E24.44288
G1 X-28.694 Y-7.203 E24.45736
G1 X-28.120 Y-7.778 E24.49982
G1 X-28.201 Y-11.603 E24.69971
G1 X-28.264 Y-16.816 E24.97207
G1 X-28.273 Y-20.100 E25.14366
G1 X-28.033 Y-38.230 F6000.000
G1 X-27.881 Y-42.671 E25.37581 F1800.000
G1 X-28.962 Y-41.590 E25.45565
G1 X-28.962 Y-33.693 E25.86824
G1 X-28.941 Y-33.614 E25.87250
G1 X-28.962 Y-33.593 E25.87406
G1 X-28.962 Y-32.704 E25.92048
G1 X-28.497 Y-33.170 E25.95487
G1 X-28.157 Y-33.078 E25.97325
G1 X-28.033 Y-38.230 E26.24245
G1 X-27.828 Y-44.234 F6000.000
G1 X-28.962 Y-44.423 E26.30251 F1800.000
G1 X-28.962 Y-42.478 E26.40413
G1 X-27.850 Y-43.590 E26.48628
G1 X-27.828 Y-44.234 E26.51995
G1 F4800
G1 X-27.850 Y-43.590 E26.21384
G1 F4800
G1 X-28.962 Y-42.478 E25.46689
G1 F4800
G1 X-28.962 Y-44.423 E24.54301
G1 F4800
G1 X-27.828 Y-44.234 E23.99698
G1 E23.51995 F2400.00000
G92 E0
G1 Z0.500 F6000.000
G1 X22.973 Y44.820 F6000.000
G1 E3.00000 F2400.00000
G1 X23.435 Y35.392 E3.49319 F1200.000
G1 X23.834 Y25.416 E4.01475
G1 X24.166 Y15.065 E4.55584
G1 X24.435 Y4.363 E5.11513
G1 X24.640 Y-6.663 E5.69127
G1 X24.783 Y-17.986 E6.28289
G1 X24.864 Y-29.578 E6.88857
G1 X24.884 Y-44.094 E7.64693
G1 X29.307 Y-44.831 E7.88119
G1 X29.307 Y43.764 E12.50985
G1 X23.032 Y44.810 E12.84223
G1 X22.449 Y45.407 F6000.000
G1 X22.718 Y40.208 E12.99681 F600.000
G1 X22.943 Y35.370 E13.14059
G1 X23.341 Y25.399 E13.43690
G1 X23.674 Y15.051 E13.74430
G1 X23.942 Y4.353 E14.06204
G1 X24.148 Y-6.670 E14.38938
G1 X24.290 Y-17.991 E14.72552
G1 X24.371 Y-29.580 E15.06965
G1 X24.392 Y-44.511 E15.51297
G1 X29.800 Y-45.413 E15.67574
G1 X29.800 Y44.182 E18.33592
G1 X22.508 Y45.397 E18.55541
G1 X22.642 Y45.056 F6000.000
G1 X28.773 Y34.906 F6000.000
G1 X28.773 Y33.517 E18.62799 F3000.000
G1 X28.480 Y33.811 E18.64968
G1 X28.773 Y34.906 E18.70894
G1 X27.873 Y33.973 F6000.000
G1 X24.067 Y32.953 E18.91479 F3000.000
G1 X23.968 Y35.415 E19.04351
G1 X23.539 Y44.184 E19.50221
G1 X27.682 Y43.494 E19.72168
G1 X28.773 Y42.403 E19.80228
G1 X28.773 Y37.334 E20.06711
G1 X27.873 Y33.973 E20.24888
G1 X28.744 Y-11.327 F6000.000
G1 X25.245 Y-12.265 E20.43814 F3000.000
G1 X25.174 Y-6.654 E20.73128
G1 X25.038 Y0.689 E21.11502
G1 X25.492 Y0.811 E21.13958
G1 X27.463 Y8.170 E21.53758
G1 X24.807 Y10.826 E21.73386
G1 X24.700 Y15.080 E21.95619
G1 X24.567 Y19.210 E22.17206
G1 X24.818 Y20.145 E22.22264
G1 X28.773 Y21.205 E22.43657
G1 X28.773 Y8.195 E23.11626
G1 X28.070 Y8.007 E23.15427
G1 X26.099 Y0.649 E23.55227
G1 X28.773 Y-2.026 E23.74988
G1 X28.773 Y-11.219 E24.23016
G1 X28.744 Y-11.327 E24.23601
G1 X28.773 Y-37.923 F6000.000
G1 X27.163 Y-43.932 E24.56105 F3000.000
G1 X26.540 Y-43.829 E24.59403
G1 X28.335 Y-37.131 E24.95630
G1 X25.404 Y-34.200 E25.17282
G1 X25.375 Y-26.328 E25.58410
G1 X25.689 Y-25.155 E25.64754
G1 X28.773 Y-24.329 E25.81434
G1 X28.773 Y-37.923 E26.52455
G1 F4800
G1 X28.773 Y-31.923 E23.67455
G1 E23.52455 F2400.00000
G92 E0
G1 X23.742 Y4.348 F6000.000
G1 X-1.298 Y14.338 F6000.000
G1 X-1.194 Y19.476 F6000.000
G1 X-1.106 Y23.341 F6000.000
G1 X-1.421 Y23.682 F6000.000
G1 X-25.301 Y25.673 F6000.000
G1 X-24.076 Y44.636 F6000.000
G1 E3.00000 F2400.00000
G1 X-29.307 Y43.764 E3.27707 F1200.000
G1 X-29.307 Y-44.831 E7.90574
G1 X-27.463 Y-44.524 E8.00342
G1 X-27.688 Y-37.970 E8.34603
G1 X-27.818 Y-32.537 E8.62994
G1 X-27.900 Y-27.159 E8.91097
G1 X-27.934 Y-21.835 E9.18910
G1 X-27.919 Y-16.568 E9.46428
G1 X-27.856 Y-11.359 E9.73647
G1 X-27.746 Y-6.207 E10.00567
G1 X-27.495 Y1.404 E10.40355
G1 X-27.272 Y6.403 E10.66496
G1 X-27.008 Y11.336 E10.92307
G1 X-26.705 Y16.204 E11.17788
G1 X-26.183 Y23.375 E11.55352
G1 X-25.792 Y28.068 E11.79956
G1 X-25.144 Y34.961 E12.16127
G1 X-24.673 Y39.459 E12.39754
G1 X-24.083 Y44.577 E12.66668
G1 X-23.512 Y45.230 F6000.000
G1 X-29.800 Y44.182 E12.85597 F600.000
G1 X-29.800 Y-45.413 E15.51614
G1 X-26.956 Y-44.939 E15.60175
G1 X-27.195 Y-37.955 E15.80922
G1 X-27.326 Y-32.527 E15.97043
G1 X-27.408 Y-27.153 E16.13001
G1 X-27.441 Y-21.834 E16.28794
G1 X-27.426 Y-16.572 E16.44419
G1 X-27.363 Y-11.367 E16.59875
G1 X-27.254 Y-6.220 E16.75158
G1 X-27.002 Y1.385 E16.97753
G1 X-26.780 Y6.379 E17.12594
G1 X-26.516 Y11.308 E17.27250
G1 X-26.214 Y16.171 E17.41717
G1 X-25.692 Y23.337 E17.63050
G1 X-25.301 Y28.025 E17.77017
G1 X-24.654 Y34.913 E17.97558
G1 X-24.183 Y39.405 E18.10970
G1 X-23.519 Y45.170 E18.28201
G1 X-23.843 Y45.005 F6000.000
G1 X-27.459 Y43.531 F6000.000
G1 X-28.773 Y38.627 E18.54724 F3000.000
G1 X-28.773 Y41.055 E18.67407
G1 X-28.140 Y43.417 E18.80187
G1 X-27.459 Y43.531 E18.83793
G1 X-26.508 Y25.907 F6000.000
G1 X-28.773 Y25.300 E18.96046 F3000.000
G1 X-28.773 Y37.749 E19.61086
G1 X-25.706 Y34.682 E19.83746
G1 X-26.324 Y28.115 E20.18205
G1 X-26.508 Y25.907 E20.29783
G1 X-27.805 Y6.429 F6000.000
G1 X-28.027 Y1.460 E20.55773 F3000.000
G1 X-28.773 Y2.206 E20.61287
G1 X-28.773 Y12.290 E21.13972
G1 X-27.462 Y12.642 E21.21065
G1 X-27.805 Y6.429 E21.53572
G1 X-28.499 Y-4.504 F6000.000
G1 X-28.582 Y-11.348 E22.27535 F1200.000
G1 X-28.621 Y-21.835 E23.40849
G1 X-28.604 Y-27.168 E23.98479
G1 X-28.499 Y-37.887 E25.14313
G1 X-28.360 Y-38.264 F6000.000
G1 X-28.053 Y-38.572 E25.16629 F1200.000
G1 X-28.927 Y-38.605 E25.21293
G1 X-28.020 Y-39.511 E25.28128
G1 X-28.927 Y-39.512 E25.32960
G1 X-27.988 Y-40.450 E25.40038
G1 X-28.927 Y-40.419 E25.45045
G1 X-27.956 Y-41.389 E25.52364
G1 X-27.924 Y-42.329 E25.57377
G1 X-28.927 Y-41.326 E25.64940
G1 X-28.927 Y-42.233 E25.69778
G1 X-27.892 Y-43.268 E25.77583
G1 X-27.870 Y-44.197 E25.82541
G1 X-28.927 Y-43.140 E25.90513
G1 X-28.927 Y-44.047 E25.95351
G1 X-28.623 Y-44.351 E25.97644
G1 F4800
G1 X-28.927 Y-44.047 E25.77226
G1 F4800
G1 X-28.927 Y-43.140 E25.34138
G1 F4800
G1 X-27.870 Y-44.197 E24.63136
G1 F4800
G1 X-27.892 Y-43.268 E24.18984
G1 F4800
G1 X-28.927 Y-42.233 E23.49470
G1 F4800
G1 X-28.927 Y-41.458 E23.12644
G1 E22.97644 F2400.00000
G92 E0
G1 Z0.700 F6000.000
G1 X22.984 Y44.818 F6000.000
G1 E3.00000 F2400.00000
G1 X23.435 Y35.592 E3.48263 F1200.000
G1 X23.834 Y25.616 E4.00419
G1 X24.166 Y15.265 E4.54528
G1 X24.435 Y4.563 E5.10457
G1 X24.640 Y-6.463 E5.68071
G1 X24.783 Y-17.786 E6.27235
G1 X24.875 Y-32.315 E7.03141
G1 X24.884 Y-44.094 E7.64682
G1 X29.307 Y-44.831 E7.88108
G1 X29.307 Y43.764 E12.50974
G1 X23.043 Y44.808 E12.84154
G1 X22.460 Y45.405 F6000.000
G1 X22.718 Y40.408 E12.99012 F600.000
G1 X22.943 Y35.570 E13.13390
G1 X23.341 Y25.599 E13.43020
G1 X23.674 Y15.251 E13.73760
G1 X23.942 Y4.553 E14.05535
G1 X24.148 Y-6.470 E14.38269
G1 X24.290 Y-17.791 E14.71883
G1 X24.382 Y-32.316 E15.15013
G1 X24.392 Y-44.511 E15.51221
G1 X29.800 Y-45.413 E15.67500
G1 X29.800 Y44.182 E18.33517
G1 X22.519 Y45.395 E18.55432
G1 X22.653 Y45.055 F6000.000
G1 X28.317 Y34.418 F6000.000
G1 X24.062 Y33.277 E18.78448 F3000.000
G1 X23.968 Y35.615 E18.90672
G1 X23.550 Y44.183 E19.35485
G1 X27.682 Y43.494 E19.57375
G1 X28.773 Y42.403 E19.65435
G1 X28.773 Y36.120 E19.98259
G1 X28.317 Y34.418 E20.07468
G1 X28.773 Y21.530 F6000.000
G1 X24.536 Y20.395 E20.30388 F3000.000
G1 X24.367 Y25.636 E20.57783
G1 X24.088 Y32.634 E20.94374
G1 X28.480 Y33.811 E21.18130
G1 X28.773 Y33.517 E21.20299
G1 X28.773 Y21.530 E21.82925
G1 X28.773 Y8.520 F6000.000
G1 X27.463 Y8.170 E21.90009 F3000.000
G1 X24.812 Y10.821 E22.09598
G1 X24.700 Y15.280 E22.32904
G1 X24.557 Y19.750 E22.56267
G1 X28.773 Y20.880 E22.79074
G1 X28.773 Y8.520 E23.43645
G1 X28.773 Y7.870 F6000.000
G1 X28.773 Y-2.026 E23.95346 F3000.000
G1 X26.099 Y0.649 E24.15107
G1 X25.047 Y0.367 E24.20793
G1 X25.035 Y1.014 E24.24175
G1 X25.936 Y1.255 E24.29048
G1 X27.626 Y7.563 E24.63162
G1 X28.773 Y7.870 E24.69367
G1 X28.773 Y-11.645 F6000.000
G1 X25.252 Y-12.588 E24.88414 F3000.000
G1 X25.243 Y-11.940 E24.91802
G1 X28.773 Y-10.994 E25.10893
G1 X28.773 Y-11.645 E25.14292
G1 X28.773 Y-24.654 F6000.000
G1 X25.366 Y-25.567 E25.32719 F3000.000
G1 X25.362 Y-24.918 E25.36112
G1 X28.773 Y-24.004 E25.54562
G1 X28.773 Y-24.654 E25.57960
G1 X28.498 Y-37.738 F6000.000
G1 X26.852 Y-43.880 E25.91185 F3000.000
G1 X25.418 Y-43.641 E25.98777
G1 X25.411 Y-34.206 E26.48071
G1 X28.335 Y-37.131 E26.69678
G1 X28.773 Y-37.013 E26.72049
G1 X28.773 Y-37.664 E26.75447
G1 X28.498 Y-37.738 E26.76938
G1 F4800
G1 X28.773 Y-37.664 E26.63383
G1 F4800
G1 X28.773 Y-37.013 E26.32485
G1 F4800
G1 X28.335 Y-37.131 E26.10934
G1 F4800
G1 X25.411 Y-34.206 E24.14486
G1 F4800
G1 X25.411 Y-34.681 E23.91938
G1 E23.76938 F2400.00000
G92 E0
G1 X23.742 Y4.548 F6000.000
G1 X-1.298 Y14.538 F6000.000
G1 X-1.194 Y19.676 F6000.000
G1 X-1.111 Y23.326 F6000.000
G1 X-1.640 Y23.900 F6000.000
G1 X-25.301 Y25.873 F6000.000
G1 X-24.100 Y44.632 F6000.000
G1 E3.00000 F2400.00000
G1 X-29.307 Y43.764 E3.27578 F1200.000
G1 X-29.307 Y-44.831 E7.90445
G1 X-27.455 Y-44.522 E8.00254
G1 X-27.688 Y-37.770 E8.35553
G1 X-27.818 Y-32.337 E8.63945
G1 X-27.900 Y-26.959 E8.92048
G1 X-27.934 Y-21.635 E9.19861
G1 X-27.919 Y-16.368 E9.47379
G1 X-27.856 Y-11.159 E9.74597
G1 X-27.746 Y-6.007 E10.01518
G1 X-27.495 Y1.604 E10.41306
G1 X-27.272 Y6.603 E10.67446
G1 X-27.008 Y11.536 E10.93257
G1 X-26.705 Y16.404 E11.18739
G1 X-26.183 Y23.575 E11.56302
G1 X-25.792 Y28.268 E11.80906
G1 X-25.144 Y35.161 E12.17078
G1 X-24.673 Y39.659 E12.40705
G1 X-24.107 Y44.573 E12.66545
G1 X-23.536 Y45.226 F6000.000
G1 X-29.800 Y44.182 E12.85400 F600.000
G1 X-29.800 Y-45.413 E15.51418
G1 X-26.948 Y-44.937 E15.60002
G1 X-27.195 Y-37.755 E15.81339
G1 X-27.326 Y-32.327 E15.97460
G1 X-27.408 Y-26.953 E16.13418
G1 X-27.441 Y-21.634 E16.29211
G1 X-27.426 Y-16.372 E16.44837
G1 X-27.363 Y-11.167 E16.60292
G1 X-27.254 Y-6.020 E16.75576
G1 X-27.002 Y1.585 E16.98171
G1 X-26.780 Y6.579 E17.13012
