; generated by Slic3r 1.2.9 on 2016-07-17 at 16:35:59

; external perimeters extrusion width = 0.40mm
; perimeters extrusion width = 0.67mm
; infill extrusion width = 0.67mm
; solid infill extrusion width = 0.67mm
; top infill extrusion width = 0.67mm

M107
M104 S215 ; set temperature
G28 ; home all axes
G1 Y-60 Z5 F5000 ; lift nozzle


M109 S215 ; wait for temperature to be reached
G21 ; set units to millimeters
G90 ; use absolute coordinates
M82 ; use absolute distances for extrusion
G92 E0
G1 E-3.00000 F2400.00000
G92 E0
G1 Z0.300 F6000.000
G1 X-18.366 Y4.355 F6000.000
G1 E3.00000 F2400.00000
G1 X-19.582 Y-0.431 E3.25796 F1800.000
G1 X-20.374 Y-3.785 E3.43804
G1 X-21.510 Y-8.951 E3.71436
G1 X-22.245 Y-12.544 E3.90596
G1 X-23.290 Y-18.033 E4.19788
G1 X-23.986 Y-21.973 E4.40693
G1 X-24.644 Y-25.940 E4.61702
G1 X-25.274 Y-29.981 E4.83070
G1 X-26.168 Y-36.219 E5.15992
G1 X-27.029 Y-42.896 E5.51165
G1 X-26.854 Y-44.757 E5.60932
G1 X-25.925 Y-46.380 E5.70699
G1 X-24.409 Y-47.473 E5.80466
G1 X-22.625 Y-47.842 E5.89983
G1 X22.850 Y-47.670 E8.27567
G1 X24.676 Y-47.268 E8.37334
G1 X26.171 Y-46.146 E8.47102
G1 X27.070 Y-44.507 E8.56869
G1 X27.245 Y-43.009 E8.64749
G1 X26.900 Y-37.053 E8.95919
G1 X26.611 Y-32.566 E9.19408
G1 X26.303 Y-28.191 E9.42322
G1 X25.978 Y-23.930 E9.64651
G1 X25.456 Y-17.755 E9.97025
G1 X24.895 Y-11.847 E10.28032
G1 X24.292 Y-6.211 E10.57644
G1 X23.866 Y-2.608 E10.76597
G1 X23.419 Y0.891 E10.95027
G1 X22.720 Y5.845 E11.21166
G1 X22.225 Y9.029 E11.38003
G1 X21.458 Y13.493 E11.61665
G1 X20.921 Y16.323 E11.76713
G1 X20.359 Y19.057 E11.91295
G1 X19.502 Y22.821 E12.11464
G1 X18.904 Y25.190 E12.24230
G1 X18.287 Y27.428 E12.36359
G1 X17.650 Y29.535 E12.47860
G1 X16.992 Y31.512 E12.58743
G1 X16.316 Y33.354 E12.68998
G1 X15.590 Y35.140 E12.79065
G1 X15.234 Y35.949 E12.83687
G1 X14.551 Y37.392 E12.92023
G1 X13.813 Y38.793 E13.00298
G1 X13.040 Y40.088 E13.08177
G1 X12.634 Y40.697 E13.12000
G1 X12.211 Y41.281 E13.15769
G1 X11.607 Y42.026 E13.20781
G1 X11.289 Y42.378 E13.23261
G1 X10.773 Y42.893 E13.27068
G1 X10.204 Y43.384 E13.30993
G1 X9.886 Y43.626 E13.33083
G1 X9.175 Y44.087 E13.37507
G1 X8.857 Y44.260 E13.39402
G1 X8.384 Y44.483 E13.42134
G1 X8.063 Y44.611 E13.43939
G1 X7.519 Y44.789 E13.46930
G1 X7.194 Y44.873 E13.48681
G1 X6.603 Y44.982 E13.51820
G1 X6.274 Y45.020 E13.53554
G1 X5.672 Y45.048 E13.56702
G1 X5.336 Y45.041 E13.58457
G1 X4.761 Y44.991 E13.61470
G1 X3.909 Y44.829 E13.66000
G1 X3.133 Y44.591 E13.70245
G1 X2.774 Y44.451 E13.72258
G1 X2.424 Y44.297 E13.74256
G1 X1.775 Y43.963 E13.78069
G1 X1.171 Y43.599 E13.81754
G1 X0.789 Y43.341 E13.84162
G1 X0.064 Y42.799 E13.88892
G1 X-0.965 Y41.916 E13.95974
G1 X-1.979 Y40.925 E14.03382
G1 X-2.995 Y39.814 E14.11245
G1 X-4.009 Y38.581 E14.19589
G1 X-4.960 Y37.304 E14.27902
G1 X-5.520 Y36.495 E14.33044
G1 X-6.509 Y34.958 E14.42597
G1 X-7.487 Y33.304 E14.52635
G1 X-8.454 Y31.533 E14.63174
G1 X-9.413 Y29.647 E14.74231
G1 X-10.363 Y27.642 E14.85821
G1 X-11.304 Y25.518 E14.97956
G1 X-12.216 Y23.322 E15.10383
G1 X-13.116 Y21.016 E15.23312
G1 X-13.609 Y19.692 E15.30697
G1 X-14.509 Y17.156 E15.44754
G1 X-15.383 Y14.541 E15.59159
G1 X-16.695 Y10.312 E15.82292
G1 X-17.534 Y7.406 E15.98093
G1 X-18.351 Y4.413 E16.14304
G1 F4800
G1 X-19.582 Y-0.431 E13.76925
G1 F4800
G1 X-19.812 Y-1.406 E13.29304
G1 E13.14304 F2400.00000
G92 E0
G1 X2.955 Y7.228 F6000.000
G1 E3.00000 F2400.00000
G1 X3.588 Y6.716 E3.04251 F1800.000
G1 X4.287 Y6.344 E3.08389
G1 X5.061 Y6.129 E3.12587
G1 X5.790 Y6.085 E3.16401
G1 X6.549 Y6.211 E3.20422
G1 X7.332 Y6.532 E3.24843
G1 X8.198 Y7.160 E3.30432
G1 X9.007 Y8.118 E3.36984
G1 X9.675 Y9.429 E3.44670
G1 X10.075 Y10.921 E3.52740
G1 X10.188 Y12.498 E3.61002
G1 X10.009 Y14.061 E3.69221
G1 X9.612 Y15.362 E3.76329
G1 X9.171 Y16.252 E3.81518
G1 X8.623 Y17.027 E3.86477
G1 X7.975 Y17.668 E3.91237
G1 X7.242 Y18.151 E3.95823
G1 X6.444 Y18.454 E4.00281
G1 X5.625 Y18.555 E4.04597
G1 X5.106 Y18.516 E4.07313
G1 X4.596 Y18.402 E4.10044
G1 X3.802 Y18.055 E4.14571
G1 X3.012 Y17.466 E4.19719
G1 X2.201 Y16.497 E4.26322
G1 X1.585 Y15.304 E4.33336
G1 X1.191 Y13.959 E4.40661
G1 X1.034 Y12.530 E4.48171
G1 X1.120 Y11.090 E4.55706
G1 X1.445 Y9.716 E4.63084
G1 X1.924 Y8.605 E4.69404
G1 X2.398 Y7.862 E4.74011
G1 X2.915 Y7.273 E4.78104
G1 X3.217 Y7.501 F6000.000
G1 X3.797 Y7.032 E4.81224 F1800.000
G1 X4.427 Y6.696 E4.84216
G1 X5.123 Y6.503 E4.87238
G1 X5.770 Y6.464 E4.89950
G1 X6.445 Y6.576 E4.92816
G1 X7.147 Y6.864 E4.95991
G1 X7.939 Y7.438 E5.00087
G1 X8.690 Y8.329 E5.04962
G1 X9.321 Y9.565 E5.10773
G1 X9.701 Y10.984 E5.16922
G1 X9.810 Y12.490 E5.23244
G1 X9.639 Y13.984 E5.29538
G1 X9.260 Y15.223 E5.34959
G1 X8.846 Y16.059 E5.38864
G1 X8.334 Y16.782 E5.42576
G1 X7.736 Y17.374 E5.46095
G1 X7.070 Y17.813 E5.49438
G1 X6.353 Y18.085 E5.52645
G1 X5.615 Y18.176 E5.55757
G1 X5.162 Y18.142 E5.57662
G1 X4.714 Y18.042 E5.59582
G1 X3.993 Y17.727 E5.62877
G1 X3.273 Y17.190 E5.66635
G1 X2.517 Y16.287 E5.71566
G1 X1.937 Y15.163 E5.76859
G1 X1.562 Y13.884 E5.82437
G1 X1.412 Y12.520 E5.88182
G1 X1.495 Y11.145 E5.93949
G1 X1.805 Y9.835 E5.99585
G1 X2.259 Y8.782 E6.04383
G1 X2.701 Y8.089 E6.07827
G1 X3.177 Y7.546 E6.10851
G1 X3.132 Y7.110 F6000.000
G1 X22.214 Y-42.563 F6000.000
G1 X21.771 Y-35.110 E6.49856 F1800.000
G1 X21.475 Y-30.708 E6.72906
G1 X21.161 Y-26.420 E6.95372
G1 X20.829 Y-22.247 E7.17239
G1 X20.479 Y-18.193 E7.38497
G1 X20.113 Y-14.260 E7.59135
G1 X19.728 Y-10.450 E7.79143
G1 X19.326 Y-6.765 E7.98509
G1 X18.906 Y-3.207 E8.17226
G1 X18.468 Y0.221 E8.35284
G1 X18.012 Y3.519 E8.52677
G1 X17.538 Y6.684 E8.69398
G1 X17.048 Y9.716 E8.85441
G1 X16.540 Y12.611 E9.00801
G1 X16.016 Y15.371 E9.15475
G1 X15.477 Y17.993 E9.29460
G1 X14.923 Y20.476 E9.42752
G1 X14.356 Y22.819 E9.55348
G1 X13.775 Y25.021 E9.67243
G1 X13.181 Y27.078 E9.78433
G1 X12.574 Y28.991 E9.88916
G1 X11.955 Y30.758 E9.98695
G1 X11.328 Y32.380 E10.07785
G1 X10.694 Y33.864 E10.16211
G1 X10.380 Y34.546 E10.20136
G1 X9.745 Y35.817 E10.27561
G1 X9.115 Y36.938 E10.34279
G1 X8.494 Y37.899 E10.40257
G1 X7.883 Y38.696 E10.45502
G1 X7.593 Y39.017 E10.47764
G1 X7.305 Y39.296 E10.49857
G1 X7.027 Y39.529 E10.51752
G1 X6.757 Y39.715 E10.53466
G1 X6.495 Y39.857 E10.55022
G1 X6.241 Y39.959 E10.56452
G1 X5.991 Y40.023 E10.57802
G1 X5.740 Y40.052 E10.59124
G1 X5.481 Y40.047 E10.60474
G1 X5.209 Y40.005 E10.61911
G1 X4.920 Y39.925 E10.63480
G1 X4.612 Y39.805 E10.65205
G1 X4.287 Y39.645 E10.67098
G1 X3.953 Y39.449 E10.69121
G1 X3.219 Y38.925 E10.73833
G1 X2.849 Y38.621 E10.76336
G1 X2.055 Y37.896 E10.81951
G1 X1.230 Y37.047 E10.88136
G1 X0.815 Y36.582 E10.91393
G1 X-0.046 Y35.539 E10.98461
G1 X-0.475 Y34.976 E11.02158
G1 X-1.355 Y33.735 E11.10104
G1 X-1.792 Y33.072 E11.14254
G1 X-2.682 Y31.631 E11.23102
G1 X-3.125 Y30.868 E11.27712
G1 X-4.019 Y29.233 E11.37449
G1 X-4.915 Y27.470 E11.47780
G1 X-5.361 Y26.546 E11.53143
G1 X-6.257 Y24.594 E11.64363
G1 X-7.148 Y22.517 E11.76172
G1 X-7.590 Y21.435 E11.82276
G1 X-8.472 Y19.172 E11.94967
G1 X-9.345 Y16.787 E12.08236
G1 X-10.208 Y14.281 E12.22082
G1 X-11.483 Y10.292 E12.43959
G1 X-12.316 Y7.489 E12.59240
G1 X-13.541 Y3.059 E12.83252
G1 X-14.338 Y-0.034 E12.99941
G1 X-15.502 Y-4.891 E13.26031
G1 X-16.255 Y-8.264 E13.44087
G1 X-17.348 Y-13.530 E13.72188
G1 X-18.050 Y-17.171 E13.91562
G1 X-18.731 Y-20.916 E14.11449
G1 X-19.389 Y-24.762 E14.31831
G1 X-20.332 Y-30.716 E14.63324
G1 X-21.216 Y-36.883 E14.95876
G1 X-21.970 Y-42.726 E15.26652
G1 X0.611 Y-38.962 E16.46249
G1 X22.155 Y-42.553 E17.60360
G1 X22.619 Y-43.013 F6000.000
G1 X22.148 Y-35.086 E17.93598 F1800.000
G1 X21.851 Y-30.682 E18.12077
G1 X21.537 Y-26.391 E18.30087
G1 X21.205 Y-22.216 E18.47619
G1 X20.855 Y-18.160 E18.64662
G1 X20.488 Y-14.224 E18.81209
G1 X20.104 Y-10.411 E18.97252
G1 X19.701 Y-6.722 E19.12783
G1 X19.281 Y-3.161 E19.27794
G1 X18.842 Y0.271 E19.42278
G1 X18.385 Y3.573 E19.56231
G1 X17.911 Y6.742 E19.69647
G1 X17.420 Y9.778 E19.82521
G1 X16.911 Y12.679 E19.94849
G1 X16.386 Y15.444 E20.06629
G1 X15.846 Y18.072 E20.17859
G1 X15.291 Y20.562 E20.28537
G1 X14.722 Y22.912 E20.38660
G1 X14.139 Y25.121 E20.48225
G1 X13.542 Y27.188 E20.57230
G1 X12.932 Y29.110 E20.65672
G1 X12.310 Y30.888 E20.73557
G1 X11.678 Y32.523 E20.80892
G1 X11.039 Y34.017 E20.87694
G1 X10.720 Y34.709 E20.90886
G1 X10.078 Y35.994 E20.96898
G1 X9.438 Y37.133 E21.02367
G1 X8.803 Y38.117 E21.07270
G1 X8.173 Y38.937 E21.11600
G1 X7.865 Y39.279 E21.13526
G1 X7.558 Y39.577 E21.15315
G1 X7.255 Y39.829 E21.16966
G1 X6.955 Y40.037 E21.18494
G1 X6.656 Y40.199 E21.19917
G1 X6.359 Y40.318 E21.21259
G1 X6.060 Y40.395 E21.22551
G1 X5.757 Y40.430 E21.23825
G1 X5.448 Y40.423 E21.25119
G1 X5.130 Y40.375 E21.26466
G1 X4.801 Y40.283 E21.27897
G1 X4.460 Y40.151 E21.29428
G1 X4.108 Y39.977 E21.31071
G1 X3.748 Y39.765 E21.32819
G1 X2.990 Y39.225 E21.36717
G1 X2.602 Y38.906 E21.38818
G1 X1.792 Y38.167 E21.43407
G1 X0.954 Y37.304 E21.48442
G1 X0.529 Y36.828 E21.51116
G1 X-0.341 Y35.773 E21.56839
G1 X-0.779 Y35.200 E21.59859
G1 X-1.666 Y33.948 E21.66280
G1 X-2.110 Y33.275 E21.69656
G1 X-3.006 Y31.825 E21.76790
G1 X-3.454 Y31.053 E21.80526
G1 X-4.353 Y29.409 E21.88371
G1 X-5.253 Y27.638 E21.96689
G1 X-5.703 Y26.706 E22.01018
G1 X-6.601 Y24.747 E22.10042
G1 X-7.496 Y22.662 E22.19537
G1 X-7.941 Y21.575 E22.24454
G1 X-8.825 Y19.305 E22.34652
G1 X-9.701 Y16.913 E22.45315
G1 X-10.566 Y14.400 E22.56442
G1 X-11.844 Y10.404 E22.74004
G1 X-12.679 Y7.593 E22.86279
G1 X-13.906 Y3.156 E23.05547
G1 X-14.704 Y0.057 E23.18946
G1 X-15.870 Y-4.806 E23.39877
G1 X-16.623 Y-8.184 E23.54368
G1 X-17.718 Y-13.456 E23.76906
G1 X-18.421 Y-17.102 E23.92448
G1 X-19.103 Y-20.851 E24.08399
G1 X-19.762 Y-24.700 E24.24748
G1 X-20.705 Y-30.659 E24.50003
G1 X-21.590 Y-36.832 E24.76107
G1 X-22.409 Y-43.181 E25.02904
G1 X0.611 Y-39.345 E26.00592
G1 X22.559 Y-43.003 E26.93739
G1 X22.424 Y-42.663 F6000.000
G1 X21.239 Y-39.068 F6000.000
G1 X21.564 Y-39.394 E26.96143 F1800.000
G1 X21.312 Y-35.139 E27.18409
G1 X20.953 Y-29.897 E27.45860
G1 X17.986 Y-26.930 E27.67783
G1 X11.679 Y-28.620 E28.01897
G1 X6.292 Y-23.233 E28.41697
G1 X7.982 Y-16.926 E28.75812
G1 X2.596 Y-11.539 E29.15612
G1 X-3.711 Y-13.230 E29.49726
G1 X-9.098 Y-7.843 E29.89526
G1 X-7.408 Y-1.536 E30.23640
G1 X-12.795 Y3.851 E30.63440
G1 X-12.848 Y3.837 E30.63728
G1 X-13.096 Y2.940 E30.68589
G1 X-13.891 Y-0.146 E30.85236
G1 X-15.053 Y-4.995 E31.11288
G1 X-15.804 Y-8.361 E31.29307
G1 X-16.090 Y-9.737 E31.36649
G1 X-15.850 Y-9.977 E31.38424
G1 X-9.542 Y-8.287 E31.72538
G1 X-4.156 Y-13.674 E32.12338
G1 X-5.846 Y-19.981 E32.46452
G1 X-0.459 Y-25.368 E32.86252
G1 X5.848 Y-23.678 E33.20366
G1 X11.235 Y-29.064 E33.60166
G1 X9.545 Y-35.372 E33.94281
G1 X14.932 Y-40.758 E34.34081
G1 X21.239 Y-39.068 E34.68195
G1 X9.101 Y-35.816 F6000.000
G1 X2.793 Y-37.506 E35.02309 F1800.000
G1 X-2.593 Y-32.119 E35.42109
G1 X-0.903 Y-25.812 E35.76223
G1 X-6.290 Y-20.425 E36.16023
G1 X-12.597 Y-22.115 E36.50137
G1 X-17.574 Y-17.138 E36.86912
G1 X-17.712 Y-17.889 E36.90900
G1 X-13.041 Y-22.560 E37.25410
G1 X-14.731 Y-28.867 E37.59524
G1 X-9.345 Y-34.253 E37.99324
G1 X-3.038 Y-32.563 E38.33439
G1 X2.349 Y-37.950 E38.73238
G1 X2.135 Y-38.749 E38.77561
G1 X14.014 Y-40.729 E39.40477
G1 X9.101 Y-35.816 E39.76779
G1 X20.701 Y-26.455 F6000.000
G1 X20.111 Y-19.280 E40.14390 F1800.000
G1 X15.178 Y-14.348 E40.50834
G1 X16.868 Y-8.040 E40.84948
G1 X11.482 Y-2.654 E41.24748
G1 X5.174 Y-4.344 E41.58862
G1 X-0.212 Y1.043 E41.98662
G1 X1.478 Y7.350 E42.32776
G1 X-3.909 Y12.737 E42.72576
G1 X-10.216 Y11.047 E43.06690
G1 X-10.627 Y11.458 E43.09725
G1 X-10.842 Y10.784 E43.13418
G1 X-10.661 Y10.603 E43.14760
G1 X-12.351 Y4.295 E43.48875
G1 X-6.964 Y-1.091 E43.88675
G1 X-0.657 Y0.599 E44.22789
G1 X4.730 Y-4.788 E44.62589
G1 X3.040 Y-11.095 E44.96703
G1 X8.427 Y-16.482 E45.36503
G1 X14.734 Y-14.792 E45.70617
G1 X20.121 Y-20.179 E46.10417
G1 X18.431 Y-26.486 E46.44531
G1 X20.883 Y-28.938 E46.62652
G1 X20.701 Y-26.455 E46.75662
G1 X18.907 Y-7.169 F6000.000
G1 X18.449 Y-3.264 E46.96206 F1800.000
G1 X18.011 Y0.161 E47.14240
G1 X17.556 Y3.453 E47.31608
G1 X17.265 Y5.401 E47.41894
G1 X14.060 Y4.542 E47.59227
G1 X9.848 Y8.754 E47.90350
G1 X9.548 Y8.166 E47.93801
G1 X13.616 Y4.098 E48.23858
G1 X11.926 Y-2.209 E48.57972
G1 X17.313 Y-7.596 E48.97772
G1 X18.907 Y-7.169 E49.06396
G1 X1.516 Y8.389 F6000.000
G1 X1.006 Y9.570 E49.13120 F1800.000
G1 X0.662 Y11.023 E49.20917
G1 X0.572 Y12.541 E49.28865
G1 X0.737 Y14.049 E49.36791
G1 X1.155 Y15.476 E49.44560
G1 X1.815 Y16.754 E49.52072
G1 X2.694 Y17.803 E49.59222
G1 X3.569 Y18.456 E49.64928
G1 X4.452 Y18.842 E49.69963
G1 X5.038 Y18.973 E49.73101
G1 X5.636 Y19.018 E49.76233
G1 X6.556 Y18.904 E49.81076
G1 X7.453 Y18.564 E49.86089
G1 X8.267 Y18.028 E49.91180
G1 X8.976 Y17.326 E49.96390
G1 X9.568 Y16.489 E50.01747
G1 X10.042 Y15.533 E50.07322
G1 X10.113 Y15.301 E50.08593
G1 X10.363 Y16.236 E50.13652
G1 X4.977 Y21.623 E50.53452
G1 X-1.331 Y19.933 E50.87566
G1 X-5.826 Y24.428 E51.20779
G1 X-6.093 Y23.807 E51.24313
G1 X-1.775 Y19.488 E51.56218
G1 X-3.465 Y13.181 E51.90332
G1 X1.847 Y7.869 E52.29579
G1 X1.516 Y8.389 E52.32797
G1 X-4.190 Y14.957 F6000.000
G1 X4.093 Y26.760 F6000.000
G1 X9.276 Y22.673 F6000.000
G1 X11.291 Y19.632 F6000.000
G1 X11.961 Y18.186 F6000.000
G1 X12.287 Y17.310 F6000.000
G1 X15.064 Y17.904 F6000.000
G1 X15.043 Y17.815 F6000.000
G1 X14.475 Y20.372 E52.46480 F1800.000
G1 X13.909 Y22.706 E52.59029
G1 X13.331 Y24.898 E52.70872
G1 X12.740 Y26.945 E52.82003
G1 X12.137 Y28.845 E52.92418
G1 X11.752 Y29.943 E52.98496
G1 X7.555 Y28.818 E53.21198
G1 X2.169 Y34.205 E53.60998
G1 X3.289 Y38.386 E53.83613
G1 X2.376 Y37.565 E53.90028
G1 X1.568 Y36.733 E53.96091
G1 X1.165 Y36.282 E53.99250
G1 X0.315 Y35.252 E54.06225
G1 X-0.104 Y34.703 E54.09834
G1 X-0.975 Y33.475 E54.17697
G1 X-1.325 Y32.944 E54.21024
G1 X1.724 Y33.761 E54.37519
G1 X7.111 Y28.374 E54.77319
G1 X5.421 Y22.067 E55.11433
G1 X10.808 Y16.680 E55.51233
G1 X15.043 Y17.815 E55.74142
G1 X-11.340 Y-40.487 F6000.000
G1 X-9.789 Y-34.698 E56.05455 F1800.000
G1 X-15.176 Y-29.311 E56.45255
G1 X-19.841 Y-30.561 E56.70487
G1 X-20.760 Y-36.945 E57.04186
G1 X-21.178 Y-40.191 E57.21285
G1 X-19.520 Y-41.850 E57.33541
G1 X-11.340 Y-40.487 E57.76863
G1 X-20.281 Y-41.977 F6000.000
G1 X-21.280 Y-40.979 E57.84241 F1800.000
G1 X-21.433 Y-42.169 E57.90513
G1 X-20.281 Y-41.977 E57.96615
M106 S160.65
G1 F4800
G1 X-21.433 Y-42.169 E57.41137
G1 F4800
G1 X-21.280 Y-40.979 E56.84116
G1 F4800
G1 X-20.281 Y-41.977 E56.17036
G1 E54.96615 F2400.00000
G92 E0
G1 Z0.500 F6000.000
G1 X6.580 Y6.349 F6000.000
G1 E3.00000 F2400.00000
G1 X7.388 Y6.680 E3.04562 F1800.000
G1 X8.277 Y7.325 E3.10297
G1 X9.103 Y8.304 E3.16992
G1 X9.783 Y9.638 E3.24810
G1 X10.190 Y11.152 E3.33002
G1 X10.304 Y12.751 E3.41377
G1 X10.123 Y14.335 E3.49708
G1 X9.720 Y15.655 E3.56920
G1 X9.271 Y16.562 E3.62206
G1 X8.711 Y17.352 E3.67264
G1 X8.048 Y18.008 E3.72137
G1 X7.295 Y18.505 E3.76850
G1 X6.472 Y18.816 E3.81447
G1 X5.628 Y18.921 E3.85895
G1 X5.089 Y18.881 E3.88715
G1 X4.560 Y18.762 E3.91548
G1 X3.744 Y18.406 E3.96203
G1 X2.932 Y17.800 E4.01490
G1 X2.104 Y16.811 E4.08230
G1 X1.477 Y15.597 E4.15369
G1 X1.077 Y14.231 E4.22805
G1 X0.918 Y12.783 E4.30420
G1 X1.005 Y11.323 E4.38058
G1 X1.335 Y9.929 E4.45541
G1 X1.822 Y8.801 E4.51962
G1 X2.306 Y8.042 E4.56664
G1 X2.875 Y7.394 E4.61168
G1 X3.524 Y6.869 E4.65529
G1 X4.240 Y6.487 E4.69772
G1 X5.006 Y6.266 E4.73937
G1 X5.796 Y6.219 E4.78068
G1 X6.521 Y6.339 E4.81911
G1 X6.445 Y6.826 F6000.000
G1 X7.147 Y7.114 E4.84163 F1800.000
G1 X7.939 Y7.688 E4.87069
G1 X8.690 Y8.579 E4.90527
G1 X9.321 Y9.815 E4.94648
G1 X9.701 Y11.234 E4.99010
G1 X9.810 Y12.740 E5.03494
G1 X9.639 Y14.234 E5.07958
G1 X9.260 Y15.473 E5.11803
G1 X8.846 Y16.309 E5.14573
G1 X8.334 Y17.032 E5.17206
G1 X7.736 Y17.624 E5.19702
G1 X7.070 Y18.063 E5.22073
G1 X6.353 Y18.335 E5.24348
G1 X5.615 Y18.426 E5.26555
G1 X5.162 Y18.392 E5.27906
G1 X4.714 Y18.292 E5.29268
G1 X3.993 Y17.977 E5.31605
G1 X3.273 Y17.440 E5.34271
G1 X2.517 Y16.537 E5.37768
G1 X1.937 Y15.413 E5.41523
G1 X1.562 Y14.134 E5.45479
G1 X1.412 Y12.770 E5.49554
G1 X1.495 Y11.395 E5.53644
