; generated by Slic3r 1.2.9 on 2016-07-14 at 19:16:22

; external perimeters extrusion width = 0.30mm
; perimeters extrusion width = 0.31mm
; infill extrusion width = 0.31mm
; solid infill extrusion width = 0.31mm
; top infill extrusion width = 0.31mm

M107
M104 S215 ; set temperature
G28 ; home all axes
G1 Z5 F5000 ; lift nozzle

M109 S215 ; wait for temperature to be reached
G21 ; set units to millimeters
G90 ; use absolute coordinates
M82 ; use absolute distances for extrusion
G92 E0
G1 E-2.00000 F2400.00000
G92 E0
G1 Z0.100 F7800.000
G1 X-3.187 Y23.354 F7800.000
G1 E2.00000 F2400.00000
G1 X-55.729 Y16.072 E2.53591 F1800.000
G1 X-57.832 Y15.380 E2.55828
G1 X-59.556 Y13.990 E2.58065
G1 X-60.679 Y12.082 E2.60302
G1 X-61.016 Y10.667 E2.61773
G1 X-64.539 Y-19.594 E2.92552
G1 X-64.397 Y-21.803 E2.94789
G1 X-63.485 Y-23.821 E2.97026
G1 X-61.920 Y-25.387 E2.99263
G1 X-59.903 Y-26.302 E3.01500
G1 X-58.677 Y-26.481 E3.02752
G1 X-40.890 Y-27.238 E3.20739
G1 X-22.324 Y-27.940 E3.39511
G1 X-3.569 Y-28.561 E3.58469
G1 X12.257 Y-29.017 E3.74466
G1 X31.217 Y-29.477 E3.93627
G1 X40.677 Y-29.670 E4.03187
G1 X50.380 Y-29.843 E4.12991
G1 X52.564 Y-29.481 E4.15228
G1 X54.481 Y-28.372 E4.17465 F1800.000
G1 X55.884 Y-26.659 E4.19703
G1 X56.341 Y-25.619 E4.20851
G1 X64.264 Y-1.848 E4.46166
G1 X64.577 Y0.344 E4.48403
G1 X64.264 Y2.060 E4.50165
G1 X56.413 Y25.615 E4.75251
G1 X55.347 Y27.556 E4.77488
G1 X53.666 Y28.997 E4.79725
G1 X51.585 Y29.752 E4.81962
G1 X49.941 Y29.809 E4.83623
G1 X45.179 Y29.328 E4.88459
G1 X39.217 Y28.690 E4.94517
G1 X33.237 Y28.017 E5.00597
G1 X27.194 Y27.305 E5.06745
G1 X21.135 Y26.561 E5.12912
G1 X12.004 Y25.392 E5.22213
G1 X-3.143 Y23.360 E5.37653
G1 F6240
G1 X-8.294 Y22.646 E3.47653
G1 E3.37653 F2400.00000
G92 E0
G1 X12.252 Y18.731 F7800.000
G1 E2.00000 F2400.00000
G1 X3.689 Y17.592 E2.08728 F1800.000
G1 X-5.535 Y16.334 E2.18133
G1 X-54.272 Y9.575 E2.67844
G1 X-51.115 Y0.106 E2.77929
G1 X-57.777 Y-19.878 E2.99211
G1 X-43.682 Y-20.483 E3.13465
G1 X-31.391 Y-20.968 E3.25892
G1 X-15.901 Y-21.524 E3.41552
G1 X-3.311 Y-21.930 E3.54279
G1 X12.437 Y-22.384 E3.70196
G1 X25.057 Y-22.701 E3.82950
G1 X37.662 Y-22.974 E3.95688
G1 X50.152 Y-23.202 E4.08309
G1 X56.725 Y-3.483 E4.29310
G1 X57.921 Y0.106 E4.33131 F1800.000
G1 X50.233 Y23.169 E4.57693
G1 X42.916 Y22.417 E4.65124
G1 X33.989 Y21.424 E4.74199
G1 X24.983 Y20.352 E4.83362
G1 X12.296 Y18.737 E4.96284
G1 X12.273 Y18.914 F7800.000
G1 X3.665 Y17.769 E5.05057 F1800.000
G1 X-5.559 Y16.511 E5.14463
G1 X-54.509 Y9.722 E5.64392
G1 X-51.304 Y0.106 E5.74633
G1 X-58.021 Y-20.046 E5.96094
G1 X-43.689 Y-20.662 E6.10587
G1 X-31.398 Y-21.146 E6.23015
G1 X-15.907 Y-21.702 E6.38676
G1 X-3.316 Y-22.109 E6.51404
G1 X12.433 Y-22.562 E6.67322
G1 X25.053 Y-22.879 E6.80076
G1 X37.658 Y-23.153 E6.92815
G1 X50.280 Y-23.383 E7.05569
G1 X56.906 Y-3.502 E7.26741
G1 X58.109 Y0.106 E7.30584 F1800.000
G1 X50.357 Y23.361 E7.55350
G1 X42.897 Y22.594 E7.62926
G1 X33.969 Y21.601 E7.72003
G1 X24.962 Y20.529 E7.81167
G1 X12.317 Y18.920 E7.94045
G1 X12.294 Y19.097 F7800.000
G1 X3.641 Y17.946 E8.02864 F1800.000
G1 X-5.583 Y16.687 E8.12270
G1 X-54.746 Y9.870 E8.62417
G1 X-51.492 Y0.106 E8.72815
G1 X-58.265 Y-20.214 E8.94455
G1 X-43.696 Y-20.840 E9.09188
G1 X-31.404 Y-21.325 E9.21617
G1 X-15.913 Y-21.880 E9.37278
G1 X-3.322 Y-22.287 E9.50006
G1 X12.428 Y-22.741 E9.65925
G1 X25.049 Y-23.058 E9.78680
G1 X37.655 Y-23.331 E9.91419
G1 X50.407 Y-23.564 E10.04306
G1 X57.076 Y-3.559 E10.25610
G1 X58.297 Y0.106 E10.29513 F1800.000
G1 X50.482 Y23.553 E10.54484
G1 X42.878 Y22.772 E10.62206
G1 X33.948 Y21.779 E10.71284
G1 X24.940 Y20.706 E10.80450
G1 X12.338 Y19.103 E10.93284
G1 X12.179 Y18.820 F7800.000
G1 X11.645 Y-19.252 F7800.000
G1 X11.645 Y-22.173 E10.96235 F1800.000
G1 X6.884 Y-22.036 E11.01048
G1 X6.884 Y-19.252 E11.03860
G1 X9.139 Y-17.950 E11.06492
G1 X9.139 Y-14.912 E11.09562
G1 X6.884 Y-13.609 E11.12193
G1 X6.884 Y-10.571 E11.15263
G1 X9.139 Y-9.269 E11.17894
G1 X9.139 Y-6.230 E11.20964
G1 X6.884 Y-4.928 E11.23596
G1 X6.884 Y-1.889 E11.26666
G1 X9.139 Y-0.587 E11.29297
G1 X9.139 Y2.452 E11.32367
G1 X6.884 Y3.754 E11.34999
G1 X6.884 Y6.793 E11.38069
G1 X9.139 Y8.095 E11.40700
G1 X9.139 Y11.133 E11.43770
G1 X6.884 Y12.436 E11.46401
G1 X6.884 Y15.474 E11.49471
G1 X9.139 Y16.777 E11.52103
G1 X9.139 Y18.128 E11.53468
G1 X9.390 Y18.161 E11.53723
G1 X9.390 Y16.777 E11.55122
G1 X11.645 Y15.474 E11.57754
G1 X11.645 Y12.436 E11.60824
G1 X9.390 Y11.133 E11.63455
G1 X9.390 Y8.095 E11.66525
G1 X11.645 Y6.793 E11.69156
G1 X11.645 Y3.754 E11.72226
G1 X9.390 Y2.452 E11.74858
G1 X9.390 Y-0.587 E11.77928
G1 X11.645 Y-1.889 E11.80559
G1 X11.645 Y-4.928 E11.83629
G1 X9.390 Y-6.230 E11.86261
G1 X9.390 Y-9.269 E11.89331
G1 X11.645 Y-10.571 E11.91962
G1 X11.645 Y-13.609 E11.95032
G1 X9.390 Y-14.912 E11.97663
G1 X9.390 Y-17.950 E12.00733
G1 X11.645 Y-19.252 E12.03365
G1 X6.633 Y-19.252 F7800.000
G1 X6.633 Y-22.029 E12.06170 F1800.000
G1 X1.871 Y-21.892 E12.10983
G1 X1.871 Y-19.252 E12.13649
G1 X4.127 Y-17.950 E12.16281
G1 X4.127 Y-14.912 E12.19351
G1 X1.871 Y-13.609 E12.21982
G1 X1.871 Y-10.571 E12.25052
G1 X4.127 Y-9.269 E12.27683
G1 X4.127 Y-6.230 E12.30753
G1 X1.871 Y-4.928 E12.33385
G1 X1.871 Y-1.889 E12.36455
G1 X4.127 Y-0.587 E12.39086
G1 X4.127 Y2.452 E12.42156
G1 X1.871 Y3.754 E12.44788
G1 X1.871 Y6.793 E12.47858
G1 X4.127 Y8.095 E12.50489
G1 X4.127 Y11.133 E12.53559
G1 X1.871 Y12.436 E12.56190
G1 X1.871 Y15.474 E12.59260
G1 X4.127 Y16.777 E12.61892
G1 X4.127 Y17.461 E12.62583
G1 X4.377 Y17.494 E12.62839
G1 X4.377 Y16.777 E12.63564
G1 X6.633 Y15.474 E12.66195
G1 X6.633 Y12.436 E12.69265
G1 X4.377 Y11.133 E12.71896
G1 X4.377 Y8.095 E12.74966
G1 X6.633 Y6.793 E12.77598
G1 X6.633 Y3.754 E12.80668
G1 X4.377 Y2.452 E12.83299
G1 X4.377 Y-0.587 E12.86369
G1 X6.633 Y-1.889 E12.89001
G1 X6.633 Y-4.928 E12.92071
G1 X4.377 Y-6.230 E12.94702
G1 X4.377 Y-9.269 E12.97772
G1 X6.633 Y-10.571 E13.00403
G1 X6.633 Y-13.609 E13.03473
G1 X4.377 Y-14.912 E13.06105
G1 X4.377 Y-17.950 E13.09175
G1 X6.633 Y-19.252 E13.11806
G1 X1.621 Y-19.252 F7800.000
G1 X1.621 Y-21.885 E13.14465 F1800.000
G1 X-3.141 Y-21.747 E13.19278
G1 X-3.141 Y-19.252 E13.21799
G1 X-0.886 Y-17.950 E13.24431
G1 X-0.886 Y-14.912 E13.27501
G1 X-3.141 Y-13.609 E13.30132
G1 X-3.141 Y-10.571 E13.33202
G1 X-0.886 Y-9.269 E13.35833
G1 X-0.886 Y-6.230 E13.38903
G1 X-3.141 Y-4.928 E13.41535
G1 X-3.141 Y-1.889 E13.44605
G1 X-0.886 Y-0.587 E13.47236
G1 X-0.886 Y2.452 E13.50306
G1 X-3.141 Y3.754 E13.52938
G1 X-3.141 Y6.793 E13.56008
G1 X-0.886 Y8.095 E13.58639
G1 X-0.886 Y11.133 E13.61709
G1 X-3.141 Y12.436 E13.64340
G1 X-3.141 Y15.474 E13.67410
G1 X-0.886 Y16.778 E13.70043
G1 X-0.635 Y16.813 E13.70298
G1 X-0.635 Y16.777 E13.70335
G1 X1.621 Y15.474 E13.72966
G1 X1.621 Y12.436 E13.76036
G1 X-0.635 Y11.133 E13.78667
G1 X-0.635 Y8.095 E13.81737
G1 X1.621 Y6.793 E13.84369
G1 X1.621 Y3.754 E13.87439
G1 X-0.635 Y2.452 E13.90070
G1 X-0.635 Y-0.587 E13.93140
G1 X1.621 Y-1.889 E13.95772
G1 X1.621 Y-4.928 E13.98842
G1 X-0.635 Y-6.230 E14.01473
G1 X-0.635 Y-9.269 E14.04543
G1 X1.621 Y-10.571 E14.07174
G1 X1.621 Y-13.609 E14.10244
G1 X-0.635 Y-14.912 E14.12876
G1 X-0.635 Y-17.950 E14.15946
G1 X1.621 Y-19.252 E14.18577
G1 X-3.392 Y-19.252 F7800.000
G1 X-3.392 Y-21.740 E14.21090 F1800.000
G1 X-8.154 Y-21.586 E14.25904
G1 X-8.154 Y-19.252 E14.28261
G1 X-5.898 Y-17.950 E14.30893
G1 X-5.898 Y-14.912 E14.33963
G1 X-8.154 Y-13.609 E14.36594
G1 X-8.154 Y-10.571 E14.39664
G1 X-5.898 Y-9.269 E14.42296
G1 X-5.898 Y-6.230 E14.45366
G1 X-8.154 Y-4.928 E14.47997
G1 X-8.154 Y-1.889 E14.51067
G1 X-5.898 Y-0.587 E14.53698
G1 X-5.898 Y2.452 E14.56768
G1 X-8.154 Y3.754 E14.59400
G1 X-8.154 Y6.793 E14.62470
G1 X-5.898 Y8.095 E14.65101
G1 X-5.898 Y11.133 E14.68171
G1 X-8.154 Y12.436 E14.70803
G1 X-8.154 Y15.474 E14.73873
G1 X-7.455 Y15.878 E14.74688
G1 X-4.740 Y16.253 E14.77457
G1 X-3.392 Y15.474 E14.79030
G1 X-3.392 Y12.436 E14.82100
G1 X-5.647 Y11.133 E14.84731
G1 X-5.647 Y8.095 E14.87801
G1 X-3.392 Y6.793 E14.90432
G1 X-3.392 Y3.754 E14.93502
G1 X-5.647 Y2.452 E14.96134
G1 X-5.647 Y-0.587 E14.99204
G1 X-3.392 Y-1.889 E15.01835
G1 X-3.392 Y-4.928 E15.04905
G1 X-5.647 Y-6.230 E15.07537
G1 X-5.647 Y-9.269 E15.10607
G1 X-3.392 Y-10.571 E15.13238
G1 X-3.392 Y-13.609 E15.16308
G1 X-5.647 Y-14.912 E15.18939
G1 X-5.647 Y-17.950 E15.22009
G1 X-3.392 Y-19.252 E15.24641
G1 X-8.404 Y-19.252 F7800.000
G1 X-8.404 Y-21.578 E15.26990 F1800.000
G1 X-13.166 Y-21.424 E15.31804
G1 X-13.166 Y-19.252 E15.33998
G1 X-10.910 Y-17.950 E15.36629
G1 X-10.910 Y-14.912 E15.39699
G1 X-13.166 Y-13.609 E15.42330
G1 X-13.166 Y-10.571 E15.45400
G1 X-10.910 Y-9.269 E15.48032
G1 X-10.910 Y-6.230 E15.51102
G1 X-13.166 Y-4.928 E15.53733
G1 X-13.166 Y-1.889 E15.56803
G1 X-10.910 Y-0.587 E15.59435
G1 X-10.910 Y2.452 E15.62505
G1 X-13.166 Y3.754 E15.65136
G1 X-13.166 Y6.793 E15.68206
G1 X-10.910 Y8.095 E15.70837
G1 X-10.910 Y11.133 E15.73907
G1 X-13.166 Y12.436 E15.76539
G1 X-13.166 Y15.086 E15.79216
G1 X-8.784 Y15.694 E15.83686
G1 X-8.404 Y15.474 E15.84129
G1 X-8.404 Y12.436 E15.87199
G1 X-10.660 Y11.133 E15.89830
G1 X-10.660 Y8.095 E15.92900
G1 X-8.404 Y6.793 E15.95532
G1 X-8.404 Y3.754 E15.98602
G1 X-10.660 Y2.452 E16.01233
G1 X-10.660 Y-0.587 E16.04303
G1 X-8.404 Y-1.889 E16.06935
G1 X-8.404 Y-4.928 E16.10005
G1 X-10.660 Y-6.230 E16.12636
G1 X-10.660 Y-9.269 E16.15706
G1 X-8.404 Y-10.571 E16.18337
G1 X-8.404 Y-13.609 E16.21407
G1 X-10.660 Y-14.912 E16.24039
G1 X-10.660 Y-17.950 E16.27109
G1 X-8.404 Y-19.252 E16.29740
G1 X-13.417 Y-19.252 F7800.000
G1 X-13.417 Y-21.416 E16.31926 F1800.000
G1 X-18.178 Y-21.254 E16.36740
G1 X-18.178 Y-19.252 E16.38762
G1 X-15.923 Y-17.950 E16.41393
G1 X-15.923 Y-14.912 E16.44463
G1 X-18.178 Y-13.609 E16.47095
G1 X-18.178 Y-10.571 E16.50165
G1 X-15.923 Y-9.269 E16.52796
G1 X-15.923 Y-6.230 E16.55866
G1 X-18.178 Y-4.928 E16.58497
G1 X-18.178 Y-1.889 E16.61567
G1 X-15.923 Y-0.587 E16.64199
G1 X-15.923 Y2.452 E16.67269
G1 X-18.178 Y3.754 E16.69900
G1 X-18.178 Y6.793 E16.72970
G1 X-15.923 Y8.095 E16.75602
G1 X-15.923 Y11.133 E16.78672
G1 X-18.178 Y12.436 E16.81303
G1 X-18.178 Y14.391 E16.83278
G1 X-13.417 Y15.051 E16.88135
G1 X-13.417 Y12.436 E16.90778
G1 X-15.672 Y11.133 E16.93409
G1 X-15.672 Y8.095 E16.96479
G1 X-13.417 Y6.793 E16.99110
G1 X-13.417 Y3.754 E17.02180
G1 X-15.672 Y2.452 E17.04812
G1 X-15.672 Y-0.587 E17.07882
G1 X-13.417 Y-1.889 E17.10513
G1 X-13.417 Y-4.928 E17.13583
G1 X-15.672 Y-6.230 E17.16215
G1 X-15.672 Y-9.269 E17.19285
G1 X-13.417 Y-10.571 E17.21916
G1 X-13.417 Y-13.609 E17.24986
G1 X-15.672 Y-14.912 E17.27617
G1 X-15.672 Y-17.950 E17.30687
G1 X-13.417 Y-19.252 E17.33319
G1 X-18.429 Y-19.252 F7800.000
G1 X-18.429 Y-21.245 E17.35332 F1800.000
G1 X-23.191 Y-21.074 E17.40146
G1 X-23.191 Y-19.252 E17.41986
G1 X-20.935 Y-17.950 E17.44618
G1 X-20.935 Y-14.912 E17.47688
G1 X-23.191 Y-13.609 E17.50319
G1 X-23.191 Y-10.571 E17.53389
G1 X-20.935 Y-9.269 E17.56021
G1 X-20.935 Y-6.230 E17.59091
G1 X-23.191 Y-4.928 E17.61722
G1 X-23.191 Y-1.889 E17.64792
G1 X-20.935 Y-0.587 E17.67423
G1 X-20.935 Y2.452 E17.70493
G1 X-23.191 Y3.754 E17.73125
G1 X-23.191 Y6.793 E17.76195
G1 X-20.935 Y8.095 E17.78826
G1 X-20.935 Y11.133 E17.81896
G1 X-23.191 Y12.436 E17.84528
G1 X-23.191 Y13.696 E17.85800
G1 X-18.429 Y14.356 E17.90657
G1 X-18.429 Y12.436 E17.92597
G1 X-20.685 Y11.133 E17.95229
G1 X-20.685 Y8.095 E17.98299
G1 X-18.429 Y6.793 E18.00930
G1 X-18.429 Y3.754 E18.04000
G1 X-20.685 Y2.452 E18.06632
G1 X-20.685 Y-0.587 E18.09702
G1 X-18.429 Y-1.889 E18.12333
G1 X-18.429 Y-4.928 E18.15403
G1 X-20.685 Y-6.230 E18.18034
G1 X-20.685 Y-9.269 E18.21104
G1 X-18.429 Y-10.571 E18.23736
G1 X-18.429 Y-13.609 E18.26806
G1 X-20.685 Y-14.912 E18.29437
G1 X-20.685 Y-17.950 E18.32507
G1 X-18.429 Y-19.252 E18.35139
G1 X-23.441 Y-19.252 F7800.000
G1 X-23.441 Y-21.065 E18.36970 F1800.000
G1 X-28.203 Y-20.894 E18.41784
G1 X-28.203 Y-19.252 E18.43443
G1 X-25.948 Y-17.950 E18.46074
G1 X-25.948 Y-14.912 E18.49144
G1 X-28.203 Y-13.609 E18.51776
G1 X-28.203 Y-10.571 E18.54846
G1 X-25.948 Y-9.269 E18.57477
G1 X-25.948 Y-6.230 E18.60547
G1 X-28.203 Y-4.928 E18.63179
G1 X-28.203 Y-1.889 E18.66249
G1 X-25.948 Y-0.587 E18.68880
G1 X-25.948 Y2.452 E18.71950
G1 X-28.203 Y3.754 E18.74581
G1 X-28.203 Y6.793 E18.77651
G1 X-25.948 Y8.095 E18.80283
G1 X-25.948 Y11.133 E18.83353
G1 X-28.203 Y12.436 E18.85984
G1 X-28.203 Y13.001 E18.86555
G1 X-23.441 Y13.661 E18.91412
G1 X-23.441 Y12.436 E18.92650
G1 X-25.697 Y11.133 E18.95281
G1 X-25.697 Y8.095 E18.98351
G1 X-23.441 Y6.793 E19.00982
G1 X-23.441 Y3.754 E19.04052
G1 X-25.697 Y2.452 E19.06684
G1 X-25.697 Y-0.587 E19.09754
G1 X-23.441 Y-1.889 E19.12385
G1 X-23.441 Y-4.928 E19.15455
G1 X-25.697 Y-6.230 E19.18087
G1 X-25.697 Y-9.269 E19.21157
G1 X-23.441 Y-10.571 E19.23788
G1 X-23.441 Y-13.609 E19.26858
G1 X-25.697 Y-14.912 E19.29489
G1 X-25.697 Y-17.950 E19.32559
G1 X-23.441 Y-19.252 E19.35191
G1 X-28.454 Y-19.252 F7800.000
G1 X-28.454 Y-20.885 E19.36841 F1800.000
G1 X-33.215 Y-20.708 E19.41655
G1 X-33.215 Y-19.252 E19.43125
G1 X-30.960 Y-17.950 E19.45757
G1 X-30.960 Y-14.912 E19.48827
G1 X-33.215 Y-13.609 E19.51458
G1 X-33.215 Y-10.571 E19.54528
G1 X-30.960 Y-9.269 E19.57160
G1 X-30.960 Y-6.230 E19.60230
G1 X-33.215 Y-4.928 E19.62861
G1 X-33.215 Y-1.889 E19.65931
G1 X-30.960 Y-0.587 E19.68562
G1 X-30.960 Y2.452 E19.71632
G1 X-33.215 Y3.754 E19.74264
G1 X-33.215 Y6.793 E19.77334
G1 X-30.960 Y8.095 E19.79965
G1 X-30.960 Y11.133 E19.83035
G1 X-33.033 Y12.331 E19.85454
G1 X-28.454 Y12.966 E19.90126
G1 X-28.454 Y12.436 E19.90661
G1 X-30.709 Y11.133 E19.93293
G1 X-30.709 Y8.095 E19.96363
G1 X-28.454 Y6.793 E19.98994
G1 X-28.454 Y3.754 E20.02064
G1 X-30.709 Y2.452 E20.04695
G1 X-30.709 Y-0.587 E20.07765
G1 X-28.454 Y-1.889 E20.10397
G1 X-28.454 Y-4.928 E20.13467
G1 X-30.709 Y-6.230 E20.16098
G1 X-30.709 Y-9.269 E20.19168
G1 X-28.454 Y-10.571 E20.21800
G1 X-28.454 Y-13.609 E20.24870
G1 X-30.709 Y-14.912 E20.27501
G1 X-30.709 Y-17.950 E20.30571
G1 X-28.454 Y-19.252 E20.33202
G1 X-33.466 Y-19.252 F7800.000
G1 X-33.466 Y-20.698 E20.34663 F1800.000
G1 X-38.228 Y-20.510 E20.39478
G1 X-38.228 Y-19.252 E20.40748
G1 X-35.972 Y-17.950 E20.43380
G1 X-35.972 Y-14.912 E20.46450
G1 X-38.228 Y-13.609 E20.49081
G1 X-38.228 Y-10.571 E20.52151
G1 X-35.972 Y-9.269 E20.54783
G1 X-35.972 Y-6.230 E20.57853
G1 X-38.228 Y-4.928 E20.60484
G1 X-38.228 Y-1.889 E20.63554
G1 X-35.972 Y-0.587 E20.66186
G1 X-35.972 Y2.452 E20.69255
G1 X-38.228 Y3.754 E20.71887
G1 X-38.228 Y6.793 E20.74957
G1 X-35.972 Y8.095 E20.77588
G1 X-35.972 Y11.133 E20.80658
G1 X-37.075 Y11.770 E20.81945
G1 X-33.842 Y12.218 E20.85242
G1 X-35.722 Y11.133 E20.87435
G1 X-35.722 Y8.095 E20.90505
G1 X-33.466 Y6.793 E20.93136
G1 X-33.466 Y3.754 E20.96206
G1 X-35.722 Y2.452 E20.98837
G1 X-35.722 Y-0.587 E21.01907
G1 X-33.466 Y-1.889 E21.04539
G1 X-33.466 Y-4.928 E21.07609
G1 X-35.722 Y-6.230 E21.10240
G1 X-35.722 Y-9.269 E21.13310
G1 X-33.466 Y-10.571 E21.15942
G1 X-33.466 Y-13.609 E21.19012
G1 X-35.722 Y-14.912 E21.21643
G1 X-35.722 Y-17.950 E21.24713
G1 X-33.466 Y-19.252 E21.27344
G1 X-38.478 Y-19.252 F7800.000
G1 X-38.478 Y-20.500 E21.28605 F1800.000
G1 X-43.240 Y-20.313 E21.33420
G1 X-43.240 Y-19.252 E21.34491
G1 X-40.985 Y-17.950 E21.37122
G1 X-40.985 Y-14.912 E21.40192
G1 X-43.240 Y-13.609 E21.42824
G1 X-43.240 Y-10.571 E21.45894
G1 X-40.985 Y-9.269 E21.48525
G1 X-40.985 Y-6.230 E21.51595
G1 X-43.240 Y-4.928 E21.54227
G1 X-43.240 Y-1.889 E21.57297
G1 X-40.985 Y-0.587 E21.59928
G1 X-40.985 Y2.452 E21.62998
G1 X-43.240 Y3.754 E21.65629
G1 X-43.240 Y6.793 E21.68699
G1 X-40.985 Y8.095 E21.71331
G1 X-40.985 Y11.133 E21.74401
G1 X-41.117 Y11.210 E21.74555
G1 X-40.439 Y11.304 E21.75246
G1 X-40.734 Y11.133 E21.75589
G1 X-40.734 Y8.095 E21.78659
G1 X-38.478 Y6.793 E21.81291
G1 X-38.478 Y3.754 E21.84361
G1 X-40.734 Y2.452 E21.86992
G1 X-40.734 Y-0.587 E21.90062
G1 X-38.478 Y-1.889 E21.92694
G1 X-38.478 Y-4.928 E21.95764
G1 X-40.734 Y-6.230 E21.98395
G1 X-40.734 Y-9.269 E22.01465
G1 X-38.478 Y-10.571 E22.04096
G1 X-38.478 Y-13.609 E22.07166
G1 X-40.734 Y-14.912 E22.09798
