; generated by Slic3r 1.2.9 on 2016-07-17 at 16:35:13

; external perimeters extrusion width = 0.40mm
; perimeters extrusion width = 0.67mm
; infill extrusion width = 0.67mm
; solid infill extrusion width = 0.67mm
; top infill extrusion width = 0.67mm

M107
M104 S215 ; set temperature
G28 ; home all axes
G1 Y-60 Z5 F5000 ; lift nozzle


M109 S215 ; wait for temperature to be reached
G21 ; set units to millimeters
G90 ; use absolute coordinates
M82 ; use absolute distances for extrusion
G92 E0
G1 E-3.00000 F2400.00000
G92 E0
G1 Z0.300 F6000.000
G1 X-0.726 Y51.859 F6000.000
G1 E3.00000 F2400.00000
G1 X-30.726 Y46.859 E4.58897 F1800.000
G1 X-32.464 Y46.168 E4.68664
G1 X-33.760 Y44.821 E4.78431
G1 X-34.419 Y42.500 E4.91037
G1 X-34.419 Y-47.500 E9.61241
G1 X-34.023 Y-49.327 E9.71009
G1 X-32.908 Y-50.827 E9.80776
G1 X-31.272 Y-51.732 E9.90543
G1 X-30.000 Y-51.919 E9.97258
G1 X30.000 Y-51.919 E13.10728
G1 X31.827 Y-51.523 E13.20495
G1 X33.327 Y-50.408 E13.30262
G1 X34.232 Y-48.772 E13.40030
G1 X34.419 Y-47.500 E13.46745
G1 X34.419 Y42.500 E18.16949
G1 X34.023 Y44.327 E18.26716
G1 X32.908 Y45.827 E18.36484
G1 X30.726 Y46.859 E18.49089
G1 X0.726 Y51.859 E20.07986
G1 X-0.666 Y51.859 E20.15263
G1 F4800
G1 X-6.585 Y50.874 E17.30263
G1 E17.15263 F2400.00000
G92 E0
G1 X-29.423 Y42.011 F6000.000
G1 E3.00000 F2400.00000
G1 X-29.423 Y-46.819 E7.64089 F1800.000
G1 X-23.771 Y-45.877 E7.94026
G1 X-23.253 Y-41.787 E8.15560
G1 X-22.682 Y-37.595 E8.37664
G1 X-22.084 Y-33.496 E8.59307
G1 X-21.460 Y-29.492 E8.80480
G1 X-20.812 Y-25.585 E9.01171
G1 X-20.140 Y-21.777 E9.21372
G1 X-19.446 Y-18.071 E9.41070
G1 X-18.730 Y-14.469 E9.60258
G1 X-17.994 Y-10.973 E9.78925
G1 X-17.238 Y-7.584 E9.97064
G1 X-16.463 Y-4.305 E10.14666
G1 X-15.670 Y-1.138 E10.31723
G1 X-14.861 Y1.916 E10.48230
G1 X-14.036 Y4.856 E10.64180
G1 X-13.197 Y7.680 E10.79574
G1 X-11.915 Y11.692 E11.01580
G1 X-11.044 Y14.221 E11.15552
G1 X-10.163 Y16.627 E11.28942
G1 X-9.273 Y18.911 E11.41745
G1 X-8.823 Y20.010 E11.47951
G1 X-7.922 Y22.109 E11.59886
G1 X-7.017 Y24.085 E11.71238
G1 X-6.561 Y25.030 E11.76723
G1 X-5.651 Y26.819 E11.87208
G1 X-4.741 Y28.482 E11.97112
G1 X-4.283 Y29.272 E12.01881
G1 X-3.375 Y30.744 E12.10919
G1 X-2.468 Y32.085 E12.19377
G1 X-2.012 Y32.714 E12.23435
G1 X-1.114 Y33.859 E12.31037
G1 X-0.230 Y34.876 E12.38075
G1 X0.212 Y35.344 E12.41440
G1 X1.066 Y36.174 E12.47664
G1 X1.896 Y36.882 E12.53364
G1 X2.312 Y37.194 E12.56080
G1 X2.721 Y37.470 E12.58655
G1 X3.128 Y37.709 E12.61123
G1 X3.536 Y37.910 E12.63497
G1 X3.945 Y38.070 E12.65791
G1 X4.356 Y38.183 E12.68023
G1 X4.770 Y38.247 E12.70210
G1 X5.183 Y38.256 E12.72368
G1 X5.591 Y38.209 E12.74513
G1 X5.990 Y38.106 E12.76665
G1 X6.377 Y37.951 E12.78844
G1 X6.752 Y37.747 E12.81074
G1 X7.115 Y37.497 E12.83377
G1 X7.468 Y37.202 E12.85779
G1 X7.814 Y36.866 E12.88300
G1 X8.160 Y36.483 E12.90998
G1 X8.828 Y35.613 E12.96728
G1 X9.494 Y34.582 E13.03138
G1 X10.154 Y33.406 E13.10188
G1 X10.810 Y32.093 E13.17852
G1 X11.139 Y31.380 E13.21957
G1 X11.786 Y29.865 E13.30562
G1 X12.110 Y29.049 E13.35150
G1 X12.745 Y27.322 E13.44764
G1 X13.369 Y25.450 E13.55071
G1 X13.978 Y23.436 E13.66065
G1 X14.573 Y21.280 E13.77748
G1 X15.154 Y18.981 E13.90138
G1 X15.718 Y16.551 E14.03173
G1 X16.269 Y13.979 E14.16912
G1 X16.804 Y11.271 E14.31333
G1 X17.322 Y8.428 E14.46435
G1 X17.824 Y5.449 E14.62216
G1 X18.309 Y2.337 E14.78671
G1 X18.775 Y-0.908 E14.95796
G1 X19.224 Y-4.283 E15.13585
G1 X19.654 Y-7.787 E15.32031
G1 X20.067 Y-11.419 E15.51127
G1 X20.461 Y-15.176 E15.70865
G1 X20.837 Y-19.057 E15.91234
G1 X21.196 Y-23.059 E16.12226
G1 X21.537 Y-27.180 E16.33830
G1 X21.861 Y-31.418 E16.56035
G1 X22.167 Y-35.770 E16.78832
G1 X22.455 Y-40.236 E17.02211
G1 X22.772 Y-45.710 E17.30859
G1 X29.423 Y-46.819 E17.66084
G1 X29.423 Y42.011 E22.30173
G1 X-0.000 Y46.915 E23.86012
G1 X-29.364 Y42.021 E25.41538
G1 X-29.800 Y42.331 F6000.000
G1 X-29.800 Y-47.264 E29.16583 F1800.000
G1 X-23.432 Y-46.203 E29.43609
G1 X-22.879 Y-41.837 E29.62031
G1 X-22.308 Y-37.648 E29.79726
G1 X-21.711 Y-33.552 E29.97052
G1 X-21.088 Y-29.552 E30.14001
G1 X-20.440 Y-25.648 E30.30564
G1 X-19.769 Y-21.845 E30.46733
G1 X-19.075 Y-18.143 E30.62499
G1 X-18.360 Y-14.545 E30.77855
G1 X-17.625 Y-11.052 E30.92793
G1 X-16.870 Y-7.668 E31.07308
G1 X-16.096 Y-4.394 E31.21390
G1 X-15.305 Y-1.232 E31.35036
G1 X-14.497 Y1.817 E31.48239
G1 X-13.674 Y4.751 E31.60995
G1 X-12.836 Y7.569 E31.73302
G1 X-11.557 Y11.573 E31.90899
G1 X-10.688 Y14.094 E32.02061
G1 X-9.810 Y16.494 E32.12758
G1 X-8.923 Y18.771 E32.22987
G1 X-8.475 Y19.865 E32.27933
G1 X-7.578 Y21.956 E32.37462
G1 X-6.675 Y23.924 E32.46524
G1 X-6.222 Y24.863 E32.50886
G1 X-5.317 Y26.643 E32.59247
G1 X-4.413 Y28.297 E32.67139
G1 X-3.960 Y29.078 E32.70918
G1 X-3.058 Y30.539 E32.78105
G1 X-2.159 Y31.869 E32.84823
G1 X-1.710 Y32.487 E32.88019
G1 X-0.823 Y33.619 E32.94041
G1 X0.049 Y34.622 E32.99607
G1 X0.481 Y35.079 E33.02237
G1 X1.320 Y35.895 E33.07138
G1 X2.132 Y36.588 E33.11605
G1 X2.922 Y37.150 E33.15664
G1 X3.307 Y37.377 E33.17536
G1 X3.688 Y37.564 E33.19312
G1 X4.064 Y37.711 E33.21001
G1 X4.436 Y37.814 E33.22616
G1 X4.803 Y37.870 E33.24172
G1 X5.165 Y37.878 E33.25689
G1 X5.522 Y37.837 E33.27192
G1 X5.873 Y37.747 E33.28706
G1 X6.216 Y37.609 E33.30257
G1 X6.554 Y37.425 E33.31867
G1 X6.887 Y37.196 E33.33558
G1 X7.215 Y36.922 E33.35349
G1 X7.542 Y36.604 E33.37258
G1 X7.870 Y36.241 E33.39305
G1 X8.519 Y35.395 E33.43769
G1 X9.170 Y34.387 E33.48792
G1 X9.821 Y33.229 E33.54354
G1 X10.470 Y31.930 E33.60432
G1 X10.794 Y31.227 E33.63673
G1 X11.437 Y29.722 E33.70525
G1 X11.757 Y28.914 E33.74161
G1 X12.389 Y27.197 E33.81820
G1 X13.009 Y25.336 E33.90031
G1 X13.616 Y23.331 E33.98799
G1 X14.208 Y21.184 E34.08123
G1 X14.787 Y18.892 E34.18018
G1 X15.350 Y16.469 E34.28433
G1 X15.899 Y13.903 E34.39415
G1 X16.433 Y11.201 E34.50946
G1 X16.951 Y8.362 E34.63024
G1 X17.452 Y5.389 E34.75647
G1 X17.936 Y2.281 E34.88813
G1 X18.402 Y-0.959 E35.02516
G1 X18.850 Y-4.331 E35.16753
G1 X19.280 Y-7.831 E35.31517
G1 X19.692 Y-11.460 E35.46804
G1 X20.086 Y-15.214 E35.62605
G1 X20.462 Y-19.092 E35.78914
G1 X20.820 Y-23.091 E35.95722
G1 X21.161 Y-27.210 E36.13021
G1 X21.485 Y-31.445 E36.30804
G1 X21.790 Y-35.796 E36.49060
G1 X22.078 Y-40.259 E36.67782
G1 X22.413 Y-46.033 E36.91992
G1 X29.800 Y-47.264 E37.23340
G1 X29.800 Y42.331 E40.98385
G1 X0.000 Y47.297 E42.24850
G1 X-29.741 Y42.340 E43.51063
G1 X-29.581 Y41.996 F6000.000
G1 X-27.746 Y41.823 F6000.000
G1 X-28.962 Y37.285 E43.75608 F1800.000
G1 X-28.962 Y41.621 E43.98257
G1 X-27.746 Y41.823 E44.04698
G1 X-5.289 Y29.741 F6000.000
G1 X-11.597 Y28.051 E44.38812 F1800.000
G1 X-16.983 Y33.438 E44.78612
G1 X-15.293 Y39.745 E45.12726
G1 X-18.854 Y43.305 E45.39032
G1 X-18.092 Y43.432 E45.43066
G1 X-14.849 Y40.189 E45.67027
G1 X-8.542 Y41.879 E46.01141
G1 X-3.155 Y36.493 E46.40941
G1 X-4.845 Y30.185 E46.75056
G1 X-4.484 Y29.824 E46.77725
G1 X-4.818 Y29.269 E46.81108
G1 X-5.289 Y29.741 E46.84594
G1 X3.596 Y38.627 F6000.000
G1 X-2.711 Y36.937 E47.18708 F1800.000
G1 X-8.098 Y42.324 E47.58508
G1 X-7.319 Y45.228 E47.74216
G1 X-0.000 Y46.448 E48.12984
G1 X5.594 Y45.515 E48.42611
G1 X5.731 Y45.378 E48.43623
G1 X4.041 Y39.071 E48.77737
G1 X4.448 Y38.664 E48.80748
G1 X4.260 Y38.635 E48.81744
G1 X3.739 Y38.484 E48.84575
G1 X3.596 Y38.627 E48.85631
G1 X-9.355 Y36.860 F6000.000
G1 X-17.115 Y31.441 F6000.000
G1 X-18.204 Y26.598 F6000.000
G1 X-18.725 Y24.060 F6000.000
G1 X-18.980 Y22.760 F6000.000
G1 X-19.212 Y21.543 F6000.000
G1 X-10.113 Y17.939 F6000.000
G1 X-10.209 Y17.778 F6000.000
G1 X-10.458 Y17.139 E48.89216 F1800.000
G1 X-14.175 Y20.855 E49.16678
G1 X-20.482 Y19.165 E49.50793
G1 X-25.869 Y24.552 E49.90593
G1 X-24.179 Y30.859 E50.24707
G1 X-28.962 Y35.642 E50.60046
G1 X-28.962 Y36.531 E50.64688
G1 X-23.735 Y31.304 E51.03310
G1 X-17.428 Y32.994 E51.37424
G1 X-12.041 Y27.607 E51.77224
G1 X-13.731 Y21.300 E52.11339
G1 X-10.209 Y17.778 E52.37359
G1 X-16.116 Y-1.023 F6000.000
G1 X-16.507 Y-2.582 E52.45755 F1800.000
G1 X-19.364 Y0.276 E52.66869
G1 X-17.674 Y6.583 E53.00984
G1 X-23.061 Y11.970 E53.40783
G1 X-28.962 Y10.388 E53.72701
G1 X-28.962 Y23.398 E54.40670
G1 X-26.313 Y24.108 E54.54996
G1 X-20.927 Y18.721 E54.94796
G1 X-22.617 Y12.414 E55.28910
G1 X-17.230 Y7.027 E55.68710
G1 X-13.576 Y8.006 E55.88471
G1 X-14.479 Y4.983 E56.04952
G1 X-15.306 Y2.037 E56.20938
G1 X-16.116 Y-1.023 E56.37479
G1 X-18.876 Y-12.928 F6000.000
G1 X-22.863 Y-13.997 E56.59043 F1800.000
G1 X-28.250 Y-8.610 E56.98843
G1 X-26.560 Y-2.303 E57.32957
G1 X-28.962 Y0.099 E57.50705
G1 X-28.962 Y0.988 E57.55347
G1 X-26.116 Y-1.859 E57.76377
G1 X-19.808 Y-0.169 E58.10491
G1 X-16.684 Y-3.293 E58.33574
G1 X-17.687 Y-7.481 E58.56072
G1 X-18.444 Y-10.875 E58.74241
G1 X-18.876 Y-12.928 E58.85205
G1 X-21.112 Y-24.634 F6000.000
G1 X-21.245 Y-25.389 E58.89212 F1800.000
G1 X-25.442 Y-21.193 E59.20220
G1 X-28.962 Y-22.136 E59.39260
G1 X-28.962 Y-9.126 E60.07229
G1 X-28.694 Y-9.054 E60.08677
G1 X-23.308 Y-14.441 E60.48477
G1 X-24.998 Y-20.748 E60.82591
G1 X-21.112 Y-24.634 E61.11302
G1 X-24.185 Y-45.478 F6000.000
G1 X-26.533 Y-45.870 E61.23740 F1800.000
G1 X-28.962 Y-43.441 E61.41686
G1 X-28.962 Y-35.544 E61.82945
G1 X-28.941 Y-35.465 E61.83371
G1 X-28.962 Y-35.444 E61.83527
G1 X-28.962 Y-34.555 E61.88169
G1 X-28.497 Y-35.021 E61.91608
G1 X-22.539 Y-33.424 E62.23831
G1 X-23.138 Y-37.531 E62.45514
G1 X-23.710 Y-41.727 E62.67640
G1 X-24.185 Y-45.478 E62.87394
G1 X-27.295 Y-45.997 F6000.000
G1 X-28.962 Y-46.275 E62.96224 F1800.000
G1 X-28.962 Y-44.330 E63.06386
G1 X-27.295 Y-45.997 E63.18704
G1 X-20.193 Y16.016 F6000.000
G1 X-5.023 Y39.398 F6000.000
G1 X10.650 Y40.497 F6000.000
G1 X22.917 Y13.926 F6000.000
G1 X24.628 Y-9.056 F6000.000
G1 X25.389 Y-24.766 F6000.000
G1 X25.637 Y-31.146 F6000.000
G1 X25.791 Y-35.531 F6000.000
G1 X25.864 Y-37.765 F6000.000
G1 X25.935 Y-40.017 F6000.000
G1 X28.962 Y-39.139 F6000.000
G1 X28.962 Y-46.275 E63.55983 F1800.000
G1 X26.831 Y-45.920 E63.67270
G1 X26.808 Y-45.896 E63.67443
G1 X28.498 Y-39.589 E64.01557
G1 X23.111 Y-34.202 E64.41357
G1 X22.529 Y-34.358 E64.44502
G1 X21.996 Y-27.143 E64.82298
G1 X21.731 Y-23.937 E64.99109
G1 X25.245 Y-27.451 E65.25074
G1 X23.555 Y-33.758 E65.59188
G1 X28.942 Y-39.145 E65.98988
G1 X28.962 Y-39.139 E65.99097
G1 X28.962 Y-26.130 F6000.000
G1 X25.689 Y-27.006 E66.16797 F1800.000
G1 X21.650 Y-22.967 E66.46640
G1 X21.218 Y-18.205 E66.71622
G1 X21.993 Y-15.313 E66.87268
G1 X20.815 Y-14.135 E66.95970
G1 X20.711 Y-13.142 E67.01185
G1 X22.437 Y-14.868 E67.13939
G1 X28.744 Y-13.178 E67.48053
G1 X28.962 Y-13.396 E67.49662
G1 X28.962 Y-26.130 E68.16188
G1 X28.962 Y-3.622 F6000.000
G1 X28.962 Y-4.510 E68.20831 F1800.000
G1 X25.492 Y-1.040 E68.46470
G1 X19.472 Y-2.653 E68.79030
G1 X19.232 Y-0.844 E68.88562
G1 X18.764 Y2.405 E69.05714
G1 X18.279 Y5.523 E69.22198
G1 X17.776 Y8.507 E69.38010
G1 X17.534 Y9.837 E69.45073
G1 X22.239 Y11.098 E69.70526
G1 X27.626 Y5.711 E70.10326
G1 X25.936 Y-0.596 E70.44440
G1 X28.962 Y-3.622 E70.66797
G1 X28.962 Y6.395 F6000.000
G1 X28.070 Y6.156 E70.71619 F1800.000
G1 X22.684 Y11.542 E71.11419
G1 X24.374 Y17.850 E71.45533
G1 X18.987 Y23.236 E71.85333
G1 X14.819 Y22.120 E72.07875
G1 X14.421 Y23.564 E72.15703
G1 X13.808 Y25.590 E72.26760
G1 X13.180 Y27.474 E72.37138
G1 X12.540 Y29.213 E72.46818
G1 X12.212 Y30.041 E72.51469
G1 X11.560 Y31.567 E72.60140
G1 X11.225 Y32.293 E72.64316
G1 X10.562 Y33.621 E72.72076
G1 X10.382 Y33.940 E72.73987
G1 X15.735 Y35.374 E73.02936
G1 X21.121 Y29.988 E73.42736
G1 X19.431 Y23.681 E73.76850
G1 X24.818 Y18.294 E74.16650
G1 X28.962 Y19.404 E74.39064
G1 X28.962 Y6.395 E75.07033
G1 X27.873 Y32.122 F6000.000
G1 X21.566 Y30.432 E75.41147 F1800.000
G1 X16.179 Y35.819 E75.80947
G1 X17.869 Y42.126 E76.15061
G1 X16.257 Y43.738 E76.26973
G1 X17.323 Y43.561 E76.32621
G1 X18.313 Y42.570 E76.39938
G1 X20.212 Y43.079 E76.50208
G1 X26.920 Y41.961 E76.85735
G1 X28.962 Y39.919 E77.00826
G1 X28.962 Y34.973 E77.26662
G1 X28.317 Y32.566 E77.39681
G1 X28.962 Y31.921 E77.44446
G1 X28.962 Y31.033 E77.49089
G1 X27.873 Y32.122 E77.57137
G1 X28.962 Y41.621 F6000.000
G1 X28.962 Y40.807 E77.61387 F1800.000
G1 X27.986 Y41.783 E77.68599
G1 X28.962 Y41.621 E77.73770
G1 F4800
G1 X27.986 Y41.783 E77.26761
G1 F4800
G1 X28.962 Y40.807 E76.61186
G1 F4800
G1 X28.962 Y41.621 E76.22545
G1 E74.73770 F2400.00000
G92 E0
G1 Z0.500 F6000.000
G1 X-29.307 Y41.913 F6000.000
G1 E3.00000 F2400.00000
G1 X-29.307 Y-46.682 E7.62866 F1200.000
G1 X-23.905 Y-45.782 E7.91478
G1 X-23.368 Y-41.522 E8.13909
G1 X-22.796 Y-37.329 E8.36019
G1 X-22.198 Y-33.229 E8.57668
G1 X-21.574 Y-29.223 E8.78847
G1 X-20.925 Y-25.315 E8.99544
G1 X-20.253 Y-21.506 E9.19751
G1 X-19.559 Y-17.799 E9.39456
G1 X-18.843 Y-14.196 E9.58650
G1 X-18.106 Y-10.698 E9.77325
G1 X-17.350 Y-7.308 E9.95471
G1 X-16.575 Y-4.028 E10.13080
G1 X-15.782 Y-0.859 E10.30146
G1 X-14.972 Y2.197 E10.46661
G1 X-14.147 Y5.138 E10.62620
G1 X-13.307 Y7.964 E10.78025
G1 X-12.024 Y11.979 E11.00044
G1 X-11.153 Y14.509 E11.14028
G1 X-10.271 Y16.918 E11.27430
G1 X-9.380 Y19.204 E11.40245
G1 X-8.930 Y20.305 E11.46461
G1 X-8.028 Y22.406 E11.58408
G1 X-7.121 Y24.384 E11.69774
G1 X-6.664 Y25.332 E11.75271
G1 X-5.753 Y27.123 E11.85772
G1 X-4.842 Y28.789 E11.95692
G1 X-4.382 Y29.581 E12.00477
G1 X-3.472 Y31.057 E12.09535
G1 X-2.563 Y32.402 E12.18016
G1 X-2.104 Y33.033 E12.22096
G1 X-1.203 Y34.183 E12.29724
G1 X-0.316 Y35.203 E12.36789
G1 X0.130 Y35.675 E12.40180
G1 X0.989 Y36.510 E12.46436
G1 X1.824 Y37.222 E12.52175
G1 X2.245 Y37.538 E12.54925
G1 X2.659 Y37.817 E12.57534
G1 X3.073 Y38.061 E12.60043
G1 X3.489 Y38.266 E12.62465
G1 X3.908 Y38.429 E12.64815
G1 X4.332 Y38.547 E12.67114
G1 X4.760 Y38.612 E12.69376
G1 X5.189 Y38.621 E12.71614
G1 X5.612 Y38.572 E12.73842
G1 X6.026 Y38.466 E12.76074
G1 X6.427 Y38.306 E12.78328
G1 X6.813 Y38.095 E12.80625
G1 X7.185 Y37.839 E12.82988
G1 X7.545 Y37.538 E12.85440
G1 X7.897 Y37.196 E12.88004
G1 X8.249 Y36.807 E12.90745
G1 X8.922 Y35.929 E12.96524
G1 X9.593 Y34.892 E13.02977
G1 X10.256 Y33.710 E13.10060
G1 X10.914 Y32.393 E13.17748
G1 X11.245 Y31.677 E13.21871
G1 X11.893 Y30.159 E13.30493
G1 X12.218 Y29.340 E13.35097
G1 X12.854 Y27.610 E13.44727
G1 X13.479 Y25.735 E13.55052
G1 X14.089 Y23.718 E13.66062
G1 X14.685 Y21.560 E13.77758
G1 X15.265 Y19.262 E13.90140
G1 X15.831 Y16.826 E14.03207
G1 X16.382 Y14.253 E14.16956
G1 X16.917 Y11.543 E14.31387
G1 X17.436 Y8.697 E14.46497
G1 X17.938 Y5.718 E14.62285
G1 X18.423 Y2.604 E14.78748
G1 X18.890 Y-0.642 E14.95880
G1 X19.338 Y-4.018 E15.13675
G1 X19.769 Y-7.524 E15.32126
G1 X20.182 Y-11.156 E15.51228
G1 X20.576 Y-14.915 E15.70970
G1 X20.952 Y-18.796 E15.91344
G1 X21.311 Y-22.799 E16.12340
G1 X21.652 Y-26.921 E16.33948
G1 X21.976 Y-31.159 E16.56158
G1 X22.282 Y-35.513 E16.78958
G1 X22.570 Y-39.979 E17.02341
G1 X22.896 Y-45.614 E17.31829
G1 X29.307 Y-46.682 E17.65786
G1 X29.307 Y41.913 E22.28653
G1 X-0.000 Y46.798 E23.83880
G1 X-29.248 Y41.923 E25.38795
G1 X-29.800 Y42.331 F6000.000
G1 X-29.800 Y-47.264 E28.04812 F600.000
G1 X-23.462 Y-46.208 E28.23889
G1 X-22.879 Y-41.587 E28.37718
G1 X-22.308 Y-37.398 E28.50270
G1 X-21.711 Y-33.302 E28.62559
G1 X-21.088 Y-29.302 E28.74581
G1 X-20.440 Y-25.398 E28.86329
G1 X-19.769 Y-21.595 E28.97797
G1 X-19.075 Y-17.893 E29.08980
G1 X-18.360 Y-14.295 E29.19872
G1 X-17.625 Y-10.802 E29.30468
G1 X-16.870 Y-7.418 E29.40763
G1 X-16.096 Y-4.144 E29.50751
G1 X-15.305 Y-0.982 E29.60430
G1 X-14.497 Y2.067 E29.69795
G1 X-13.674 Y5.001 E29.78843
G1 X-12.836 Y7.819 E29.87572
G1 X-11.557 Y11.823 E30.00054
G1 X-10.688 Y14.344 E30.07971
G1 X-9.810 Y16.744 E30.15558
G1 X-8.923 Y19.021 E30.22814
G1 X-8.475 Y20.115 E30.26322
G1 X-7.578 Y22.206 E30.33081
G1 X-6.675 Y24.174 E30.39508
G1 X-6.222 Y25.113 E30.42602
G1 X-5.317 Y26.893 E30.48533
G1 X-4.413 Y28.547 E30.54130
G1 X-3.960 Y29.328 E30.56811
G1 X-3.058 Y30.789 E30.61909
G1 X-2.159 Y32.119 E30.66673
G1 X-1.710 Y32.737 E30.68940
G1 X-0.823 Y33.869 E30.73211
G1 X0.049 Y34.872 E30.77159
G1 X0.481 Y35.329 E30.79025
G1 X1.320 Y36.145 E30.82501
G1 X2.132 Y36.838 E30.85670
G1 X2.922 Y37.400 E30.88549
G1 X3.307 Y37.627 E30.89876
