; generated by Slic3r 1.2.9 on 2016-07-14 at 19:17:28

; external perimeters extrusion width = 0.30mm
; perimeters extrusion width = 0.31mm
; infill extrusion width = 0.31mm
; solid infill extrusion width = 0.31mm
; top infill extrusion width = 0.31mm

M107
M104 S215 ; set temperature
G28 ; home all axes
G1 Z5 F5000 ; lift nozzle

M109 S215 ; wait for temperature to be reached
G21 ; set units to millimeters
G90 ; use absolute coordinates
M82 ; use absolute distances for extrusion
G92 E0
G1 E-2.00000 F2400.00000
G92 E0
G1 Z0.100 F7800.000
G1 X-1.735 Y14.826 F7800.000
G1 E2.00000 F2400.00000
G1 X-54.349 Y8.669 E2.53520 F1800.000
G1 X-56.467 Y8.021 E2.55757
G1 X-58.220 Y6.669 E2.57994
G1 X-59.492 Y4.486 E2.60548
G1 X-63.146 Y-6.474 E2.72220
G1 X-63.458 Y-8.666 E2.74457
G1 X-62.978 Y-10.828 E2.76694
G1 X-61.766 Y-12.681 E2.78931
G1 X-59.979 Y-13.988 E2.81168
G1 X-57.815 Y-14.583 E2.83435
G1 X-50.931 Y-15.160 E2.90415
G1 X-44.214 Y-15.696 E2.97223
G1 X-37.246 Y-16.226 E3.04283
G1 X-30.031 Y-16.749 E3.11591
G1 X-22.597 Y-17.263 E3.19121
G1 X-12.351 Y-17.936 E3.29494
G1 X3.706 Y-18.916 E3.45748
G1 X14.812 Y-19.545 E3.56986
G1 X26.221 Y-20.151 E3.68530
G1 X37.881 Y-20.731 E3.80325
G1 X50.206 Y-21.305 E3.92790
G1 X52.400 Y-21.005 E3.95027
G1 X54.347 Y-19.952 E3.97264 F1800.000
G1 X55.798 Y-18.279 E3.99501
G1 X56.342 Y-17.086 E4.00826
G1 X63.147 Y3.328 E4.22567
G1 X63.460 Y5.520 E4.24804
G1 X63.147 Y7.236 E4.26566
G1 X59.865 Y17.082 E4.37052
G1 X58.800 Y19.023 E4.39289
G1 X57.119 Y20.464 E4.41526
G1 X55.037 Y21.219 E4.43763
G1 X53.285 Y21.265 E4.45534
G1 X-1.690 Y14.831 E5.01456
G1 F6240
G1 X-6.855 Y14.227 E3.11456
G1 E3.01456 F2400.00000
G92 E0
G1 X-2.294 Y1.738 F7800.000
G1 E2.00000 F2400.00000
G1 X-3.713 Y1.653 E2.01436 F1800.000
G1 X-5.067 Y1.333 E2.02842
G1 X-6.159 Y0.861 E2.04044
G1 X-6.886 Y0.398 E2.04916
G1 X-7.506 Y-0.146 E2.05748
G1 X-8.004 Y-0.762 E2.06548
G1 X-8.363 Y-1.437 E2.07321
G1 X-8.570 Y-2.154 E2.08075
G1 X-8.614 Y-2.891 E2.08821
G1 X-8.493 Y-3.623 E2.09571
G1 X-8.183 Y-4.381 E2.10398
G1 X-7.572 Y-5.223 E2.11449
G1 X-6.635 Y-6.013 E2.12688
G1 X-5.348 Y-6.669 E2.14147
G1 X-3.879 Y-7.064 E2.15684
G1 X-2.438 Y-7.167 E2.17144
G1 X-2.324 Y-7.175 E2.17258 F1800.000
G1 X-0.763 Y-6.997 E2.18846
G1 X0.498 Y-6.607 E2.20180
G1 X1.370 Y-6.175 E2.21163
G1 X2.129 Y-5.639 E2.22102
G1 X2.754 Y-5.007 E2.23000
G1 X3.223 Y-4.295 E2.23861
G1 X3.516 Y-3.523 E2.24695
G1 X3.614 Y-2.729 E2.25503
G1 X3.577 Y-2.232 E2.26008
G1 X3.467 Y-1.741 E2.26515
G1 X3.130 Y-0.970 E2.27365
G1 X2.558 Y-0.203 E2.28333
G1 X1.610 Y0.591 E2.29582
G1 X0.439 Y1.196 E2.30913
G1 X-0.885 Y1.583 E2.32307
G1 X-2.249 Y1.733 E2.33693
G1 X-2.268 Y1.556 F7800.000
G1 X-3.687 Y1.476 E2.35128 F1800.000
G1 X-5.010 Y1.163 E2.36503
G1 X-6.075 Y0.703 E2.37674
G1 X-6.779 Y0.254 E2.38518
G1 X-7.376 Y-0.270 E2.39321
G1 X-7.854 Y-0.861 E2.40088
G1 X-8.197 Y-1.505 E2.40825
G1 X-8.393 Y-2.185 E2.41540
G1 X-8.435 Y-2.882 E2.42246
G1 X-8.320 Y-3.574 E2.42955
G1 X-8.026 Y-4.293 E2.43740
G1 X-7.440 Y-5.101 E2.44748
G1 X-6.535 Y-5.864 E2.45943
G1 X-5.283 Y-6.502 E2.47363
G1 X-3.849 Y-6.887 E2.48863
G1 X-2.425 Y-6.989 E2.50306
G1 X-2.328 Y-6.996 E2.50404 F1800.000
G1 X-0.800 Y-6.821 E2.51959
G1 X0.432 Y-6.441 E2.53261
G1 X1.279 Y-6.021 E2.54216
G1 X2.013 Y-5.502 E2.55125
G1 X2.615 Y-4.894 E2.55989
G1 X3.063 Y-4.213 E2.56812
G1 X3.341 Y-3.480 E2.57605
G1 X3.435 Y-2.725 E2.58373
G1 X3.400 Y-2.258 E2.58847
G1 X3.296 Y-1.797 E2.59324
G1 X2.975 Y-1.061 E2.60136
G1 X2.427 Y-0.327 E2.61061
G1 X1.510 Y0.441 E2.62269
G1 X0.372 Y1.029 E2.63563
G1 X-0.920 Y1.408 E2.64924
G1 X-2.224 Y1.551 E2.66249
G1 X-2.243 Y1.373 F7800.000
G1 X-3.661 Y1.298 E2.67683 F1800.000
G1 X-4.954 Y0.993 E2.69025
G1 X-5.991 Y0.545 E2.70167
G1 X-6.671 Y0.111 E2.70982
G1 X-7.247 Y-0.394 E2.71756
G1 X-7.704 Y-0.960 E2.72491
G1 X-8.031 Y-1.572 E2.73192
G1 X-8.216 Y-2.215 E2.73868
G1 X-8.255 Y-2.872 E2.74533
G1 X-8.147 Y-3.525 E2.75202
G1 X-7.868 Y-4.206 E2.75945
G1 X-7.308 Y-4.978 E2.76909
G1 X-6.436 Y-5.714 E2.78062
G1 X-5.219 Y-6.334 E2.79442
G1 X-3.820 Y-6.710 E2.80906
G1 X-2.412 Y-6.811 E2.82331
G1 X-2.332 Y-6.817 E2.82412 F1800.000
G1 X-0.836 Y-6.646 E2.83933
G1 X0.366 Y-6.275 E2.85204
G1 X1.187 Y-5.868 E2.86130
G1 X1.897 Y-5.365 E2.87010
G1 X2.476 Y-4.781 E2.87840
G1 X2.904 Y-4.132 E2.88626
G1 X3.167 Y-3.437 E2.89377
G1 X3.255 Y-2.721 E2.90105
G1 X3.223 Y-2.284 E2.90548
G1 X3.126 Y-1.853 E2.90994
G1 X2.819 Y-1.151 E2.91768
G1 X2.297 Y-0.450 E2.92652
G1 X1.411 Y0.292 E2.93819
G1 X0.306 Y0.863 E2.95076
G1 X-0.955 Y1.232 E2.96403
G1 X-2.198 Y1.368 E2.97666
G1 X-2.393 Y1.633 F7800.000
G1 X41.849 Y13.022 F7800.000
G1 X23.686 Y10.623 E3.16177 F1800.000
G1 X9.011 Y8.770 E3.31121
G1 X-5.258 Y7.051 E3.45642
G1 X-18.991 Y5.490 E3.59606
G1 X-29.653 Y4.351 E3.70439
G1 X-37.353 Y3.574 E3.78258
G1 X-42.352 Y3.091 E3.83333
G1 X-53.292 Y2.103 E3.94431
G1 X-56.667 Y-8.020 E4.05212
G1 X-45.954 Y-8.903 E4.16072
G1 X-34.382 Y-9.784 E4.27797
G1 X-22.152 Y-10.642 E4.40183
G1 X-6.674 Y-11.644 E4.55854
G1 X6.833 Y-12.451 E4.69525
G1 X20.834 Y-13.224 E4.83692
G1 X35.269 Y-13.961 E4.98296
G1 X50.157 Y-14.660 E5.13353
G1 X56.142 Y3.297 E5.32477
G1 X56.804 Y5.282 E5.34590 F1800.000
G1 X53.690 Y14.624 E5.44540
G1 X41.894 Y13.028 E5.56566
G1 X41.870 Y13.205 F7800.000
G1 X23.663 Y10.800 E5.75121 F1800.000
G1 X8.989 Y8.947 E5.90064
G1 X-5.279 Y7.229 E6.04583
G1 X-19.011 Y5.668 E6.18547
G1 X-29.671 Y4.529 E6.29379
G1 X-37.370 Y3.751 E6.37197
G1 X-42.369 Y3.269 E6.42271
G1 X-47.256 Y2.815 E6.47229
G1 X-53.424 Y2.271 E6.53486
G1 X-56.908 Y-8.179 E6.64615
G1 X-45.968 Y-9.081 E6.75705
G1 X-34.395 Y-9.962 E6.87431
G1 X-22.164 Y-10.821 E6.99819
G1 X-6.685 Y-11.822 E7.15491
G1 X6.822 Y-12.629 E7.29162
G1 X20.825 Y-13.403 E7.43330
G1 X35.261 Y-14.139 E7.57935
G1 X50.283 Y-14.844 E7.73129
G1 X56.312 Y3.241 E7.92389
G1 X56.992 Y5.282 E7.94563 F1800.000
G1 X53.812 Y14.821 E8.04722
G1 X41.915 Y13.211 E8.16852
G1 X41.891 Y13.388 F7800.000
G1 X23.640 Y10.978 E8.35451 F1800.000
G1 X8.967 Y9.124 E8.50394
G1 X-5.299 Y7.406 E8.64912
G1 X-19.030 Y5.845 E8.78874
G1 X-29.690 Y4.707 E8.89705
G1 X-37.388 Y3.929 E8.97522
G1 X-42.386 Y3.446 E9.02595
G1 X-47.272 Y2.993 E9.07553
G1 X-53.557 Y2.438 E9.13927
G1 X-57.149 Y-8.339 E9.25404
G1 X-45.982 Y-9.259 E9.36725
G1 X-34.408 Y-10.140 E9.48452
G1 X-22.176 Y-10.999 E9.60841
G1 X-6.696 Y-12.000 E9.76513
G1 X6.812 Y-12.807 E9.90186
G1 X20.815 Y-13.581 E10.04355
G1 X35.252 Y-14.318 E10.18960
G1 X50.410 Y-15.029 E10.34291
G1 X56.481 Y3.184 E10.53688
G1 X57.180 Y5.282 E10.55922 F1800.000
G1 X53.935 Y15.018 E10.66290
G1 X41.935 Y13.394 E10.78524
G1 X41.776 Y13.111 F7800.000
G1 X53.561 Y14.417 F7800.000
G1 X54.548 Y11.456 E10.81678 F1800.000
G1 X53.112 Y12.285 E10.83352
G1 X53.112 Y14.357 E10.85445
G1 X53.561 Y14.417 E10.85903
G1 X55.964 Y3.357 F7800.000
G1 X55.368 Y1.568 E10.87808 F1800.000
G1 X55.368 Y2.301 E10.88549
G1 X53.112 Y3.603 E10.91181
G1 X53.112 Y6.642 E10.94251
G1 X55.368 Y7.944 E10.96882
G1 X55.368 Y8.996 E10.97945
G1 X55.618 Y8.244 E10.98745
G1 X55.618 Y7.944 E10.99048
G1 X55.742 Y7.873 E10.99193
G1 X56.606 Y5.282 E11.01952
G1 X55.964 Y3.357 E11.04002
G1 X54.416 Y-1.287 F7800.000
G1 X53.146 Y-5.098 E11.08061 F1800.000
G1 X53.112 Y-5.078 E11.08100
G1 X53.112 Y-2.040 E11.11170
G1 X54.416 Y-1.287 E11.12692
G1 X51.528 Y-9.951 F7800.000
G1 X50.024 Y-14.465 E11.17499 F1800.000
G1 X49.259 Y-14.429 E11.18272
G1 X48.100 Y-13.760 E11.19625
G1 X48.100 Y-10.721 E11.22695
G1 X50.355 Y-9.419 E11.25326
G1 X50.355 Y-6.380 E11.28396
G1 X48.100 Y-5.078 E11.31028
G1 X48.100 Y-2.040 E11.34098
G1 X50.355 Y-0.737 E11.36729
G1 X50.355 Y2.301 E11.39799
G1 X48.100 Y3.603 E11.42430
G1 X48.100 Y6.642 E11.45500
G1 X50.355 Y7.944 E11.48132
G1 X50.355 Y10.983 E11.51202
G1 X48.100 Y12.285 E11.53833
G1 X48.100 Y13.678 E11.55241
G1 X52.862 Y14.323 E11.60096
G1 X52.862 Y12.285 E11.62154
G1 X50.606 Y10.983 E11.64786
G1 X50.606 Y7.944 E11.67856
G1 X52.862 Y6.642 E11.70487
G1 X52.862 Y3.603 E11.73557
G1 X50.606 Y2.301 E11.76188
G1 X50.606 Y-0.737 E11.79258
G1 X52.862 Y-2.040 E11.81890
G1 X52.862 Y-5.078 E11.84960
G1 X50.606 Y-6.380 E11.87591
G1 X50.606 Y-9.419 E11.90661
G1 X51.528 Y-9.951 E11.91737
G1 X47.849 Y-13.760 F7800.000
G1 X46.883 Y-14.318 E11.92865 F1800.000
G1 X43.804 Y-14.173 E11.95979
G1 X43.087 Y-13.760 E11.96814
G1 X43.087 Y-10.721 E11.99884
G1 X45.343 Y-9.419 E12.02516
G1 X45.343 Y-6.380 E12.05586
G1 X43.087 Y-5.078 E12.08217
G1 X43.087 Y-2.040 E12.11287
G1 X45.343 Y-0.737 E12.13919
G1 X45.343 Y2.301 E12.16989
G1 X43.087 Y3.603 E12.19620
G1 X43.087 Y6.642 E12.22690
G1 X45.343 Y7.944 E12.25321
G1 X45.343 Y10.983 E12.28391
G1 X43.087 Y12.285 E12.31023
G1 X43.087 Y13.000 E12.31745
G1 X47.849 Y13.645 E12.36600
G1 X47.849 Y12.285 E12.37973
G1 X45.594 Y10.983 E12.40605
G1 X45.594 Y7.944 E12.43675
G1 X47.849 Y6.642 E12.46306
G1 X47.849 Y3.603 E12.49376
G1 X45.594 Y2.301 E12.52008
G1 X45.594 Y-0.737 E12.55078
G1 X47.849 Y-2.040 E12.57709
G1 X47.849 Y-5.078 E12.60779
G1 X45.594 Y-6.380 E12.63410
G1 X45.594 Y-9.419 E12.66480
G1 X47.849 Y-10.721 E12.69112
G1 X47.849 Y-13.760 E12.72182
G1 X42.837 Y-13.760 F7800.000
G1 X42.247 Y-14.100 E12.72870 F1800.000
G1 X38.348 Y-13.917 E12.76814
G1 X38.075 Y-13.760 E12.77132
G1 X38.075 Y-10.721 E12.80202
G1 X40.331 Y-9.419 E12.82833
G1 X40.331 Y-6.380 E12.85903
G1 X38.075 Y-5.078 E12.88535
G1 X38.075 Y-2.040 E12.91605
G1 X40.331 Y-0.737 E12.94236
G1 X40.331 Y2.301 E12.97306
G1 X38.075 Y3.603 E12.99938
G1 X38.075 Y6.642 E13.03008
G1 X40.331 Y7.944 E13.05639
G1 X40.331 Y10.983 E13.08709
G1 X38.075 Y12.285 E13.11340
G1 X38.075 Y12.325 E13.11380
G1 X42.837 Y12.966 E13.16235
G1 X42.837 Y12.285 E13.16923
G1 X40.581 Y10.983 E13.19554
G1 X40.581 Y7.944 E13.22624
G1 X42.837 Y6.642 E13.25256
G1 X42.837 Y3.603 E13.28326
G1 X40.581 Y2.301 E13.30957
G1 X40.581 Y-0.737 E13.34027
G1 X42.837 Y-2.040 E13.36659
G1 X42.837 Y-5.078 E13.39729
G1 X40.581 Y-6.380 E13.42360
G1 X40.581 Y-9.419 E13.45430
G1 X42.837 Y-10.721 E13.48061
G1 X42.837 Y-13.760 E13.51131
G1 X37.824 Y-13.760 F7800.000
G1 X37.611 Y-13.883 E13.51380 F1800.000
G1 X33.063 Y-13.660 E13.55981
G1 X33.063 Y-10.721 E13.58950
G1 X35.318 Y-9.419 E13.61582
G1 X35.318 Y-6.380 E13.64652
G1 X33.063 Y-5.078 E13.67283
G1 X33.063 Y-2.040 E13.70353
G1 X35.318 Y-0.737 E13.72985
G1 X35.318 Y2.301 E13.76055
G1 X33.063 Y3.603 E13.78686
G1 X33.063 Y6.642 E13.81756
G1 X35.318 Y7.944 E13.84387
G1 X35.318 Y10.983 E13.87457
G1 X33.936 Y11.781 E13.89070
G1 X37.824 Y12.292 E13.93032
G1 X35.569 Y10.983 E13.95666
G1 X35.569 Y7.944 E13.98736
G1 X37.824 Y6.642 E14.01368
G1 X37.824 Y3.603 E14.04438
G1 X35.569 Y2.301 E14.07069
G1 X35.569 Y-0.737 E14.10139
G1 X37.824 Y-2.040 E14.12771
G1 X37.824 Y-5.078 E14.15841
G1 X35.569 Y-6.380 E14.18472
G1 X35.569 Y-9.419 E14.21542
G1 X37.824 Y-10.721 E14.24173
G1 X37.824 Y-13.760 E14.27243
G1 X32.812 Y-10.721 F7800.000
G1 X32.812 Y-13.648 E14.30200 F1800.000
G1 X28.050 Y-13.405 E14.35017
G1 X28.050 Y-10.721 E14.37728
G1 X30.306 Y-9.419 E14.40359
G1 X30.306 Y-6.380 E14.43429
G1 X28.050 Y-5.078 E14.46061
G1 X28.050 Y-2.040 E14.49131
G1 X30.306 Y-0.737 E14.51762
G1 X30.306 Y2.301 E14.54832
G1 X28.050 Y3.603 E14.57464
G1 X28.050 Y6.642 E14.60534
G1 X30.306 Y7.944 E14.63165
G1 X30.306 Y10.983 E14.66235
G1 X29.853 Y11.244 E14.66763
G1 X31.350 Y11.441 E14.68288
G1 X30.556 Y10.983 E14.69214
G1 X30.556 Y7.944 E14.72284
G1 X32.812 Y6.642 E14.74915
G1 X32.812 Y3.603 E14.77985
G1 X30.556 Y2.301 E14.80617
G1 X30.556 Y-0.737 E14.83687
G1 X32.812 Y-2.040 E14.86318
G1 X32.812 Y-5.078 E14.89388
G1 X30.556 Y-6.380 E14.92019
G1 X30.556 Y-9.419 E14.95089
G1 X32.812 Y-10.721 E14.97721
G1 X27.800 Y-10.721 F7800.000
G1 X27.800 Y-13.392 E15.00419 F1800.000
G1 X23.038 Y-13.149 E15.05236
G1 X23.038 Y-10.721 E15.07689
G1 X25.293 Y-9.419 E15.10320
G1 X25.293 Y-6.380 E15.13390
G1 X23.038 Y-5.078 E15.16021
G1 X23.038 Y-2.040 E15.19091
G1 X25.293 Y-0.737 E15.21723
G1 X25.293 Y2.301 E15.24793
G1 X23.038 Y3.603 E15.27424
G1 X23.038 Y6.642 E15.30494
G1 X25.293 Y7.944 E15.33126
G1 X25.293 Y10.645 E15.35854
G1 X25.544 Y10.678 E15.36110
G1 X25.544 Y7.944 E15.38872
G1 X27.800 Y6.642 E15.41503
G1 X27.800 Y3.603 E15.44573
G1 X25.544 Y2.301 E15.47205
G1 X25.544 Y-0.737 E15.50275
G1 X27.800 Y-2.040 E15.52906
G1 X27.800 Y-5.078 E15.55976
G1 X25.544 Y-6.380 E15.58607
G1 X25.544 Y-9.419 E15.61677
G1 X27.800 Y-10.721 E15.64309
G1 X22.787 Y-10.721 F7800.000
G1 X22.787 Y-13.136 E15.66748 F1800.000
G1 X18.025 Y-12.881 E15.71566
G1 X18.025 Y-10.721 E15.73748
G1 X20.281 Y-9.419 E15.76380
G1 X20.281 Y-6.380 E15.79449
G1 X18.025 Y-5.078 E15.82081
G1 X18.025 Y-2.040 E15.85151
G1 X20.281 Y-0.737 E15.87782
G1 X20.281 Y2.301 E15.90852
G1 X18.025 Y3.603 E15.93484
G1 X18.025 Y6.642 E15.96554
G1 X20.281 Y7.944 E15.99185
G1 X20.281 Y10.004 E16.01266
G1 X20.532 Y10.036 E16.01521
G1 X20.532 Y7.944 E16.03634
G1 X22.787 Y6.642 E16.06266
G1 X22.787 Y3.603 E16.09336
G1 X20.532 Y2.301 E16.11967
G1 X20.532 Y-0.737 E16.15037
G1 X22.787 Y-2.040 E16.17668
G1 X22.787 Y-5.078 E16.20738
G1 X20.532 Y-6.380 E16.23370
G1 X20.532 Y-9.419 E16.26440
G1 X22.787 Y-10.721 E16.29071
G1 X17.775 Y-10.721 F7800.000
G1 X17.775 Y-12.867 E16.31239 F1800.000
G1 X13.013 Y-12.604 E16.36057
G1 X13.013 Y-10.721 E16.37960
G1 X15.269 Y-9.419 E16.40591
G1 X15.269 Y-6.380 E16.43661
G1 X13.013 Y-5.078 E16.46292
G1 X13.013 Y-2.040 E16.49362
G1 X15.269 Y-0.737 E16.51994
G1 X15.269 Y2.301 E16.55064
G1 X13.013 Y3.603 E16.57695
G1 X13.013 Y6.642 E16.60765
G1 X15.269 Y7.944 E16.63397
G1 X15.269 Y9.371 E16.64838
G1 X15.519 Y9.402 E16.65093
G1 X15.519 Y7.944 E16.66566
G1 X17.775 Y6.642 E16.69198
G1 X17.775 Y3.603 E16.72268
G1 X15.519 Y2.301 E16.74899
G1 X15.519 Y-0.737 E16.77969
G1 X17.775 Y-2.040 E16.80600
G1 X17.775 Y-5.078 E16.83670
G1 X15.519 Y-6.380 E16.86302
G1 X15.519 Y-9.419 E16.89372
G1 X17.775 Y-10.721 E16.92003
G1 X12.762 Y-10.721 F7800.000
G1 X12.762 Y-12.590 E16.93891 F1800.000
G1 X8.001 Y-12.327 E16.98710
G1 X8.001 Y-10.721 E17.00332
G1 X10.256 Y-9.419 E17.02963
G1 X10.256 Y-6.380 E17.06033
G1 X8.001 Y-5.078 E17.08665
G1 X8.001 Y-2.040 E17.11735
G1 X10.256 Y-0.737 E17.14366
G1 X10.256 Y2.301 E17.17436
G1 X8.001 Y3.603 E17.20067
G1 X8.001 Y6.642 E17.23137
G1 X10.256 Y7.944 E17.25769
G1 X10.256 Y8.738 E17.26570
G1 X10.507 Y8.769 E17.26825
G1 X10.507 Y7.944 E17.27659
G1 X12.762 Y6.642 E17.30290
G1 X12.762 Y3.603 E17.33360
G1 X10.507 Y2.301 E17.35992
G1 X10.507 Y-0.737 E17.39062
G1 X12.762 Y-2.040 E17.41693
G1 X12.762 Y-5.078 E17.44763
G1 X10.507 Y-6.380 E17.47394
G1 X10.507 Y-9.419 E17.50464
G1 X12.762 Y-10.721 E17.53096
G1 X7.750 Y-10.721 F7800.000
G1 X7.750 Y-12.313 E17.54704 F1800.000
G1 X2.988 Y-12.033 E17.59523
G1 X2.988 Y-10.721 E17.60848
G1 X5.244 Y-9.419 E17.63480
G1 X5.244 Y-6.380 E17.66550
G1 X2.988 Y-5.078 E17.69181
G1 X2.988 Y-4.993 E17.69267
G1 X3.392 Y-4.381 E17.70008
G1 X3.699 Y-3.569 E17.70886
G1 X3.803 Y-2.734 E17.71735
G1 X3.763 Y-2.204 E17.72272
G1 X3.638 Y-1.664 E17.72832
G1 X5.244 Y-0.737 E17.74705
G1 X5.244 Y2.301 E17.77775
G1 X2.988 Y3.603 E17.80406
G1 X2.988 Y6.642 E17.83476
G1 X5.244 Y7.944 E17.86108
G1 X5.244 Y8.127 E17.86292
G1 X5.495 Y8.157 E17.86547
G1 X5.495 Y7.944 E17.86762
G1 X7.750 Y6.642 E17.89393
G1 X7.750 Y3.603 E17.92463
G1 X5.495 Y2.301 E17.95095
G1 X5.495 Y-0.737 E17.98165
G1 X7.750 Y-2.040 E18.00796
G1 X7.750 Y-5.078 E18.03866
G1 X5.495 Y-6.380 E18.06498
G1 X5.495 Y-9.419 E18.09568
G1 X7.750 Y-10.721 E18.12199
G1 X2.738 Y-10.721 F7800.000
G1 X2.738 Y-12.018 E18.13509 F1800.000
G1 X-2.024 Y-11.734 E18.18328
G1 X-2.024 Y-10.721 E18.19351
G1 X0.232 Y-9.419 E18.21982
G1 X0.232 Y-6.886 E18.24541
G1 X0.482 Y-6.809 E18.24806
G1 X0.482 Y-9.419 E18.27444
G1 X2.738 Y-10.721 E18.30075
G1 X-2.275 Y-10.721 F7800.000
G1 X-2.275 Y-11.719 E18.31082 F1800.000
G1 X-7.036 Y-11.432 E18.35902
G1 X-7.036 Y-10.721 E18.36620
G1 X-4.781 Y-9.419 E18.39252
G1 X-4.781 Y-7.016 E18.41680
G1 X-4.530 Y-7.083 E18.41942
G1 X-4.530 Y-9.419 E18.44302
G1 X-2.275 Y-10.721 E18.46933
G1 X-7.287 Y-10.721 F7800.000
G1 X-7.287 Y-11.416 E18.47635 F1800.000
G1 X-12.049 Y-11.108 E18.52456
G1 X-12.049 Y-10.721 E18.52847
