; generated by Slic3r 1.2.9 on 2016-07-14 at 19:17:53

; external perimeters extrusion width = 0.30mm
; perimeters extrusion width = 0.31mm
; infill extrusion width = 0.31mm
; solid infill extrusion width = 0.31mm
; top infill extrusion width = 0.31mm

M107
M104 S215 ; set temperature
G28 ; home all axes
G1 Z5 F5000 ; lift nozzle

M109 S215 ; wait for temperature to be reached
G21 ; set units to millimeters
G90 ; use absolute coordinates
M82 ; use absolute distances for extrusion
G92 E0
G1 E-2.00000 F2400.00000
G92 E0
G1 Z0.100 F7800.000
G1 X0.000 Y36.179 F7800.000
G1 E2.00000 F2400.00000
G1 X-42.500 Y36.179 E2.42939 F1800.000
G1 X-44.678 Y35.782 E2.45176
G1 X-46.577 Y34.642 E2.47413
G1 X-47.952 Y32.907 E2.49650
G1 X-48.679 Y30.000 E2.52678
G1 X-48.679 Y-30.000 E3.13297
G1 X-48.282 Y-32.178 E3.15534
G1 X-47.142 Y-34.077 E3.17771
G1 X-45.407 Y-35.452 E3.20009
G1 X-42.500 Y-36.179 E3.23036
G1 X32.500 Y-36.179 E3.98810
G1 X34.678 Y-35.782 E4.01048
G1 X36.577 Y-34.642 E4.03285 F1800.000
G1 X38.361 Y-31.954 E4.06545
G1 X48.361 Y-1.954 E4.38494
G1 X48.674 Y0.238 E4.40731
G1 X48.361 Y1.954 E4.42493
G1 X38.361 Y31.954 E4.74443
G1 X37.296 Y33.895 E4.76680
G1 X35.615 Y35.336 E4.78917
G1 X32.500 Y36.179 E4.82177
G1 X0.045 Y36.179 E5.14967
G1 F6240
G1 X-5.155 Y36.179 E3.24967
G1 E3.14967 F2400.00000
G92 E0
G1 X41.245 Y-2.319 F7800.000
G1 E2.00000 F2400.00000
G1 X42.018 Y-0.000 E2.02469 F1800.000
G1 X32.171 Y29.543 E2.33932
G1 X-42.043 Y29.543 E3.08912
G1 X-42.043 Y-29.543 E3.68608
G1 X32.171 Y-29.543 E4.43588
G1 X37.313 Y-14.114 E4.60019
G1 X26.280 Y-13.119 E4.71211 F1800.000
G1 X20.688 Y-12.575 E4.76888
G1 X15.393 Y-12.028 E4.82266
G1 X10.406 Y-11.480 E4.87336
G1 X5.735 Y-10.931 E4.92087
G1 X1.385 Y-10.375 E4.96518
G1 X-1.339 Y-9.997 E4.99296
G1 X-3.920 Y-9.612 E5.01933
G1 X-6.361 Y-9.220 E5.04431
G1 X-10.828 Y-8.430 E5.09013
G1 X-14.759 Y-7.654 E5.13062
G1 X-20.954 Y-6.347 E5.19459
G1 X-25.121 Y-5.508 E5.23753
G1 X-25.001 Y-4.572 E5.24707
G1 X-21.830 Y-4.746 E5.27916
G1 X-18.224 Y-4.882 E5.31561
G1 X-14.457 Y-4.966 E5.35368
G1 X-11.128 Y-4.996 E5.38731
G1 X-7.375 Y-4.985 E5.42523
G1 X-4.644 Y-4.951 E5.45282
G1 X-0.212 Y-4.852 E5.49761
G1 X2.957 Y-4.754 E5.52965
G1 X8.027 Y-4.552 E5.58092
G1 X11.608 Y-4.382 E5.61713
G1 X17.271 Y-4.072 E5.67443
G1 X21.231 Y-3.828 E5.71452
G1 X27.443 Y-3.406 E5.77743
G1 X31.758 Y-3.088 E5.82114
G1 X41.200 Y-2.322 E5.91685
G1 X41.215 Y-2.500 F7800.000
G1 X41.377 Y-2.487 E5.91850 F1800.000
G1 X42.206 Y-0.000 E5.94499
G1 X32.299 Y29.721 E6.26151
G1 X-42.221 Y29.721 E7.01442
G1 X-42.221 Y-29.721 E7.61499
G1 X32.299 Y-29.721 E8.36789
G1 X37.554 Y-13.956 E8.53579
G1 X26.297 Y-12.942 E8.64998 F1800.000
G1 X20.706 Y-12.397 E8.70674
G1 X15.412 Y-11.851 E8.76051
G1 X10.426 Y-11.303 E8.81119
G1 X5.757 Y-10.754 E8.85869
G1 X1.408 Y-10.198 E8.90298
G1 X-1.314 Y-9.821 E8.93074
G1 X-3.893 Y-9.436 E8.95709
G1 X-6.332 Y-9.044 E8.98205
G1 X-10.795 Y-8.255 E9.02784
G1 X-14.723 Y-7.479 E9.06829
G1 X-20.918 Y-6.172 E9.13226
G1 X-24.922 Y-5.366 E9.17353
G1 X-24.845 Y-4.759 E9.17971
G1 X-21.838 Y-4.924 E9.21014
G1 X-18.230 Y-5.061 E9.24662
G1 X-14.460 Y-5.145 E9.28471
G1 X-11.129 Y-5.175 E9.31837
G1 X-7.374 Y-5.164 E9.35631
G1 X-4.641 Y-5.129 E9.38392
G1 X-0.208 Y-5.031 E9.42873
G1 X2.964 Y-4.932 E9.46078
G1 X8.035 Y-4.731 E9.51206
G1 X11.617 Y-4.560 E9.54829
G1 X17.281 Y-4.250 E9.60560
G1 X21.243 Y-4.006 E9.64571
G1 X27.456 Y-3.584 E9.70862
G1 X31.772 Y-3.266 E9.75234
G1 X41.170 Y-2.504 E9.84761
G1 X41.184 Y-2.682 F7800.000
G1 X41.509 Y-2.655 E9.85090 F1800.000
G1 X42.395 Y-0.000 E9.87918
G1 X32.428 Y29.900 E10.19761
G1 X-42.400 Y29.900 E10.95362
G1 X-42.400 Y-29.900 E11.55780
G1 X32.428 Y-29.900 E12.31381
G1 X37.743 Y-13.954 E12.48363
G1 X37.795 Y-13.798 E12.48529 F1800.000
G1 X32.192 Y-13.306 E12.54211
G1 X26.314 Y-12.764 E12.60175
G1 X20.724 Y-12.219 E12.65850
G1 X15.431 Y-11.673 E12.71226
G1 X10.446 Y-11.125 E12.76293
G1 X5.779 Y-10.576 E12.81041
G1 X1.432 Y-10.021 E12.85468
G1 X-1.288 Y-9.644 E12.88243
G1 X-3.865 Y-9.259 E12.90875
G1 X-6.302 Y-8.868 E12.93369
G1 X-10.762 Y-8.079 E12.97945
G1 X-14.687 Y-7.304 E13.01987
G1 X-20.882 Y-5.997 E13.08383
G1 X-24.724 Y-5.224 E13.12343
G1 X-24.689 Y-4.946 E13.12626
G1 X-21.846 Y-5.103 E13.15502
G1 X-18.235 Y-5.239 E13.19153
G1 X-14.463 Y-5.323 E13.22965
G1 X-11.129 Y-5.354 E13.26333
G1 X-7.372 Y-5.342 E13.30129
G1 X-4.638 Y-5.308 E13.32892
G1 X-0.203 Y-5.209 E13.37374
G1 X2.970 Y-5.111 E13.40581
G1 X8.043 Y-4.909 E13.45711
G1 X11.626 Y-4.739 E13.49335
G1 X17.291 Y-4.428 E13.55067
G1 X21.254 Y-4.184 E13.59079
G1 X27.469 Y-3.762 E13.65372
G1 X31.785 Y-3.444 E13.69745
G1 X41.140 Y-2.685 E13.79227
G1 X41.313 Y-2.411 F7800.000
G1 X41.106 Y-2.141 F7800.000
G1 X41.820 Y-0.000 E13.81507 F1800.000
G1 X41.449 Y1.115 E13.82694
G1 X40.330 Y1.761 E13.84000
G1 X40.330 Y4.472 E13.86739
G1 X38.620 Y9.600 E13.92201
G1 X37.824 Y9.140 E13.93130
G1 X37.824 Y6.101 E13.96200
G1 X40.079 Y4.799 E13.98831
G1 X40.079 Y1.761 E14.01901
G1 X37.824 Y0.458 E14.04533
G1 X37.824 Y-2.408 E14.07428
G1 X41.106 Y-2.141 E14.10756
G1 X37.573 Y-2.428 F7800.000
G1 X37.573 Y0.458 E14.13672 F1800.000
G1 X35.317 Y1.761 E14.16304
G1 X35.317 Y4.799 E14.19373
G1 X37.573 Y6.101 E14.22005
G1 X37.573 Y9.140 E14.25075
G1 X35.317 Y10.442 E14.27706
G1 X35.317 Y13.481 E14.30776
G1 X37.002 Y14.454 E14.32742
G1 X35.476 Y19.032 E14.37618
G1 X35.317 Y19.124 E14.37803
G1 X35.317 Y19.509 E14.38192
G1 X35.067 Y20.261 E14.38993
G1 X35.067 Y19.124 E14.40141
G1 X32.811 Y17.822 E14.42773
G1 X32.811 Y14.783 E14.45843
G1 X35.067 Y13.481 E14.48474
G1 X35.067 Y10.442 E14.51544
G1 X32.811 Y9.140 E14.54175
G1 X32.811 Y6.101 E14.57245
G1 X35.067 Y4.799 E14.59877
G1 X35.067 Y1.761 E14.62947
G1 X32.811 Y0.458 E14.65578
G1 X32.811 Y-2.580 E14.68648
G1 X33.166 Y-2.785 E14.69062
G1 X37.573 Y-2.428 E14.73529
G1 X31.743 Y-2.900 F7800.000
G1 X32.049 Y-2.876 E14.73839 F1800.000
G1 X32.561 Y-2.580 E14.74436
G1 X32.561 Y0.458 E14.77506
G1 X30.305 Y1.761 E14.80137
G1 X30.305 Y4.799 E14.83207
G1 X32.561 Y6.101 E14.85839
G1 X32.561 Y9.140 E14.88909
G1 X30.305 Y10.442 E14.91540
G1 X30.305 Y13.481 E14.94610
G1 X32.561 Y14.783 E14.97241
G1 X32.561 Y17.822 E15.00311
G1 X30.305 Y19.124 E15.02943
G1 X30.305 Y22.163 E15.06013
G1 X32.561 Y23.465 E15.08644
G1 X32.561 Y26.503 E15.11714
G1 X30.305 Y27.806 E15.14346
G1 X30.305 Y29.355 E15.15911
G1 X30.054 Y29.355 E15.16164
G1 X30.054 Y27.806 E15.17730
G1 X27.799 Y26.503 E15.20361
G1 X27.799 Y23.465 E15.23431
G1 X30.054 Y22.163 E15.26062
G1 X30.054 Y19.124 E15.29132
G1 X27.799 Y17.822 E15.31764
G1 X27.799 Y14.783 E15.34834
G1 X30.054 Y13.481 E15.37465
G1 X30.054 Y10.442 E15.40535
G1 X27.799 Y9.140 E15.43167
G1 X27.799 Y6.101 E15.46237
G1 X30.054 Y4.799 E15.48868
G1 X30.054 Y1.761 E15.51938
G1 X27.799 Y0.458 E15.54569
G1 X27.799 Y-2.580 E15.57639
G1 X28.738 Y-3.122 E15.58735
G1 X31.743 Y-2.900 E15.61780
G1 X26.310 Y-3.295 F7800.000
G1 X27.548 Y-2.580 E15.63224 F1800.000
G1 X27.548 Y0.458 E15.66294
G1 X25.293 Y1.761 E15.68925
G1 X25.293 Y4.799 E15.71995
G1 X27.548 Y6.101 E15.74627
G1 X27.548 Y9.140 E15.77697
G1 X25.293 Y10.442 E15.80328
G1 X25.293 Y13.481 E15.83398
G1 X27.548 Y14.783 E15.86030
G1 X27.548 Y17.822 E15.89100
G1 X25.293 Y19.124 E15.91731
G1 X25.293 Y22.163 E15.94801
G1 X27.548 Y23.465 E15.97432
G1 X27.548 Y26.503 E16.00502
G1 X25.293 Y27.806 E16.03134
G1 X25.293 Y29.355 E16.04699
G1 X25.042 Y29.355 E16.04952
G1 X25.042 Y27.806 E16.06518
G1 X22.786 Y26.503 E16.09149
G1 X22.786 Y23.465 E16.12219
G1 X25.042 Y22.163 E16.14851
G1 X25.042 Y19.124 E16.17921
G1 X22.786 Y17.822 E16.20552
G1 X22.786 Y14.783 E16.23622
G1 X25.042 Y13.481 E16.26253
G1 X25.042 Y10.442 E16.29323
G1 X22.786 Y9.140 E16.31955
G1 X22.786 Y6.101 E16.35025
G1 X25.042 Y4.799 E16.37656
G1 X25.042 Y1.761 E16.40726
G1 X22.786 Y0.458 E16.43358
G1 X22.786 Y-2.580 E16.46428
G1 X24.265 Y-3.434 E16.48152
G1 X26.310 Y-3.295 E16.50224
G1 X20.637 Y-3.676 F7800.000
G1 X22.536 Y-2.580 E16.52438 F1800.000
G1 X22.536 Y0.458 E16.55508
G1 X20.280 Y1.761 E16.58140
G1 X20.280 Y4.799 E16.61210
G1 X22.536 Y6.101 E16.63841
G1 X22.536 Y9.140 E16.66911
G1 X20.280 Y10.442 E16.69543
G1 X20.280 Y13.481 E16.72613
G1 X22.536 Y14.783 E16.75244
G1 X22.536 Y17.822 E16.78314
G1 X20.280 Y19.124 E16.80945
G1 X20.280 Y22.163 E16.84015
G1 X22.536 Y23.465 E16.86647
G1 X22.536 Y26.503 E16.89717
G1 X20.280 Y27.806 E16.92348
G1 X20.280 Y29.355 E16.93914
G1 X20.030 Y29.355 E16.94167
G1 X20.030 Y27.806 E16.95732
G1 X17.774 Y26.503 E16.98364
G1 X17.774 Y23.465 E17.01434
G1 X20.030 Y22.163 E17.04065
G1 X20.030 Y19.124 E17.07135
G1 X17.774 Y17.822 E17.09766
G1 X17.774 Y14.783 E17.12836
G1 X20.030 Y13.481 E17.15468
G1 X20.030 Y10.442 E17.18538
G1 X17.774 Y9.140 E17.21169
G1 X17.774 Y6.101 E17.24239
G1 X20.030 Y4.799 E17.26871
G1 X20.030 Y1.761 E17.29941
G1 X17.774 Y0.458 E17.32572
G1 X17.774 Y-2.580 E17.35642
G1 X19.765 Y-3.730 E17.37965
G1 X20.637 Y-3.676 E17.38848
G1 X15.268 Y-3.993 F7800.000
G1 X15.268 Y-3.883 E17.38960 F1800.000
G1 X17.523 Y-2.580 E17.41591
G1 X17.523 Y0.458 E17.44661
G1 X15.268 Y1.761 E17.47293
G1 X15.268 Y4.799 E17.50363
G1 X17.523 Y6.101 E17.52994
G1 X17.523 Y9.140 E17.56064
G1 X15.268 Y10.442 E17.58695
G1 X15.268 Y13.481 E17.61765
G1 X17.523 Y14.783 E17.64397
G1 X17.523 Y17.822 E17.67467
G1 X15.268 Y19.124 E17.70098
G1 X15.268 Y22.163 E17.73168
G1 X17.523 Y23.465 E17.75800
G1 X17.523 Y26.503 E17.78870
G1 X15.268 Y27.806 E17.81501
G1 X15.268 Y29.355 E17.83066
G1 X15.017 Y29.355 E17.83320
G1 X15.017 Y27.806 E17.84885
G1 X12.762 Y26.503 E17.87516
G1 X12.762 Y23.465 E17.90586
G1 X15.017 Y22.163 E17.93218
G1 X15.017 Y19.124 E17.96288
G1 X12.762 Y17.822 E17.98919
G1 X12.762 Y14.783 E18.01989
G1 X15.017 Y13.481 E18.04621
G1 X15.017 Y10.442 E18.07691
G1 X12.762 Y9.140 E18.10322
G1 X12.762 Y6.101 E18.13392
G1 X15.017 Y4.799 E18.16023
G1 X15.017 Y1.761 E18.19093
G1 X12.762 Y0.458 E18.21725
G1 X12.762 Y-2.580 E18.24795
G1 X15.017 Y-3.883 E18.27426
G1 X15.017 Y-4.007 E18.27552
G1 X15.268 Y-3.993 E18.27806
G1 X10.255 Y-4.258 F7800.000
G1 X10.255 Y-3.883 E18.28185 F1800.000
G1 X12.511 Y-2.580 E18.30817
G1 X12.511 Y0.458 E18.33887
G1 X10.255 Y1.761 E18.36518
G1 X10.255 Y4.799 E18.39588
G1 X12.511 Y6.101 E18.42219
G1 X12.511 Y9.140 E18.45289
G1 X10.255 Y10.442 E18.47921
G1 X10.255 Y13.481 E18.50991
G1 X12.511 Y14.783 E18.53622
G1 X12.511 Y17.822 E18.56692
G1 X10.255 Y19.124 E18.59324
G1 X10.255 Y22.163 E18.62394
G1 X12.511 Y23.465 E18.65025
G1 X12.511 Y26.503 E18.68095
G1 X10.255 Y27.806 E18.70726
G1 X10.255 Y29.355 E18.72292
G1 X10.005 Y29.355 E18.72545
G1 X10.005 Y27.806 E18.74110
G1 X7.749 Y26.503 E18.76742
G1 X7.749 Y23.465 E18.79812
G1 X10.005 Y22.163 E18.82443
G1 X10.005 Y19.124 E18.85513
G1 X7.749 Y17.822 E18.88145
G1 X7.749 Y14.783 E18.91215
G1 X10.005 Y13.481 E18.93846
G1 X10.005 Y10.442 E18.96916
G1 X7.749 Y9.140 E18.99547
G1 X7.749 Y6.101 E19.02617
G1 X10.005 Y4.799 E19.05249
G1 X10.005 Y1.761 E19.08319
G1 X7.749 Y0.458 E19.10950
G1 X7.749 Y-2.580 E19.14020
G1 X10.005 Y-3.883 E19.16652
G1 X10.005 Y-4.270 E19.17043
G1 X10.255 Y-4.258 E19.17297
G1 X5.243 Y-4.475 F7800.000
G1 X5.243 Y-3.883 E19.17895 F1800.000
G1 X7.499 Y-2.580 E19.20527
G1 X7.499 Y0.458 E19.23597
G1 X5.243 Y1.761 E19.26228
G1 X5.243 Y4.799 E19.29298
G1 X7.499 Y6.101 E19.31929
G1 X7.499 Y9.140 E19.34999
G1 X5.243 Y10.442 E19.37631
G1 X5.243 Y13.481 E19.40701
G1 X7.499 Y14.783 E19.43332
G1 X7.499 Y17.822 E19.46402
G1 X5.243 Y19.124 E19.49034
G1 X5.243 Y22.163 E19.52104
G1 X7.499 Y23.465 E19.54735
G1 X7.499 Y26.503 E19.57805
G1 X5.243 Y27.806 E19.60436
G1 X5.243 Y29.355 E19.62002
G1 X4.992 Y29.355 E19.62255
G1 X4.992 Y27.806 E19.63820
G1 X2.737 Y26.503 E19.66452
G1 X2.737 Y23.465 E19.69522
G1 X4.992 Y22.163 E19.72153
G1 X4.992 Y19.124 E19.75223
G1 X2.737 Y17.822 E19.77855
G1 X2.737 Y14.783 E19.80925
G1 X4.992 Y13.481 E19.83556
G1 X4.992 Y10.442 E19.86626
G1 X2.737 Y9.140 E19.89257
G1 X2.737 Y6.101 E19.92327
G1 X4.992 Y4.799 E19.94959
G1 X4.992 Y1.761 E19.98029
G1 X2.737 Y0.458 E20.00660
G1 X2.737 Y-2.580 E20.03730
G1 X4.992 Y-3.883 E20.06362
G1 X4.992 Y-4.485 E20.06970
G1 X5.243 Y-4.475 E20.07224
G1 X0.231 Y-4.651 F7800.000
G1 X0.231 Y-3.883 E20.08000 F1800.000
G1 X2.486 Y-2.580 E20.10631
G1 X2.486 Y0.458 E20.13701
G1 X0.231 Y1.761 E20.16333
G1 X0.231 Y4.799 E20.19403
G1 X2.486 Y6.101 E20.22034
G1 X2.486 Y9.140 E20.25104
G1 X0.231 Y10.442 E20.27735
G1 X0.231 Y13.481 E20.30805
G1 X2.486 Y14.783 E20.33437
G1 X2.486 Y17.822 E20.36507
G1 X0.231 Y19.124 E20.39138
G1 X0.231 Y22.163 E20.42208
G1 X2.486 Y23.465 E20.44840
G1 X2.486 Y26.503 E20.47910
G1 X0.231 Y27.806 E20.50541
G1 X0.231 Y29.355 E20.52106
G1 X-0.020 Y29.355 E20.52360
G1 X-0.020 Y27.806 E20.53925
G1 X-2.276 Y26.503 E20.56556
G1 X-2.276 Y23.465 E20.59626
G1 X-0.020 Y22.163 E20.62258
G1 X-0.020 Y19.124 E20.65328
G1 X-2.276 Y17.822 E20.67959
G1 X-2.276 Y14.783 E20.71029
G1 X-0.020 Y13.481 E20.73661
G1 X-0.020 Y10.442 E20.76731
G1 X-2.276 Y9.140 E20.79362
G1 X-2.276 Y6.101 E20.82432
G1 X-0.020 Y4.799 E20.85063
G1 X-0.020 Y1.761 E20.88133
G1 X-2.276 Y0.458 E20.90765
G1 X-2.276 Y-2.580 E20.93835
G1 X-0.020 Y-3.883 E20.96466
G1 X-0.020 Y-4.659 E20.97250
G1 X0.231 Y-4.651 E20.97504
G1 X-4.782 Y-4.764 F7800.000
G1 X-4.782 Y-3.883 E20.98395 F1800.000
G1 X-2.526 Y-2.580 E21.01026
G1 X-2.526 Y0.458 E21.04096
G1 X-4.782 Y1.761 E21.06728
G1 X-4.782 Y4.799 E21.09798
G1 X-2.526 Y6.101 E21.12429
G1 X-2.526 Y9.140 E21.15499
G1 X-4.782 Y10.442 E21.18130
G1 X-4.782 Y13.481 E21.21200
G1 X-2.526 Y14.783 E21.23832
G1 X-2.526 Y17.822 E21.26902
G1 X-4.782 Y19.124 E21.29533
G1 X-4.782 Y22.163 E21.32603
G1 X-2.526 Y23.465 E21.35235
G1 X-2.526 Y26.503 E21.38305
G1 X-4.782 Y27.806 E21.40936
G1 X-4.782 Y29.355 E21.42501
G1 X-5.032 Y29.355 E21.42755
G1 X-5.032 Y27.806 E21.44320
G1 X-7.288 Y26.503 E21.46951
G1 X-7.288 Y23.465 E21.50021
G1 X-5.032 Y22.163 E21.52653
G1 X-5.032 Y19.124 E21.55723
G1 X-7.288 Y17.822 E21.58354
G1 X-7.288 Y14.783 E21.61424
G1 X-5.032 Y13.481 E21.64056
G1 X-5.032 Y10.442 E21.67126
G1 X-7.288 Y9.140 E21.69757
G1 X-7.288 Y6.101 E21.72827
G1 X-5.032 Y4.799 E21.75458
G1 X-5.032 Y1.761 E21.78528
G1 X-7.288 Y0.458 E21.81160
G1 X-7.288 Y-2.580 E21.84230
G1 X-5.032 Y-3.883 E21.86861
G1 X-5.032 Y-4.768 E21.87755
G1 X-4.782 Y-4.764 E21.88009
G1 X-9.794 Y-4.805 F7800.000
G1 X-9.794 Y-3.883 E21.88940 F1800.000
G1 X-7.539 Y-2.580 E21.91572
G1 X-7.539 Y0.458 E21.94642
G1 X-9.794 Y1.761 E21.97273
G1 X-9.794 Y4.799 E22.00343
G1 X-7.539 Y6.101 E22.02975
G1 X-7.539 Y9.140 E22.06045
G1 X-9.794 Y10.442 E22.08676
G1 X-9.794 Y13.481 E22.11746
G1 X-7.539 Y14.783 E22.14377
G1 X-7.539 Y17.822 E22.17447
G1 X-9.794 Y19.124 E22.20079
G1 X-9.794 Y22.163 E22.23149
G1 X-7.539 Y23.465 E22.25780
G1 X-7.539 Y26.503 E22.28850
G1 X-9.794 Y27.806 E22.31482
G1 X-9.794 Y29.355 E22.33047
G1 X-10.045 Y29.355 E22.33300
G1 X-10.045 Y27.806 E22.34866
G1 X-12.300 Y26.503 E22.37497
G1 X-12.300 Y23.465 E22.40567
G1 X-10.045 Y22.163 E22.43198
G1 X-10.045 Y19.124 E22.46268
G1 X-12.300 Y17.822 E22.48900
G1 X-12.300 Y14.783 E22.51970
G1 X-10.045 Y13.481 E22.54601
G1 X-10.045 Y10.442 E22.57671
G1 X-12.300 Y9.140 E22.60303
G1 X-12.300 Y6.101 E22.63373
G1 X-10.045 Y4.799 E22.66004
G1 X-10.045 Y1.761 E22.69074
G1 X-12.300 Y0.458 E22.71705
G1 X-12.300 Y-2.580 E22.74775
G1 X-10.045 Y-3.883 E22.77407
G1 X-10.045 Y-4.805 E22.78339
G1 X-9.794 Y-4.805 E22.78592
G1 X-14.807 Y-3.883 F7800.000
G1 X-12.551 Y-2.580 E22.81224 F1800.000
G1 X-12.551 Y0.458 E22.84294
G1 X-14.807 Y1.761 E22.86925
G1 X-14.807 Y4.799 E22.89995
G1 X-12.551 Y6.101 E22.92627
G1 X-12.551 Y9.140 E22.95697
G1 X-14.807 Y10.442 E22.98328
G1 X-14.807 Y13.481 E23.01398
G1 X-12.551 Y14.783 E23.04029
G1 X-12.551 Y17.822 E23.07099
G1 X-14.807 Y19.124 E23.09731
G1 X-14.807 Y22.163 E23.12801
G1 X-12.551 Y23.465 E23.15432
G1 X-12.551 Y26.503 E23.18502
G1 X-14.807 Y27.806 E23.21134
G1 X-14.807 Y29.355 E23.22699
G1 X-15.057 Y29.355 E23.22952
G1 X-15.057 Y27.806 E23.24518
G1 X-17.313 Y26.503 E23.27149
G1 X-17.313 Y23.465 E23.30219
G1 X-15.057 Y22.163 E23.32851
G1 X-15.057 Y19.124 E23.35920
G1 X-17.313 Y17.822 E23.38552
