; generated by Slic3r 1.2.9 on 2016-07-17 at 16:38:30

; external perimeters extrusion width = 0.40mm
; perimeters extrusion width = 0.67mm
; infill extrusion width = 0.67mm
; solid infill extrusion width = 0.67mm
; top infill extrusion width = 0.67mm

M107
M104 S215 ; set temperature
G28 ; home all axes
G1 Y-60 Z5 F5000 ; lift nozzle


M109 S215 ; wait for temperature to be reached
G21 ; set units to millimeters
G90 ; use absolute coordinates
M82 ; use absolute distances for extrusion
G92 E0
G1 E-3.00000 F2400.00000
G92 E0
G1 Z0.300 F6000.000
G1 X0.972 Y42.818 F6000.000
G1 E3.00000 F2400.00000
G1 X0.726 Y42.859 E3.01300 F1800.000
G1 X-0.726 Y42.859 E3.08890
G1 X-30.726 Y37.859 E4.67787
G1 X-32.464 Y37.168 E4.77554
G1 X-33.760 Y35.821 E4.87321
G1 X-34.419 Y33.500 E4.99927
G1 X-34.419 Y-38.500 E8.76091
G1 X-34.023 Y-40.327 E8.85858
G1 X-32.908 Y-41.827 E8.95625
G1 X-31.272 Y-42.732 E9.05393
G1 X-30.000 Y-42.919 E9.12108
G1 X30.000 Y-42.919 E12.25577
G1 X31.827 Y-42.523 E12.35344
G1 X33.327 Y-41.408 E12.45112
G1 X34.232 Y-39.772 E12.54879
G1 X34.419 Y-38.500 E12.61594
G1 X34.419 Y33.500 E16.37758
G1 X34.023 Y35.327 E16.47525
G1 X32.908 Y36.827 E16.57292
G1 X30.726 Y37.859 E16.69898
G1 X1.031 Y42.808 E18.27182
G1 F4800
G1 X0.726 Y42.859 E18.12516
G1 F4800
G1 X-0.726 Y42.859 E17.43504
G1 F4800
G1 X-4.907 Y42.162 E15.42182
G1 E15.27182 F2400.00000
G92 E0
G1 X4.445 Y-21.006 F6000.000
G1 E3.00000 F2400.00000
G1 X4.626 Y-17.724 E3.17172 F1800.000
G1 X4.762 Y-14.121 E3.36010
G1 X4.846 Y-10.356 E3.55686
G1 X4.876 Y-7.028 E3.73072
G1 X4.865 Y-3.276 E3.92674
G1 X4.830 Y-0.547 E4.06933
G1 X4.686 Y5.448 E4.38262
G1 X4.506 Y10.392 E4.64109
G1 X4.351 Y13.891 E4.82410
G1 X3.952 Y21.363 E5.21504
G1 X3.434 Y29.429 E5.63730
G1 X2.843 Y37.441 E6.05701
G1 X-0.000 Y37.915 E6.20760
G1 X-29.423 Y33.011 E7.76599
G1 X-29.423 Y-37.923 E11.47192
G1 X29.423 Y-37.923 E14.54630
G1 X29.423 Y33.011 E18.25222
G1 X13.723 Y35.628 E19.08376
G1 X12.876 Y26.608 E19.55707
G1 X11.965 Y17.783 E20.02055
G1 X11.417 Y12.900 E20.27729
G1 X11.050 Y9.820 E20.43933
G1 X10.494 Y5.469 E20.66851
G1 X10.116 Y2.744 E20.81224
G1 X9.731 Y0.162 E20.94865
G1 X9.339 Y-2.281 E21.07791
G1 X8.549 Y-6.750 E21.31499
G1 X7.772 Y-10.683 E21.52444
G1 X6.465 Y-16.878 E21.85523
G1 X5.604 Y-21.154 E22.08310
G1 X4.505 Y-21.013 E22.14100
G1 X4.841 Y-20.676 F6000.000
G1 X5.003 Y-17.742 E22.26402 F1800.000
G1 X5.139 Y-14.132 E22.41522
G1 X5.223 Y-10.361 E22.57310
G1 X5.254 Y-7.029 E22.71260
G1 X5.242 Y-3.273 E22.86983
G1 X5.208 Y-0.540 E22.98424
G1 X5.064 Y5.459 E23.23545
G1 X4.883 Y10.407 E23.44270
G1 X4.727 Y13.910 E23.58947
G1 X4.328 Y21.385 E23.90286
G1 X3.811 Y29.455 E24.24135
G1 X3.198 Y37.764 E24.59012
G1 X-0.000 Y38.297 E24.72582
G1 X-29.800 Y33.331 E25.99046
G1 X-29.800 Y-38.300 E28.98894
G1 X29.800 Y-38.300 E31.48381
G1 X29.800 Y33.331 E34.48229
G1 X13.385 Y36.066 E35.17889
G1 X12.501 Y26.645 E35.57501
G1 X11.590 Y17.824 E35.94622
G1 X11.042 Y12.943 E36.15181
G1 X10.676 Y9.866 E36.28152
G1 X10.120 Y5.519 E36.46499
G1 X9.743 Y2.798 E36.57998
G1 X9.358 Y0.219 E36.68911
G1 X8.967 Y-2.219 E36.79247
G1 X8.178 Y-6.680 E36.98214
G1 X7.402 Y-10.607 E37.14970
G1 X6.095 Y-16.802 E37.41471
G1 X5.304 Y-20.735 E37.58266
G1 X4.901 Y-20.684 E37.59966
G1 X4.443 Y-20.645 F6000.000
G1 X4.378 Y-10.707 F6000.000
G1 X4.416 Y-7.027 E37.79196 F1800.000
G1 X4.404 Y-3.280 E37.98772
G1 X4.370 Y-0.556 E38.13005
G1 X4.302 Y2.282 E38.27835
G1 X-1.839 Y0.637 E38.61049
G1 X-7.226 Y6.023 E39.00849
G1 X-5.536 Y12.330 E39.34963
G1 X-10.923 Y17.717 E39.74763
G1 X-17.230 Y16.027 E40.08877
G1 X-22.617 Y21.414 E40.48677
G1 X-20.927 Y27.721 E40.82792
G1 X-26.274 Y33.069 E41.22302
G1 X-26.764 Y32.987 E41.24898
G1 X-28.962 Y32.398 E41.36785
G1 X-28.962 Y19.388 E42.04754
G1 X-23.061 Y20.970 E42.36672
G1 X-17.674 Y15.583 E42.76472
G1 X-19.364 Y9.276 E43.10586
G1 X-13.977 Y3.889 E43.50386
G1 X-7.670 Y5.579 E43.84500
G1 X-2.284 Y0.192 E44.24300
G1 X-3.974 Y-6.115 E44.58414
G1 X1.413 Y-11.502 E44.98214
G1 X4.378 Y-10.707 E45.14248
G1 X-12.414 Y-17.919 F6000.000
G1 X-12.501 Y-21.001 F6000.000
G1 X17.370 Y-23.819 F6000.000
G1 X18.389 Y-13.827 F6000.000
G1 X18.793 Y-9.773 F6000.000
G1 X19.002 Y-7.529 F6000.000
G1 X19.107 Y-6.357 F6000.000
G1 X19.206 Y-5.203 F6000.000
G1 X9.558 Y-3.520 F6000.000
G1 X9.855 Y-3.060 F6000.000
G1 X9.697 Y-2.903 E45.15413 F1800.000
G1 X9.309 Y-5.097 E45.27056
G1 X9.855 Y-3.060 E45.38074
G1 X17.127 Y-25.627 F6000.000
G1 X-12.402 Y-17.448 F6000.000
G1 X-12.273 Y-5.839 F6000.000
G1 X-12.342 Y3.414 F6000.000
G1 X-12.418 Y8.055 F6000.000
G1 X-12.487 Y11.369 F6000.000
G1 X4.010 Y12.103 F6000.000
G1 X3.946 Y12.623 F6000.000
G1 X1.660 Y14.909 E45.54965 F1800.000
G1 X3.350 Y21.216 E45.89080
G1 X-2.037 Y26.603 E46.28880
G1 X-8.344 Y24.913 E46.62994
G1 X-13.731 Y30.300 E47.02794
G1 X-12.368 Y35.386 E47.30307
G1 X-25.513 Y33.196 E47.99928
G1 X-20.482 Y28.165 E48.37094
G1 X-14.175 Y29.855 E48.71208
G1 X-8.788 Y24.469 E49.11008
G1 X-10.478 Y18.161 E49.45122
G1 X-5.092 Y12.775 E49.84922
G1 X1.215 Y14.465 E50.19037
G1 X3.987 Y11.693 E50.39517
G1 X3.946 Y12.623 E50.44380
G1 X2.975 Y29.397 F6000.000
G1 X2.609 Y34.353 E50.70339 F1800.000
G1 X0.542 Y33.799 E50.81522
G1 X-2.663 Y37.004 E51.05202
G1 X-3.425 Y36.877 E51.09236
G1 X0.097 Y33.354 E51.35262
G1 X-1.593 Y27.047 E51.69376
G1 X3.449 Y22.006 E52.06625
G1 X2.975 Y29.397 E52.45321
G1 X-12.276 Y-8.062 F6000.000
G1 X-12.376 Y-16.363 F6000.000
G1 X2.968 Y-29.405 F6000.000
G1 X19.002 Y-7.529 F6000.000
G1 X19.820 Y2.791 F6000.000
G1 X20.203 Y8.716 F6000.000
G1 X20.390 Y11.869 F6000.000
G1 X20.483 Y13.494 F6000.000
G1 X20.575 Y15.133 F6000.000
G1 X20.576 Y15.154 F6000.000
G1 X28.962 Y15.395 F6000.000
G1 X28.962 Y28.404 E53.13290 F1800.000
G1 X24.818 Y27.294 E53.35704
G1 X19.431 Y32.681 E53.75504
G1 X19.823 Y34.144 E53.83418
G1 X14.136 Y35.092 E54.13543
G1 X13.735 Y30.829 E54.35911
G1 X18.987 Y32.236 E54.64316
G1 X24.374 Y26.850 E55.04116
G1 X22.684 Y20.542 E55.38231
G1 X28.070 Y15.156 E55.78031
G1 X28.962 Y15.395 E55.82853
G1 X28.962 Y5.378 F6000.000
G1 X25.936 Y8.404 E56.05210 F1800.000
G1 X27.626 Y14.711 E56.39324
G1 X22.239 Y20.098 E56.79124
G1 X15.932 Y18.408 E57.13238
G1 X12.815 Y21.526 E57.36272
G1 X12.732 Y20.720 E57.40503
G1 X15.488 Y17.964 E57.60868
G1 X13.798 Y11.657 E57.94983
G1 X19.185 Y6.270 E58.34783
G1 X25.492 Y7.960 E58.68897
G1 X28.962 Y4.490 E58.94536
G1 X28.962 Y5.378 E58.99179
G1 X28.962 Y-17.130 F6000.000
G1 X28.962 Y-4.396 E59.65705 F1800.000
G1 X28.744 Y-4.178 E59.67314
G1 X22.437 Y-5.868 E60.01428
G1 X17.050 Y-0.482 E60.41228
G1 X18.740 Y5.826 E60.75342
G1 X13.354 Y11.212 E61.15142
G1 X11.625 Y10.749 E61.24494
G1 X10.951 Y5.408 E61.52619
G1 X10.572 Y2.678 E61.67017
G1 X10.186 Y0.091 E61.80684
G1 X9.828 Y-2.145 E61.92513
G1 X10.299 Y-2.616 E61.95995
G1 X16.606 Y-0.926 E62.30110
G1 X21.993 Y-6.313 E62.69909
G1 X20.303 Y-12.620 E63.04024
G1 X25.689 Y-18.006 E63.43824
G1 X28.962 Y-17.130 E63.61524
G1 X28.962 Y-30.139 F6000.000
G1 X28.942 Y-30.145 E63.61633 F1800.000
G1 X23.555 Y-24.758 E64.01433
G1 X25.245 Y-18.451 E64.35547
G1 X19.858 Y-13.064 E64.75347
G1 X13.551 Y-14.754 E65.09461
G1 X8.446 Y-9.649 E65.47182
G1 X8.299 Y-10.391 E65.51134
G1 X13.107 Y-15.198 E65.86655
G1 X11.417 Y-21.505 E66.20770
G1 X16.804 Y-26.892 E66.60569
G1 X23.111 Y-25.202 E66.94684
G1 X28.498 Y-30.589 E67.34484
G1 X26.808 Y-36.896 E67.68598
G1 X27.374 Y-37.462 E67.72779
G1 X28.962 Y-37.462 E67.81078
G1 X28.962 Y-30.139 E68.19336
G1 X26.363 Y-37.340 F6000.000
G1 X25.909 Y-37.462 E68.21791 F1800.000
G1 X26.485 Y-37.462 E68.24798
G1 X26.363 Y-37.340 E68.25696
G1 X14.669 Y-33.644 F6000.000
G1 X16.359 Y-27.336 E68.59811 F1800.000
G1 X10.973 Y-21.950 E68.99611
G1 X4.666 Y-23.640 E69.33725
G1 X-0.721 Y-18.253 E69.73525
G1 X0.969 Y-11.946 E70.07639
G1 X-4.418 Y-6.559 E70.47439
G1 X-10.725 Y-8.249 E70.81553
G1 X-16.112 Y-2.862 E71.21353
G1 X-14.422 Y3.445 E71.55467
G1 X-19.808 Y8.831 E71.95267
G1 X-26.116 Y7.141 E72.29382
G1 X-28.962 Y9.988 E72.50412
G1 X-28.962 Y9.099 E72.55054
G1 X-26.560 Y6.697 E72.72802
G1 X-28.250 Y0.390 E73.06916
G1 X-22.863 Y-4.997 E73.46716
G1 X-16.556 Y-3.307 E73.80830
G1 X-11.169 Y-8.693 E74.20630
G1 X-12.859 Y-15.001 E74.54744
G1 X-7.473 Y-20.387 E74.94544
G1 X-1.165 Y-18.697 E75.28658
G1 X4.221 Y-24.084 E75.68458
G1 X2.531 Y-30.391 E76.02573
G1 X7.918 Y-35.778 E76.42372
G1 X14.225 Y-34.088 E76.76487
G1 X17.599 Y-37.462 E77.01416
G1 X18.488 Y-37.462 E77.06058
G1 X14.669 Y-33.644 E77.34270
G1 X7.474 Y-36.222 F6000.000
G1 X2.087 Y-30.836 E77.74070 F1800.000
G1 X-4.220 Y-32.526 E78.08184
G1 X-9.607 Y-27.139 E78.47984
G1 X-7.917 Y-20.832 E78.82099
G1 X-13.304 Y-15.445 E79.21899
G1 X-19.611 Y-17.135 E79.56013
G1 X-24.998 Y-11.748 E79.95813
G1 X-23.308 Y-5.441 E80.29927
G1 X-28.694 Y-0.054 E80.69727
G1 X-28.962 Y-0.126 E80.71175
G1 X-28.962 Y-13.136 E81.39144
G1 X-25.442 Y-12.193 E81.58184
G1 X-20.055 Y-17.579 E81.97984
G1 X-21.745 Y-23.886 E82.32098
G1 X-16.358 Y-29.273 E82.71898
G1 X-10.051 Y-27.583 E83.06012
G1 X-4.665 Y-32.970 E83.45812
G1 X-5.868 Y-37.462 E83.70109
G1 X7.141 Y-37.462 E84.38078
G1 X7.474 Y-36.222 E84.44783
G1 X-18.493 Y-36.025 F6000.000
G1 X-16.803 Y-29.717 E84.78898 F1800.000
G1 X-22.189 Y-24.331 E85.18698
G1 X-28.497 Y-26.021 E85.52812
G1 X-28.962 Y-25.555 E85.56250
G1 X-28.962 Y-26.444 E85.60893
G1 X-28.941 Y-26.465 E85.61049
G1 X-28.962 Y-26.544 E85.61474
G1 X-28.962 Y-34.441 E86.02734
G1 X-25.941 Y-37.462 E86.25054
G1 X-22.643 Y-37.462 E86.42283
G1 X-18.937 Y-36.469 E86.62330
G1 X-17.944 Y-37.462 E86.69668
G1 X-17.055 Y-37.462 E86.74310
G1 X-18.493 Y-36.025 E86.84930
G1 X-28.962 Y-35.330 F6000.000
G1 X-28.962 Y-37.462 E86.96070 F1800.000
G1 X-26.830 Y-37.462 E87.07211
G1 X-28.962 Y-35.330 E87.22965
G1 F4800
G1 X-26.830 Y-37.462 E85.79727
G1 F4800
G1 X-28.962 Y-37.462 E84.78442
G1 F4800
G1 X-28.962 Y-36.610 E84.37965
G1 E84.22965 F2400.00000
G92 E0
G1 Z0.500 F6000.000
G1 X4.324 Y-20.857 F6000.000
G1 E3.00000 F2400.00000
G1 X4.510 Y-17.469 E3.17728 F1200.000
G1 X4.647 Y-13.867 E3.36556
G1 X4.731 Y-10.104 E3.56224
G1 X4.761 Y-6.778 E3.73602
G1 X4.750 Y-3.027 E3.93198
G1 X4.715 Y-0.299 E4.07450
G1 X4.571 Y5.694 E4.38772
G1 X4.391 Y10.637 E4.64612
G1 X4.235 Y14.136 E4.82909
G1 X3.836 Y21.607 E5.21996
G1 X3.319 Y29.671 E5.64216
G1 X2.754 Y37.339 E6.04384
G1 X-0.000 Y37.798 E6.18972
G1 X-29.307 Y32.913 E7.74199
G1 X-29.307 Y-37.807 E11.43678
G1 X29.307 Y-37.807 E14.49909
G1 X29.307 Y32.913 E18.19388
G1 X13.804 Y35.497 E19.01501
G1 X12.991 Y26.846 E19.46895
G1 X12.080 Y18.021 E19.93249
G1 X11.532 Y13.137 E20.18928
G1 X11.165 Y10.056 E20.35136
G1 X10.609 Y5.704 E20.58060
G1 X10.231 Y2.977 E20.72439
G1 X9.845 Y0.394 E20.86086
G1 X9.453 Y-2.051 E20.99021
G1 X8.662 Y-6.521 E21.22739
G1 X7.885 Y-10.456 E21.43694
G1 X6.578 Y-16.651 E21.76775
G1 X5.696 Y-21.032 E22.00120
G1 X4.384 Y-20.864 E22.07032
G1 X4.841 Y-20.426 F6000.000
G1 X5.003 Y-17.492 E22.15759 F600.000
G1 X5.139 Y-13.882 E22.26483
G1 X5.223 Y-10.111 E22.37682
G1 X5.254 Y-6.779 E22.47576
G1 X5.242 Y-3.023 E22.58728
G1 X5.208 Y-0.290 E22.66843
G1 X5.064 Y5.709 E22.84662
G1 X4.883 Y10.657 E22.99362
G1 X4.727 Y14.160 E23.09772
G1 X4.328 Y21.635 E23.32000
G1 X3.811 Y29.705 E23.56009
G1 X3.217 Y37.761 E23.79993
G1 X-0.000 Y38.297 E23.89677
G1 X-29.800 Y33.331 E24.79378
G1 X-29.800 Y-38.300 E26.92058
G1 X29.800 Y-38.300 E28.69018
G1 X29.800 Y33.331 E30.81699
G1 X13.363 Y36.070 E31.31175
G1 X12.501 Y26.895 E31.58538
G1 X11.590 Y18.074 E31.84867
G1 X11.042 Y13.193 E31.99450
G1 X10.676 Y10.116 E32.08650
G1 X10.120 Y5.769 E32.21664
G1 X9.743 Y3.048 E32.29820
G1 X9.358 Y0.469 E32.37560
G1 X8.967 Y-1.969 E32.44891
G1 X8.178 Y-6.430 E32.58345
G1 X7.402 Y-10.357 E32.70230
G1 X6.095 Y-16.552 E32.89027
G1 X5.304 Y-20.485 E33.00939
G1 X4.901 Y-20.434 E33.02145
G1 X4.443 Y-20.395 F6000.000
G1 X7.311 Y-35.615 F6000.000
G1 X2.694 Y-30.998 E33.36259 F3000.000
G1 X4.666 Y-23.640 E33.76059
G1 X10.973 Y-21.950 E34.10173
G1 X12.944 Y-14.591 E34.49973
G1 X8.492 Y-10.139 E34.82869
G1 X7.101 Y-16.759 E35.18211
G1 X6.122 Y-21.625 E35.44141
G1 X3.764 Y-21.324 E35.56560
G1 X3.977 Y-17.444 E35.76859
G1 X4.113 Y-13.851 E35.95642
G1 X4.182 Y-10.760 E36.11798
G1 X1.413 Y-11.502 E36.26775
G1 X-0.559 Y-18.860 E36.66575
G1 X4.059 Y-23.477 E37.00689
G1 X2.087 Y-30.836 E37.40489
G1 X-4.220 Y-32.526 E37.74603
G1 X-5.492 Y-37.273 E38.00283
G1 X6.867 Y-37.273 E38.64853
G1 X7.311 Y-35.615 E38.73820
G1 X14.832 Y-34.251 F6000.000
G1 X16.804 Y-26.892 E39.13620 F3000.000
G1 X23.111 Y-25.202 E39.47734
G1 X25.083 Y-17.844 E39.87534
G1 X20.465 Y-13.227 E40.21649
G1 X22.437 Y-5.868 E40.61449
G1 X28.744 Y-4.178 E40.95563
G1 X28.773 Y-4.070 E40.96148
G1 X28.773 Y5.123 E41.44176
G1 X26.099 Y7.797 E41.63937
G1 X28.070 Y15.156 E42.03737
G1 X28.773 Y15.344 E42.07538
G1 X28.773 Y28.354 E42.75507
G1 X24.818 Y27.294 E42.96900
G1 X22.846 Y19.936 E43.36700
G1 X27.463 Y15.318 E43.70814
G1 X25.492 Y7.960 E44.10614
G1 X19.185 Y6.270 E44.44729
G1 X17.213 Y-1.088 E44.84529
G1 X21.830 Y-5.706 E45.18643
G1 X19.858 Y-13.064 E45.58443
G1 X13.551 Y-14.754 E45.92557
G1 X11.580 Y-22.112 E46.32357
G1 X16.197 Y-26.730 E46.66471
G1 X14.225 Y-34.088 E47.06271
G1 X7.918 Y-35.778 E47.40385
G1 X7.517 Y-37.273 E47.48473
G1 X17.855 Y-37.273 E48.02481
G1 X14.832 Y-34.251 E48.24814
G1 X28.773 Y-30.774 F6000.000
G1 X28.773 Y-17.180 E48.95835 F3000.000
G1 X25.689 Y-18.006 E49.12514
G1 X23.718 Y-25.365 E49.52314
G1 X28.335 Y-29.982 E49.86429
G1 X26.381 Y-37.273 E50.25865
G1 X27.032 Y-37.273 E50.29264
G1 X28.773 Y-30.774 E50.64417
G1 X-4.827 Y-32.363 F6000.000
G1 X-9.444 Y-27.746 E50.98531 F3000.000
G1 X-7.473 Y-20.387 E51.38331
G1 X-1.165 Y-18.697 E51.72445
G1 X0.806 Y-11.339 E52.12245
G1 X-3.811 Y-6.722 E52.46359
G1 X-1.839 Y0.637 E52.86159
G1 X4.120 Y2.233 E53.18392
G1 X4.037 Y5.678 E53.36395
G1 X3.781 Y12.344 E53.71245
G1 X1.822 Y14.302 E53.85713
G1 X3.381 Y20.119 E54.17176
G1 X3.303 Y21.575 E54.24795
G1 X2.786 Y29.634 E54.66986
G1 X2.442 Y34.308 E54.91469
G1 X0.542 Y33.799 E55.01748
G1 X-1.430 Y26.440 E55.41548
G1 X3.187 Y21.823 E55.75662
G1 X1.215 Y14.465 E56.15462
G1 X-5.092 Y12.775 E56.49576
G1 X-7.063 Y5.416 E56.89376
G1 X-2.446 Y0.799 E57.23491
G1 X-4.418 Y-6.559 E57.63291
G1 X-10.725 Y-8.249 E57.97405
G1 X-12.697 Y-15.608 E58.37205
G1 X-8.080 Y-20.225 E58.71319
G1 X-10.051 Y-27.583 E59.11119
G1 X-16.358 Y-29.273 E59.45233
G1 X-18.330 Y-36.632 E59.85033
G1 X-17.688 Y-37.273 E59.89775
G1 X-6.143 Y-37.273 E60.50094
G1 X-4.827 Y-32.363 E60.76653
G1 X-18.937 Y-36.469 F6000.000
G1 X-16.965 Y-29.111 E61.16453 F3000.000
G1 X-21.583 Y-24.493 E61.50567
G1 X-19.611 Y-17.135 E61.90367
G1 X-13.304 Y-15.445 E62.24481
G1 X-11.332 Y-8.087 E62.64281
G1 X-15.949 Y-3.469 E62.98395
G1 X-13.977 Y3.889 E63.38195
G1 X-7.670 Y5.579 E63.72310
G1 X-5.699 Y12.937 E64.12110
G1 X-10.316 Y17.555 E64.46224
G1 X-8.344 Y24.913 E64.86024
G1 X-2.037 Y26.603 E65.20138
G1 X-0.065 Y33.961 E65.59938
G1 X-2.880 Y36.776 E65.80736
G1 X-12.081 Y35.243 E66.29469
G1 X-13.568 Y29.693 E66.59488
G1 X-8.951 Y25.076 E66.93602
G1 X-10.923 Y17.717 E67.33402
G1 X-17.230 Y16.027 E67.67517
G1 X-19.202 Y8.669 E68.07317
G1 X-14.584 Y4.052 E68.41431
G1 X-16.556 Y-3.307 E68.81231
G1 X-22.863 Y-4.997 E69.15345
G1 X-24.835 Y-12.355 E69.55145
G1 X-20.218 Y-16.972 E69.89259
G1 X-22.189 Y-24.331 E70.29059
G1 X-28.497 Y-26.021 E70.63173
G1 X-28.773 Y-27.053 E70.68757
G1 X-28.773 Y-35.074 E71.10663
G1 X-26.574 Y-37.273 E71.26911
G1 X-21.939 Y-37.273 E71.51128
G1 X-18.937 Y-36.469 E71.67365
G1 X-25.442 Y-12.193 F6000.000
G1 X-23.470 Y-4.834 E72.07165 F3000.000
G1 X-28.087 Y-0.217 E72.41279
G1 X-26.116 Y7.141 E72.81079
G1 X-19.808 Y8.831 E73.15193
G1 X-17.837 Y16.190 E73.54993
G1 X-22.454 Y20.807 E73.89107
G1 X-20.482 Y28.165 E74.28907
G1 X-14.175 Y29.855 E74.63022
G1 X-12.762 Y35.129 E74.91547
G1 X-25.699 Y32.973 E75.60068
G1 X-25.706 Y32.945 E75.60220
G1 X-21.089 Y28.328 E75.94334
G1 X-23.061 Y20.970 E76.34134
G1 X-28.773 Y19.439 E76.65031
G1 X-28.773 Y9.355 E77.17716
G1 X-26.723 Y7.304 E77.32867
G1 X-28.694 Y-0.054 E77.72667
G1 X-28.773 Y-0.076 E77.73094
G1 X-28.773 Y-13.085 E78.41063
