; generated by Slic3r 1.2.9 on 2016-07-17 at 16:37:34

; external perimeters extrusion width = 0.40mm
; perimeters extrusion width = 0.67mm
; infill extrusion width = 0.67mm
; solid infill extrusion width = 0.67mm
; top infill extrusion width = 0.67mm

M107
M104 S215 ; set temperature
G28 ; home all axes
G1 Y-60 Z5 F5000 ; lift nozzle


M109 S215 ; wait for temperature to be reached
G21 ; set units to millimeters
G90 ; use absolute coordinates
M82 ; use absolute distances for extrusion
G92 E0
G1 E-3.00000 F2400.00000
G92 E0
G1 Z0.300 F6000.000
G1 X-18.345 Y50.352 F6000.000
G1 E3.00000 F2400.00000
G1 X-19.149 Y50.292 E3.04214 F1800.000
G1 X-30.726 Y48.363 E3.65533
G1 X-32.464 Y47.672 E3.75300
G1 X-33.760 Y46.325 E3.85068
G1 X-34.419 Y44.004 E3.97674
G1 X-34.419 Y-45.996 E8.67878
G1 X-34.023 Y-47.823 E8.77645
G1 X-32.908 Y-49.323 E8.87412
G1 X-31.272 Y-50.228 E8.97180
G1 X-30.000 Y-50.415 E9.03895
G1 X30.000 Y-50.415 E12.17364
G1 X31.827 Y-50.019 E12.27132
G1 X33.327 Y-48.904 E12.36899
G1 X34.232 Y-47.268 E12.46666
G1 X34.419 Y-45.996 E12.53381
G1 X34.419 Y44.004 E17.23585
G1 X34.023 Y45.831 E17.33353
G1 X32.908 Y47.331 E17.43120
G1 X30.726 Y48.363 E17.55726
G1 X23.510 Y49.566 E17.93949
G1 X22.861 Y49.625 E17.97351
G1 X-18.285 Y50.351 E20.12353
G1 F4800
G1 X-19.149 Y50.292 E19.71202
G1 F4800
G1 X-24.213 Y49.448 E17.27353
G1 E17.12353 F2400.00000
G92 E0
G1 X-29.423 Y43.515 F6000.000
G1 E3.00000 F2400.00000
G1 X-29.423 Y-45.315 E7.64089 F1800.000
G1 X-7.024 Y-41.581 E8.82725
G1 X-8.743 Y-28.605 E9.51110
G1 X-10.398 Y-16.401 E10.15457
G1 X-12.522 Y-1.003 E10.96664
G1 X-16.827 Y29.941 E12.59888
G1 X-18.915 Y45.266 E13.40694
G1 X-29.364 Y43.525 E13.96038
G1 X-29.800 Y43.835 F6000.000
G1 X-29.800 Y-45.760 E17.71084 F1800.000
G1 X-6.602 Y-41.894 E18.69530
G1 X-8.369 Y-28.555 E19.25852
G1 X-10.025 Y-16.350 E19.77413
G1 X-12.148 Y-0.951 E20.42482
G1 X-16.453 Y29.993 E21.73261
G1 X-18.593 Y45.702 E22.39630
G1 X-29.741 Y43.845 E22.86938
G1 X-29.581 Y43.500 F6000.000
G1 X-27.746 Y43.327 F6000.000
G1 X-28.962 Y38.789 E23.11483 F1800.000
G1 X-28.962 Y43.125 E23.34132
G1 X-27.746 Y43.327 E23.40573
G1 X-16.163 Y21.827 F6000.000
G1 X-20.482 Y20.669 E23.63933 F1800.000
G1 X-25.869 Y26.056 E24.03733
G1 X-24.179 Y32.363 E24.37847
G1 X-28.962 Y37.146 E24.73186
G1 X-28.962 Y38.035 E24.77829
G1 X-23.735 Y32.808 E25.16451
G1 X-17.896 Y34.372 E25.48033
G1 X-16.163 Y21.827 E26.14198
G1 X-12.676 Y-3.258 F6000.000
G1 X-13.977 Y-3.607 E26.21239 F1800.000
G1 X-19.364 Y1.780 E26.61039
G1 X-17.674 Y8.087 E26.95154
G1 X-23.061 Y13.474 E27.34953
G1 X-28.962 Y11.892 E27.66871
G1 X-28.962 Y24.902 E28.34840
G1 X-26.313 Y25.612 E28.49166
G1 X-20.927 Y20.225 E28.88966
G1 X-22.617 Y13.918 E29.23080
G1 X-17.230 Y8.531 E29.62880
G1 X-14.418 Y9.285 E29.78088
G1 X-12.676 Y-3.258 E30.44247
G1 X-10.855 Y-16.463 F6000.000
G1 X-9.594 Y-25.762 E30.93275 F1800.000
G1 X-12.859 Y-22.497 E31.17403
G1 X-11.169 Y-16.189 E31.51518
G1 X-16.556 Y-10.803 E31.91318
G1 X-22.863 Y-12.493 E32.25432
G1 X-28.250 Y-7.106 E32.65232
G1 X-26.560 Y-0.799 E32.99346
G1 X-28.962 Y1.603 E33.17093
G1 X-28.962 Y2.492 E33.21736
G1 X-26.116 Y-0.355 E33.42766
G1 X-19.808 Y1.335 E33.76880
G1 X-14.422 Y-4.051 E34.16680
G1 X-16.112 Y-10.358 E34.50794
G1 X-10.990 Y-15.480 E34.88634
G1 X-10.855 Y-16.463 E34.93820
G1 X-8.226 Y-36.015 F6000.000
G1 X-8.091 Y-37.040 E34.99218 F1800.000
G1 X-10.051 Y-35.079 E35.13705
G1 X-16.358 Y-36.769 E35.47819
G1 X-21.745 Y-31.382 E35.87619
G1 X-20.055 Y-25.075 E36.21733
G1 X-25.442 Y-19.688 E36.61533
G1 X-28.962 Y-20.632 E36.80573
G1 X-28.962 Y-7.622 E37.48542
G1 X-28.694 Y-7.550 E37.49990
G1 X-23.308 Y-12.937 E37.89790
G1 X-24.998 Y-19.244 E38.23904
G1 X-19.611 Y-24.631 E38.63704
G1 X-13.304 Y-22.941 E38.97818
G1 X-9.454 Y-26.790 E39.26260
G1 X-8.805 Y-31.643 E39.51841
G1 X-9.607 Y-34.635 E39.68020
G1 X-8.226 Y-36.015 E39.78222
G1 X-18.354 Y-43.003 F6000.000
G1 X-26.533 Y-44.366 E40.21544 F1800.000
G1 X-28.962 Y-41.937 E40.39489
G1 X-28.962 Y-34.040 E40.80748
G1 X-28.941 Y-33.961 E40.81174
G1 X-28.962 Y-33.940 E40.81330
G1 X-28.962 Y-33.051 E40.85972
G1 X-28.497 Y-33.517 E40.89411
G1 X-22.189 Y-31.827 E41.23525
G1 X-16.803 Y-37.213 E41.63325
G1 X-18.354 Y-43.003 E41.94638
G1 X-27.295 Y-44.493 F6000.000
G1 X-28.962 Y-44.771 E42.03468 F1800.000
G1 X-28.962 Y-42.826 E42.13630
G1 X-27.295 Y-44.493 E42.25947
G1 F4800
G1 X-28.962 Y-42.826 E41.13957
G1 F4800
G1 X-28.962 Y-44.771 E40.21569
G1 F4800
G1 X-27.295 Y-44.493 E39.41288
G1 E39.25947 F2400.00000
G92 E0
G1 X-11.950 Y-0.924 F6000.000
G1 X4.278 Y7.644 F6000.000
G1 X3.949 Y14.135 F6000.000
G1 X3.637 Y20.183 F6000.000
G1 X3.628 Y20.351 F6000.000
G1 X21.981 Y19.715 F6000.000
G1 X23.341 Y44.529 F6000.000
G1 E3.00000 F2400.00000
G1 X23.070 Y35.359 E3.47929 F1800.000
G1 X22.665 Y22.818 E4.13485
G1 X22.337 Y13.469 E4.62359
G1 X21.869 Y1.107 E5.26986
G1 X21.368 Y-11.106 E5.90847
G1 X20.836 Y-23.139 E6.53776
G1 X20.276 Y-34.963 E7.15617
G1 X19.835 Y-43.717 E7.61410
G1 X29.423 Y-45.315 E8.12190
G1 X29.423 Y43.515 E12.76279
G1 X23.400 Y44.519 E13.08178
G1 X22.977 Y44.972 F6000.000
G1 X22.693 Y35.370 E13.48388 F1800.000
G1 X22.288 Y22.830 E14.00909
G1 X21.960 Y13.482 E14.40064
G1 X21.492 Y1.122 E14.91840
G1 X20.991 Y-11.090 E15.43003
G1 X20.459 Y-23.122 E15.93419
G1 X19.899 Y-34.944 E16.42963
G1 X19.442 Y-44.033 E16.81059
G1 X29.800 Y-45.760 E17.25017
G1 X29.800 Y43.835 E21.00062
G1 X23.036 Y44.962 E21.28768
G1 X23.150 Y44.612 F6000.000
G1 X28.962 Y43.125 F6000.000
G1 X28.962 Y42.311 E21.33018 F1800.000
G1 X27.986 Y43.287 E21.40231
G1 X28.962 Y43.125 E21.45401
G1 X27.873 Y33.626 F6000.000
G1 X23.437 Y32.438 E21.69394 F1800.000
G1 X23.786 Y43.987 E22.29763
G1 X26.920 Y43.465 E22.46361
G1 X28.962 Y41.423 E22.61452
G1 X28.962 Y36.477 E22.87288
G1 X28.317 Y34.070 E23.00307
G1 X28.962 Y33.425 E23.05072
G1 X28.962 Y32.537 E23.09714
G1 X27.873 Y33.626 E23.17762
G1 X28.962 Y7.899 F6000.000
G1 X28.070 Y7.660 E23.22585 F1800.000
G1 X22.779 Y12.951 E23.61683
G1 X22.798 Y13.475 E23.64419
G1 X24.374 Y19.354 E23.96216
G1 X23.051 Y20.676 E24.05989
G1 X23.081 Y21.535 E24.10477
G1 X24.818 Y19.798 E24.23310
G1 X28.962 Y20.908 E24.45724
G1 X28.962 Y7.899 E25.13693
G1 X28.962 Y-2.118 F6000.000
G1 X28.962 Y-3.006 E25.18335 F1800.000
G1 X25.492 Y0.464 E25.43975
G1 X22.269 Y-0.400 E25.61409
G1 X22.746 Y12.095 E26.26736
G1 X27.626 Y7.215 E26.62791
G1 X25.936 Y0.908 E26.96905
G1 X28.962 Y-2.118 E27.19262
G1 X28.962 Y-24.625 F6000.000
G1 X25.689 Y-25.502 E27.36962 F1800.000
G1 X21.383 Y-21.196 E27.68778
G1 X21.654 Y-15.073 E28.00802
G1 X21.993 Y-13.808 E28.07640
G1 X21.722 Y-13.538 E28.09641
G1 X21.759 Y-12.687 E28.14092
G1 X22.437 Y-13.364 E28.19098
G1 X28.744 Y-11.674 E28.53212
G1 X28.962 Y-11.892 E28.54821
G1 X28.962 Y-24.625 E29.21347
G1 X28.962 Y-37.635 F6000.000
G1 X28.962 Y-44.771 E29.58626 F1800.000
G1 X26.831 Y-44.415 E29.69913
G1 X26.808 Y-44.392 E29.70086
G1 X28.498 Y-38.085 E30.04201
G1 X23.111 Y-32.698 E30.44000
G1 X20.815 Y-33.313 E30.56416
G1 X21.346 Y-22.047 E31.15341
G1 X25.245 Y-25.947 E31.44152
G1 X23.555 Y-32.254 E31.78266
G1 X28.942 Y-37.641 E32.18066
G1 X28.962 Y-37.635 E32.18175
G1 F4800
G1 X28.942 Y-37.641 E32.17186
G1 F4800
G1 X24.714 Y-33.413 E29.33175
G1 E29.18175 F2400.00000
G92 E0
G1 Z0.500 F6000.000
G1 X-18.980 Y45.138 F6000.000
G1 E3.00000 F2400.00000
G1 X-29.307 Y43.417 E3.54698 F1200.000
G1 X-29.307 Y-45.178 E8.17564
G1 X-7.121 Y-41.481 E9.35073
G1 X-8.858 Y-28.371 E10.04164
G1 X-10.513 Y-16.166 E10.68509
G1 X-12.636 Y-0.769 E11.49715
G1 X-16.942 Y30.175 E13.12940
G1 X-18.972 Y45.079 E13.91523
G1 X-18.561 Y45.708 F6000.000
G1 X-29.800 Y43.835 E14.25354 F600.000
G1 X-29.800 Y-45.760 E16.91372
G1 X-6.570 Y-41.888 E17.61295
G1 X-8.369 Y-28.305 E18.01977
G1 X-10.025 Y-16.100 E18.38549
G1 X-12.148 Y-0.701 E18.84702
G1 X-16.453 Y30.243 E19.77463
G1 X-18.553 Y45.648 E20.23627
G1 X-18.872 Y45.457 F6000.000
G1 X-27.459 Y43.184 F6000.000
G1 X-28.773 Y38.280 E20.50151 F3000.000
G1 X-28.773 Y40.708 E20.62834
G1 X-28.140 Y43.070 E20.75613
G1 X-27.459 Y43.184 E20.79219
G1 X-26.313 Y25.612 F6000.000
G1 X-28.773 Y24.953 E20.92524 F3000.000
G1 X-28.773 Y37.402 E21.57565
G1 X-24.342 Y32.970 E21.90308
G1 X-26.313 Y25.612 E22.30108
G1 X-10.980 Y-16.696 F6000.000
G1 X-9.705 Y-26.095 E22.79663 F3000.000
G1 X-12.697 Y-23.103 E23.01767
G1 X-10.980 Y-16.696 E23.36425
G1 X-25.442 Y-19.688 F6000.000
G1 X-28.773 Y-20.581 E23.54443 F3000.000
G1 X-28.773 Y-7.571 E24.22412
G1 X-28.694 Y-7.550 E24.22839
G1 X-26.723 Y-0.192 E24.62639
G1 X-28.773 Y1.859 E24.77791
G1 X-28.773 Y11.943 E25.30476
G1 X-23.061 Y13.474 E25.61373
G1 X-21.089 Y20.832 E26.01173
G1 X-25.706 Y25.449 E26.35287
G1 X-23.735 Y32.808 E26.75087
G1 X-18.047 Y34.332 E27.05852
G1 X-16.314 Y21.786 E27.72017
G1 X-20.482 Y20.669 E27.94565
G1 X-22.454 Y13.311 E28.34365
G1 X-17.837 Y8.694 E28.68479
G1 X-19.808 Y1.335 E29.08279
G1 X-26.116 Y-0.355 E29.42393
G1 X-28.087 Y-7.713 E29.82193
G1 X-23.470 Y-12.330 E30.16308
G1 X-25.442 Y-19.688 E30.56108
G1 X-18.641 Y-42.859 F6000.000
G1 X-27.078 Y-44.265 E31.00796 F3000.000
G1 X-28.773 Y-42.570 E31.13321
G1 X-28.773 Y-34.549 E31.55227
G1 X-28.497 Y-33.517 E31.60811
G1 X-22.189 Y-31.827 E31.94925
G1 X-20.218 Y-24.468 E32.34725
G1 X-24.835 Y-19.851 E32.68840
G1 X-22.863 Y-12.493 E33.08640
G1 X-16.556 Y-10.803 E33.42754
G1 X-14.584 Y-3.444 E33.82554
G1 X-19.202 Y1.173 E34.16668
G1 X-17.230 Y8.531 E34.56468
G1 X-14.568 Y9.244 E34.70863
G1 X-12.826 Y-3.298 E35.37023
G1 X-13.977 Y-3.607 E35.43250
G1 X-15.949 Y-10.965 E35.83049
G1 X-11.332 Y-15.582 E36.17164
G1 X-13.304 Y-22.941 E36.56964
G1 X-19.611 Y-24.631 E36.91078
G1 X-21.583 Y-31.989 E37.30878
G1 X-16.965 Y-36.606 E37.64992
G1 X-18.641 Y-42.859 E37.98811
G1 X-9.746 Y-41.377 F6000.000
G1 X-17.960 Y-42.746 E38.42314 F3000.000
G1 X-16.358 Y-36.769 E38.74640
G1 X-10.051 Y-35.079 E39.08754
G1 X-9.018 Y-31.224 E39.29604
G1 X-8.803 Y-32.849 E39.38166
G1 X-9.444 Y-35.242 E39.51108
G1 X-8.340 Y-36.346 E39.59267
G1 X-7.719 Y-41.039 E39.83998
G1 X-9.746 Y-41.377 E39.94738
G1 F4800
G1 X-7.719 Y-41.039 E38.97088
G1 F4800
G1 X-8.236 Y-37.129 E37.09738
G1 E36.94738 F2400.00000
G92 E0
G1 X-11.950 Y-0.674 F6000.000
G1 X4.263 Y8.197 F6000.000
G1 X3.789 Y17.490 F6000.000
G1 X3.637 Y20.433 F6000.000
G1 X3.628 Y20.601 F6000.000
G1 X21.981 Y19.965 F6000.000
G1 X23.445 Y44.394 F6000.000
G1 E3.00000 F2400.00000
G1 X23.186 Y35.605 E3.45938 F1200.000
G1 X22.780 Y23.064 E4.11495
G1 X22.453 Y13.714 E4.60371
G1 X21.985 Y1.353 E5.25000
G1 X21.483 Y-10.861 E5.88863
G1 X20.952 Y-22.894 E6.51794
G1 X20.391 Y-34.718 E7.13637
G1 X19.943 Y-43.618 E7.60190
G1 X29.307 Y-45.178 E8.09788
G1 X29.307 Y43.417 E12.72655
G1 X23.505 Y44.384 E13.03389
G1 X22.970 Y44.973 F6000.000
G1 X22.693 Y35.620 E13.31170 F600.000
G1 X22.288 Y23.080 E13.68423
G1 X21.960 Y13.732 E13.96195
G1 X21.492 Y1.372 E14.32920
G1 X20.991 Y-10.840 E14.69209
G1 X20.459 Y-22.872 E15.04969
G1 X19.899 Y-34.694 E15.40111
G1 X19.429 Y-44.031 E15.67869
G1 X29.800 Y-45.760 E15.99087
G1 X29.800 Y43.835 E18.65104
G1 X23.029 Y44.963 E18.85486
G1 X23.143 Y44.613 F6000.000
G1 X28.773 Y34.559 F6000.000
G1 X28.773 Y33.170 E18.92744 F3000.000
G1 X28.480 Y33.464 E18.94913
G1 X28.773 Y34.559 E19.00839
G1 X27.873 Y33.626 F6000.000
G1 X23.619 Y32.486 E19.23845 F3000.000
G1 X23.961 Y43.767 E19.82807
G1 X27.682 Y43.147 E20.02516
G1 X28.773 Y42.056 E20.10576
G1 X28.773 Y36.987 E20.37059
G1 X27.873 Y33.626 E20.55236
G1 X24.211 Y19.961 F6000.000
G1 X23.055 Y15.645 E20.78579 F3000.000
G1 X23.240 Y20.932 E21.06218
G1 X24.211 Y19.961 E21.13392
G1 X22.437 Y-13.364 F6000.000
G1 X21.803 Y-15.731 E21.26195 F3000.000
G1 X22.449 Y-0.351 E22.06619
G1 X25.492 Y0.464 E22.23076
G1 X27.463 Y7.822 E22.62876
G1 X22.935 Y12.351 E22.96332
G1 X22.954 Y12.841 E22.98898
G1 X24.818 Y19.798 E23.36525
G1 X28.773 Y20.858 E23.57918
G1 X28.773 Y7.848 E24.25887
G1 X28.070 Y7.660 E24.29688
G1 X26.099 Y0.301 E24.69488
G1 X28.773 Y-2.373 E24.89249
G1 X28.773 Y-11.566 E25.37277
G1 X28.744 Y-11.674 E25.37862
G1 X22.437 Y-13.364 E25.71977
G1 X23.111 Y-32.698 F6000.000
G1 X20.995 Y-33.265 E25.83422 F3000.000
G1 X21.535 Y-21.792 E26.43429
G1 X25.083 Y-25.340 E26.69642
G1 X23.111 Y-32.698 E27.09442
G1 X28.773 Y-38.270 F6000.000
G1 X27.163 Y-44.279 E27.41946 F3000.000
G1 X26.540 Y-44.176 E27.45244
G1 X28.335 Y-37.478 E27.81470
G1 X23.718 Y-32.861 E28.15584
G1 X25.689 Y-25.502 E28.55384
G1 X28.773 Y-24.676 E28.72064
G1 X28.773 Y-38.270 E29.43085
G1 F4800
G1 X28.773 Y-32.270 E26.58085
G1 E26.43085 F2400.00000
G92 E0
G1 Z0.700 F6000.000
G1 X-18.954 Y45.143 F6000.000
G1 E3.00000 F2400.00000
G1 X-29.307 Y43.417 E3.54836 F1200.000
G1 X-29.307 Y-45.178 E8.17702
G1 X-7.095 Y-41.476 E9.35348
G1 X-8.452 Y-31.201 E9.89497
G1 X-10.513 Y-15.966 E10.69816
G1 X-12.636 Y-0.569 E11.51021
G1 X-16.942 Y30.375 E13.14246
G1 X-18.946 Y45.083 E13.91798
G1 X-18.535 Y45.712 F6000.000
G1 X-29.800 Y43.835 E14.25708 F600.000
G1 X-29.800 Y-45.760 E16.91725
G1 X-6.545 Y-41.884 E17.61726
G1 X-7.963 Y-31.136 E17.93916
G1 X-10.025 Y-15.900 E18.39566
G1 X-12.148 Y-0.501 E18.85718
G1 X-16.453 Y30.443 E19.78479
G1 X-18.526 Y45.653 E20.24058
G1 X-18.846 Y45.461 F6000.000
G1 X-18.063 Y34.652 F6000.000
G1 X-24.342 Y32.970 E20.58015 F3000.000
G1 X-28.773 Y37.402 E20.90758
G1 X-28.773 Y39.494 E21.01688
G1 X-27.800 Y43.127 E21.21339
G1 X-19.409 Y44.526 E21.65781
G1 X-18.063 Y34.652 E22.17839
G1 X-16.330 Y22.107 F6000.000
G1 X-21.089 Y20.832 E22.43580 F3000.000
G1 X-25.706 Y25.449 E22.77694
G1 X-28.773 Y24.627 E22.94282
G1 X-28.773 Y25.278 E22.97680
G1 X-25.869 Y26.056 E23.13388
G1 X-24.179 Y32.363 E23.47502
G1 X-17.978 Y34.025 E23.81043
G1 X-16.330 Y22.107 E24.43899
G1 X-14.585 Y9.565 F6000.000
G1 X-17.837 Y8.694 E24.61486 F3000.000
G1 X-22.454 Y13.311 E24.95601
G1 X-28.773 Y11.618 E25.29780
G1 X-28.773 Y12.268 E25.33178
G1 X-22.617 Y13.918 E25.66478
G1 X-20.927 Y20.225 E26.00593
G1 X-16.243 Y21.480 E26.25925
G1 X-14.585 Y9.565 E26.88774
G1 X-28.250 Y-7.106 F6000.000
G1 X-28.773 Y-7.246 E26.91605 F3000.000
G1 X-28.773 Y1.859 E27.39173
G1 X-26.723 Y-0.192 E27.54325
G1 X-19.364 Y1.780 E27.94125
G1 X-17.674 Y8.087 E28.28239
G1 X-14.498 Y8.938 E28.45418
G1 X-12.843 Y-2.978 E29.08270
G1 X-14.584 Y-3.444 E29.17689
G1 X-19.202 Y1.173 E29.51803
G1 X-26.560 Y-0.799 E29.91603
G1 X-28.250 Y-7.106 E30.25718
G1 X-24.998 Y-19.244 F6000.000
G1 X-28.773 Y-20.256 E30.46139 F3000.000
G1 X-28.773 Y-7.897 E31.10710
G1 X-28.087 Y-7.713 E31.14420
G1 X-23.470 Y-12.330 E31.48534
G1 X-16.112 Y-10.358 E31.88334
G1 X-14.422 Y-4.051 E32.22448
G1 X-12.756 Y-3.605 E32.31456
G1 X-11.113 Y-15.524 E32.94315
G1 X-11.332 Y-15.582 E32.95500
G1 X-15.949 Y-10.965 E33.29614
G1 X-23.308 Y-12.937 E33.69414
G1 X-24.998 Y-19.244 E34.03528
G1 X-21.745 Y-31.382 F6000.000
G1 X-28.773 Y-33.266 E34.41542 F3000.000
G1 X-28.773 Y-20.906 E35.06112
G1 X-24.835 Y-19.851 E35.27414
G1 X-20.218 Y-24.468 E35.61528
G1 X-12.859 Y-22.497 E36.01328
G1 X-11.169 Y-16.189 E36.35442
G1 X-11.027 Y-16.151 E36.36214
G1 X-9.678 Y-26.123 E36.88785
G1 X-12.697 Y-23.103 E37.11091
G1 X-20.055 Y-25.075 E37.50891
G1 X-21.745 Y-31.382 E37.85006
G1 X-18.300 Y-42.802 F6000.000
G1 X-27.078 Y-44.265 E38.31498 F3000.000
G1 X-28.773 Y-42.570 E38.44022
G1 X-28.773 Y-33.916 E38.89236
G1 X-21.583 Y-31.989 E39.28129
G1 X-16.965 Y-36.606 E39.62243
G1 X-9.607 Y-34.635 E40.02043
G1 X-8.890 Y-31.960 E40.16511
G1 X-8.307 Y-36.379 E40.39799
G1 X-9.444 Y-35.242 E40.48203
G1 X-16.803 Y-37.213 E40.88002
G1 X-18.300 Y-42.802 E41.18232
G1 F4800
G1 X-16.803 Y-37.213 E38.43392
G1 F4800
G1 X-16.596 Y-37.158 E38.33232
G1 E38.18232 F2400.00000
G92 E0
G1 X-11.950 Y-0.474 F6000.000
G1 X4.263 Y8.397 F6000.000
G1 X3.789 Y17.690 F6000.000
G1 X3.637 Y20.633 F6000.000
G1 X3.628 Y20.801 F6000.000
G1 X21.981 Y20.165 F6000.000
G1 X23.440 Y44.395 F6000.000
G1 E3.00000 F2400.00000
G1 X23.088 Y32.663 E3.61320 F1200.000
G1 X22.780 Y23.264 E4.10456
G1 X22.453 Y13.914 E4.59331
G1 X21.985 Y1.553 E5.23960
G1 X21.483 Y-10.661 E5.87823
G1 X20.952 Y-22.694 E6.50754
G1 X20.391 Y-34.518 E7.12597
G1 X19.933 Y-43.616 E7.60188
G1 X29.307 Y-45.178 E8.09840
