; generated by Slic3r 1.2.9 on 2016-07-14 at 19:14:52

; external perimeters extrusion width = 0.30mm
; perimeters extrusion width = 0.31mm
; infill extrusion width = 0.31mm
; solid infill extrusion width = 0.31mm
; top infill extrusion width = 0.31mm

M107
M104 S215 ; set temperature
G28 ; home all axes
G1 Z5 F5000 ; lift nozzle

M109 S215 ; wait for temperature to be reached
G21 ; set units to millimeters
G90 ; use absolute coordinates
M82 ; use absolute distances for extrusion
G92 E0
G1 E-2.00000 F2400.00000
G92 E0
G1 Z0.100 F7800.000
G1 X-0.556 Y31.795 F7800.000
G1 E2.00000 F2400.00000
G1 X-6.878 Y31.648 E2.06389 F1800.000
G1 X-15.167 Y31.359 E2.14769
G1 X-20.799 Y31.103 E2.20465
G1 X-29.272 Y30.631 E2.29038
G1 X-35.018 Y30.254 E2.34856
G1 X-43.684 Y29.604 E2.43637
G1 X-52.424 Y28.853 E2.52500
G1 X-59.499 Y28.180 E2.59680
G1 X-61.628 Y27.571 E2.61917
G1 X-63.405 Y26.249 E2.64155
G1 X-64.602 Y24.387 E2.66392
G1 X-65.068 Y22.041 E2.68807
G1 X-65.140 Y-25.284 E3.16622
G1 X-64.747 Y-27.463 E3.18859
G1 X-63.610 Y-29.364 E3.21096
G1 X-61.877 Y-30.741 E3.23333
G1 X-59.061 Y-31.471 E3.26272
G1 X-43.734 Y-31.690 E3.41759
G1 X-31.383 Y-31.811 E3.54238
G1 X-19.184 Y-31.880 E3.66564
G1 X-7.219 Y-31.896 E3.78653
G1 X4.631 Y-31.858 E3.90625 F1800.000
G1 X16.189 Y-31.762 E4.02302
G1 X27.473 Y-31.603 E4.13704
G1 X35.749 Y-31.442 E4.22067
G1 X43.824 Y-31.246 E4.30228
G1 X51.379 Y-31.025 E4.37865
G1 X53.544 Y-30.560 E4.40102
G1 X55.406 Y-29.362 E4.42339
G1 X57.048 Y-26.803 E4.45411
G1 X64.823 Y-3.477 E4.70253
G1 X65.136 Y-1.285 E4.72490
G1 X64.823 Y0.431 E4.74252
G1 X56.220 Y26.241 E5.01739
G1 X55.155 Y28.182 E5.03976
G1 X53.474 Y29.623 E5.06213
G1 X50.807 Y30.449 E5.09033
G1 X47.815 Y30.657 E5.12063
G1 X42.901 Y30.963 E5.17038
G1 X37.919 Y31.229 E5.22079
G1 X32.899 Y31.453 E5.27155
G1 X25.181 Y31.708 E5.34957
G1 X17.357 Y31.856 E5.42864
G1 X9.402 Y31.897 E5.50901
G1 X4.057 Y31.863 E5.56301
G1 X-0.511 Y31.796 E5.60917
G1 F6240
G1 X-5.709 Y31.675 E3.70917
G1 E3.60917 F2400.00000
G92 E0
G1 X40.650 Y-24.688 F7800.000
G1 E2.00000 F2400.00000
G1 X50.854 Y-24.402 E2.10313 F1800.000
G1 X58.480 Y-1.523 E2.34678
G1 X50.022 Y23.852 E2.61702
G1 X44.968 Y24.191 E2.66819
G1 X37.607 Y24.601 E2.74268
G1 X30.102 Y24.918 E2.81857
G1 X25.024 Y25.074 E2.86991
G1 X17.290 Y25.221 E2.94805
G1 X12.063 Y25.260 E3.00086
G1 X4.158 Y25.228 E3.08073
G1 X-1.253 Y25.146 E3.13541
G1 X-9.407 Y24.932 E3.21782
G1 X-14.907 Y24.728 E3.27342
G1 X-20.457 Y24.476 E3.32956
G1 X-28.876 Y24.007 E3.41475
G1 X-34.546 Y23.635 E3.47216
G1 X-43.140 Y22.990 E3.55923
G1 X-51.833 Y22.244 E3.64738
G1 X-58.274 Y21.631 E3.71275
G1 X-50.556 Y-1.523 E3.95934
G1 X-58.331 Y-24.846 E4.20772
G1 X-43.652 Y-25.054 E4.35604
G1 X-31.329 Y-25.176 E4.48055
G1 X-19.158 Y-25.245 E4.60352
G1 X-7.221 Y-25.260 E4.72412
G1 X1.677 Y-25.237 E4.81402
G1 X10.391 Y-25.182 E4.90206 F1800.000
G1 X24.581 Y-25.014 E5.04543
G1 X32.828 Y-24.866 E5.12877
G1 X40.605 Y-24.689 E5.20737
G1 X40.610 Y-24.868 F7800.000
G1 X50.984 Y-24.576 E5.31222 F1800.000
G1 X58.668 Y-1.523 E5.55774
G1 X50.153 Y24.022 E5.82978
G1 X44.979 Y24.369 E5.88218
G1 X37.616 Y24.779 E5.95668
G1 X30.109 Y25.096 E6.03260
G1 X25.028 Y25.252 E6.08396
G1 X17.293 Y25.399 E6.16212
G1 X12.064 Y25.438 E6.21495
G1 X4.157 Y25.407 E6.29484
G1 X-1.257 Y25.325 E6.34954
G1 X-9.413 Y25.110 E6.43197
G1 X-14.914 Y24.907 E6.48759
G1 X-20.466 Y24.654 E6.54374
G1 X-28.887 Y24.185 E6.62895
G1 X-34.559 Y23.813 E6.68638
G1 X-43.155 Y23.168 E6.77347
G1 X-51.849 Y22.422 E6.86164
G1 X-58.515 Y21.788 E6.92929
G1 X-50.744 Y-1.523 E7.17754
G1 X-58.577 Y-25.021 E7.42779
G1 X-43.654 Y-25.233 E7.57858
G1 X-31.330 Y-25.355 E7.70309
G1 X-19.158 Y-25.423 E7.82607
G1 X-7.221 Y-25.439 E7.94668
G1 X1.678 Y-25.415 E8.03659
G1 X10.393 Y-25.360 E8.12463 F1800.000
G1 X24.583 Y-25.192 E8.26802
G1 X32.832 Y-25.045 E8.35136
G1 X40.565 Y-24.869 E8.42952
G1 X40.569 Y-25.048 F7800.000
G1 X51.114 Y-24.751 E8.53609 F1800.000
G1 X58.857 Y-1.523 E8.78347
G1 X50.285 Y24.192 E9.05733
G1 X44.990 Y24.547 E9.11094
G1 X37.625 Y24.957 E9.18547
G1 X30.116 Y25.275 E9.26141
G1 X25.032 Y25.431 E9.31279
G1 X17.295 Y25.578 E9.39097
G1 X12.064 Y25.617 E9.44383
G1 X4.155 Y25.585 E9.52373
G1 X-1.261 Y25.503 E9.57846
G1 X-9.418 Y25.289 E9.66090
G1 X-14.922 Y25.085 E9.71654
G1 X-20.475 Y24.832 E9.77271
G1 X-28.897 Y24.363 E9.85793
G1 X-34.571 Y23.991 E9.91538
G1 X-43.169 Y23.346 E10.00249
G1 X-51.866 Y22.600 E10.09068
G1 X-58.755 Y21.944 E10.16060
G1 X-50.933 Y-1.523 E10.41052
G1 X-58.824 Y-25.196 E10.66263
G1 X-43.656 Y-25.412 E10.81589
G1 X-31.331 Y-25.533 E10.94042
G1 X-19.159 Y-25.602 E11.06340
G1 X-7.221 Y-25.617 E11.18401
G1 X1.679 Y-25.594 E11.27393
G1 X10.394 Y-25.539 E11.36199 F1800.000
G1 X24.586 Y-25.371 E11.50538
G1 X32.835 Y-25.223 E11.58874
G1 X40.524 Y-25.049 E11.66644
G1 X40.712 Y-24.784 F7800.000
G1 X38.300 Y-24.559 F7800.000
G1 X40.900 Y-24.494 E11.69272 F1800.000
G1 X41.160 Y-24.344 E11.69576
G1 X41.160 Y-21.305 E11.72646
G1 X38.905 Y-20.003 E11.75278
G1 X38.905 Y-16.964 E11.78348
G1 X41.160 Y-15.662 E11.80979
G1 X41.160 Y-12.623 E11.84049
G1 X38.905 Y-11.321 E11.86680
G1 X38.905 Y-8.282 E11.89750
G1 X41.160 Y-6.980 E11.92382
G1 X41.160 Y-3.942 E11.95452
G1 X38.905 Y-2.639 E11.98083
G1 X38.905 Y0.399 E12.01153
G1 X41.160 Y1.702 E12.03785
G1 X41.160 Y4.740 E12.06855
G1 X38.905 Y6.042 E12.09486
G1 X38.905 Y9.081 E12.12556
G1 X41.160 Y10.383 E12.15187
G1 X41.160 Y13.422 E12.18257
G1 X38.905 Y14.724 E12.20889
G1 X38.905 Y17.763 E12.23959
G1 X41.160 Y19.065 E12.26590
G1 X41.160 Y22.104 E12.29660
G1 X38.905 Y23.406 E12.32292
G1 X38.905 Y24.340 E12.33236
G1 X38.654 Y24.354 E12.33490
G1 X38.654 Y23.406 E12.34448
G1 X36.399 Y22.104 E12.37079
G1 X36.399 Y19.065 E12.40149
G1 X38.654 Y17.763 E12.42781
G1 X38.654 Y14.724 E12.45851
G1 X36.399 Y13.422 E12.48482
G1 X36.399 Y10.383 E12.51552
G1 X38.654 Y9.081 E12.54184
G1 X38.654 Y6.042 E12.57254
G1 X36.399 Y4.740 E12.59885
G1 X36.399 Y1.702 E12.62955
G1 X38.654 Y0.399 E12.65586
G1 X38.654 Y-2.639 E12.68656
G1 X36.399 Y-3.942 E12.71288
G1 X36.399 Y-6.980 E12.74358
G1 X38.654 Y-8.282 E12.76989
G1 X38.654 Y-11.321 E12.80059
G1 X36.399 Y-12.623 E12.82691
G1 X36.399 Y-15.662 E12.85761
G1 X38.654 Y-16.964 E12.88392
G1 X38.654 Y-20.003 E12.91462
G1 X36.399 Y-21.305 E12.94093
G1 X36.399 Y-24.344 E12.97163
G1 X36.828 Y-24.591 E12.97664
G1 X38.300 Y-24.559 E12.99151
G1 X43.646 Y-24.425 F7800.000
G1 X46.173 Y-24.344 E13.01706 F1800.000
G1 X46.173 Y-21.305 E13.04775
G1 X43.917 Y-20.003 E13.07407
G1 X43.917 Y-16.964 E13.10477
G1 X46.173 Y-15.662 E13.13108
G1 X46.173 Y-12.623 E13.16178
G1 X43.917 Y-11.321 E13.18810
G1 X43.917 Y-8.282 E13.21880
G1 X46.173 Y-6.980 E13.24511
G1 X46.173 Y-3.942 E13.27581
G1 X43.917 Y-2.639 E13.30213
G1 X43.917 Y0.399 E13.33282
G1 X46.173 Y1.702 E13.35914
G1 X46.173 Y4.740 E13.38984
G1 X43.917 Y6.042 E13.41615
G1 X43.917 Y9.081 E13.44685
G1 X46.173 Y10.383 E13.47317
G1 X46.173 Y13.422 E13.50387
G1 X43.917 Y14.724 E13.53018
G1 X43.917 Y17.763 E13.56088
G1 X46.173 Y19.065 E13.58720
G1 X46.173 Y22.104 E13.61789
G1 X43.917 Y23.406 E13.64421
G1 X43.917 Y24.061 E13.65083
G1 X43.667 Y24.075 E13.65337
G1 X43.667 Y23.406 E13.66013
G1 X41.411 Y22.104 E13.68645
G1 X41.411 Y19.065 E13.71715
G1 X43.667 Y17.763 E13.74346
G1 X43.667 Y14.724 E13.77416
G1 X41.411 Y13.422 E13.80047
G1 X41.411 Y10.383 E13.83117
G1 X43.667 Y9.081 E13.85749
G1 X43.667 Y6.042 E13.88819
G1 X41.411 Y4.740 E13.91450
G1 X41.411 Y1.702 E13.94520
G1 X43.667 Y0.399 E13.97152
G1 X43.667 Y-2.639 E14.00222
G1 X41.411 Y-3.942 E14.02853
G1 X41.411 Y-6.980 E14.05923
G1 X43.667 Y-8.282 E14.08554
G1 X43.667 Y-11.321 E14.11624
G1 X41.411 Y-12.623 E14.14256
G1 X41.411 Y-15.662 E14.17326
G1 X43.667 Y-16.964 E14.19957
G1 X43.667 Y-20.003 E14.23027
G1 X41.411 Y-21.305 E14.25659
G1 X41.411 Y-24.344 E14.28729
G1 X41.640 Y-24.476 E14.28995
G1 X43.646 Y-24.425 E14.31023
G1 X50.717 Y-24.218 F7800.000
G1 X51.185 Y-22.814 E14.32518 F1800.000
G1 X51.185 Y-21.305 E14.34042
G1 X48.930 Y-20.003 E14.36674
G1 X48.930 Y-16.964 E14.39744
G1 X51.185 Y-15.662 E14.42375
G1 X51.185 Y-12.623 E14.45445
G1 X48.930 Y-11.321 E14.48077
G1 X48.930 Y-8.282 E14.51147
G1 X51.185 Y-6.980 E14.53778
G1 X51.185 Y-3.942 E14.56848
G1 X48.930 Y-2.639 E14.59479
G1 X48.930 Y0.399 E14.62549
G1 X51.185 Y1.702 E14.65181
G1 X51.185 Y4.740 E14.68251
G1 X48.930 Y6.042 E14.70882
G1 X48.930 Y9.081 E14.73952
G1 X51.185 Y10.383 E14.76584
G1 X51.185 Y13.422 E14.79654
G1 X48.930 Y14.724 E14.82285
G1 X48.930 Y17.763 E14.85355
G1 X51.185 Y19.065 E14.87986
G1 X51.185 Y19.768 E14.88697
G1 X50.221 Y22.660 E14.91777
G1 X48.930 Y23.406 E14.93284
G1 X48.930 Y23.737 E14.93618
G1 X48.679 Y23.754 E14.93872
G1 X48.679 Y23.406 E14.94223
G1 X46.424 Y22.104 E14.96855
G1 X46.424 Y19.065 E14.99924
G1 X48.679 Y17.763 E15.02556
G1 X48.679 Y14.724 E15.05626
G1 X46.424 Y13.422 E15.08257
G1 X46.424 Y10.383 E15.11327
G1 X48.679 Y9.081 E15.13959
G1 X48.679 Y6.042 E15.17029
G1 X46.424 Y4.740 E15.19660
G1 X46.424 Y1.702 E15.22730
G1 X48.679 Y0.399 E15.25362
G1 X48.679 Y-2.639 E15.28431
G1 X46.424 Y-3.942 E15.31063
G1 X46.424 Y-6.980 E15.34133
G1 X48.679 Y-8.282 E15.36764
G1 X48.679 Y-11.321 E15.39834
G1 X46.424 Y-12.623 E15.42466
G1 X46.424 Y-15.662 E15.45536
G1 X48.679 Y-16.964 E15.48167
G1 X48.679 Y-20.003 E15.51237
G1 X46.424 Y-21.305 E15.53868
G1 X46.424 Y-24.344 E15.56938
G1 X50.717 Y-24.218 E15.61278
G1 X51.748 Y-21.125 F7800.000
G1 X51.436 Y-21.305 E15.61643 F1800.000
G1 X51.436 Y-22.062 E15.62407
G1 X51.748 Y-21.125 E15.63405
G1 X54.843 Y-11.841 F7800.000
G1 X53.942 Y-11.321 E15.64456 F1800.000
G1 X53.942 Y-8.282 E15.67526
G1 X56.198 Y-6.980 E15.70158
G1 X56.198 Y-3.942 E15.73228
G1 X53.942 Y-2.639 E15.75859
G1 X53.942 Y0.399 E15.78929
G1 X56.198 Y1.702 E15.81560
G1 X56.198 Y4.731 E15.84621
G1 X53.942 Y6.042 E15.87257
G1 X53.942 Y9.081 E15.90327
G1 X54.618 Y9.471 E15.91115
G1 X53.000 Y14.325 E15.96284
G1 X51.436 Y13.422 E15.98109
G1 X51.436 Y10.383 E16.01179
G1 X53.691 Y9.081 E16.03810
G1 X53.691 Y6.042 E16.06880
G1 X51.436 Y4.740 E16.09511
G1 X51.436 Y1.702 E16.12581
G1 X53.691 Y0.399 E16.15213
G1 X53.691 Y-2.639 E16.18283
G1 X51.436 Y-3.942 E16.20914
G1 X51.436 Y-6.980 E16.23984
G1 X53.691 Y-8.282 E16.26616
G1 X53.691 Y-11.321 E16.29686
G1 X51.436 Y-12.623 E16.32317
G1 X51.436 Y-15.662 E16.35387
G1 X53.225 Y-16.695 E16.37474
G1 X54.843 Y-11.841 E16.42643
G1 X57.721 Y-3.207 F7800.000
G1 X56.448 Y-3.942 E16.44128 F1800.000
G1 X56.461 Y-6.987 E16.47205
G1 X57.721 Y-3.207 E16.51231
G1 X56.448 Y3.979 F7800.000
G1 X56.448 Y1.702 E16.53532 F1800.000
G1 X57.388 Y1.159 E16.54629
G1 X56.448 Y3.979 E16.57632
G1 X32.824 Y-24.679 F7800.000
G1 X35.675 Y-24.617 E16.60513 F1800.000
G1 X36.148 Y-24.344 E16.61065
G1 X36.148 Y-21.305 E16.64135
G1 X33.893 Y-20.003 E16.66766
G1 X33.893 Y-16.964 E16.69836
G1 X36.148 Y-15.662 E16.72468
G1 X36.148 Y-12.623 E16.75538
G1 X33.893 Y-11.321 E16.78169
G1 X33.893 Y-8.282 E16.81239
G1 X36.148 Y-6.980 E16.83870
G1 X36.148 Y-3.942 E16.86940
G1 X33.893 Y-2.639 E16.89572
G1 X33.893 Y0.399 E16.92642
G1 X36.148 Y1.702 E16.95273
G1 X36.148 Y4.740 E16.98343
G1 X33.893 Y6.042 E17.00975
G1 X33.893 Y9.081 E17.04045
G1 X36.148 Y10.383 E17.06676
G1 X36.148 Y13.422 E17.09746
G1 X33.893 Y14.724 E17.12377
G1 X33.893 Y17.763 E17.15447
G1 X36.148 Y19.065 E17.18079
G1 X36.148 Y22.104 E17.21149
G1 X33.893 Y23.406 E17.23780
G1 X33.893 Y24.570 E17.24956
G1 X33.642 Y24.580 E17.25210
G1 X33.642 Y23.406 E17.26396
G1 X31.386 Y22.104 E17.29028
G1 X31.386 Y19.065 E17.32098
G1 X33.642 Y17.763 E17.34729
G1 X33.642 Y14.724 E17.37799
G1 X31.386 Y13.422 E17.40431
G1 X31.386 Y10.383 E17.43500
G1 X33.642 Y9.081 E17.46132
G1 X33.642 Y6.042 E17.49202
G1 X31.386 Y4.740 E17.51833
G1 X31.386 Y1.702 E17.54903
G1 X33.642 Y0.399 E17.57535
G1 X33.642 Y-2.639 E17.60605
G1 X31.386 Y-3.942 E17.63236
G1 X31.386 Y-6.980 E17.66306
G1 X33.642 Y-8.282 E17.68937
G1 X33.642 Y-11.321 E17.72007
G1 X31.386 Y-12.623 E17.74639
G1 X31.386 Y-15.662 E17.77709
G1 X33.642 Y-16.964 E17.80340
G1 X33.642 Y-20.003 E17.83410
G1 X31.386 Y-21.305 E17.86042
G1 X31.386 Y-24.344 E17.89112
G1 X31.992 Y-24.694 E17.89819
G1 X32.824 Y-24.679 E17.90659
G1 X30.483 Y-24.721 F7800.000
G1 X31.136 Y-24.344 E17.91421 F1800.000
G1 X31.136 Y-21.305 E17.94491
G1 X28.880 Y-20.003 E17.97122
G1 X28.880 Y-16.964 E18.00192
G1 X31.136 Y-15.662 E18.02824
G1 X31.136 Y-12.623 E18.05894
G1 X28.880 Y-11.321 E18.08525
G1 X28.880 Y-8.282 E18.11595
G1 X31.136 Y-6.980 E18.14227
G1 X31.136 Y-3.942 E18.17297
G1 X28.880 Y-2.639 E18.19928
G1 X28.880 Y0.399 E18.22998
G1 X31.136 Y1.702 E18.25629
G1 X31.136 Y4.740 E18.28699
G1 X28.880 Y6.042 E18.31331
G1 X28.880 Y9.081 E18.34401
G1 X31.136 Y10.383 E18.37032
G1 X31.136 Y13.422 E18.40102
G1 X28.880 Y14.724 E18.42734
G1 X28.880 Y17.763 E18.45804
G1 X31.136 Y19.065 E18.48435
G1 X31.136 Y22.104 E18.51505
G1 X28.880 Y23.406 E18.54136
G1 X28.880 Y24.768 E18.55512
G1 X28.630 Y24.775 E18.55766
G1 X28.630 Y23.406 E18.57149
G1 X26.374 Y22.104 E18.59781
G1 X26.374 Y19.065 E18.62851
G1 X28.630 Y17.763 E18.65482
G1 X28.630 Y14.724 E18.68552
G1 X26.374 Y13.422 E18.71183
G1 X26.374 Y10.383 E18.74253
G1 X28.630 Y9.081 E18.76885
G1 X28.630 Y6.042 E18.79955
G1 X26.374 Y4.740 E18.82586
G1 X26.374 Y1.702 E18.85656
G1 X28.630 Y0.399 E18.88288
G1 X28.630 Y-2.639 E18.91358
G1 X26.374 Y-3.942 E18.93989
G1 X26.374 Y-6.980 E18.97059
G1 X28.630 Y-8.282 E18.99690
G1 X28.630 Y-11.321 E19.02760
G1 X26.374 Y-12.623 E19.05392
G1 X26.374 Y-15.662 E19.08462
G1 X28.630 Y-16.964 E19.11093
G1 X28.630 Y-20.003 E19.14163
G1 X26.374 Y-21.305 E19.16795
G1 X26.374 Y-24.344 E19.19865
G1 X27.130 Y-24.780 E19.20747
G1 X30.483 Y-24.721 E19.24135
G1 X24.578 Y-24.826 F7800.000
G1 X25.311 Y-24.813 E19.24875 F1800.000
G1 X26.123 Y-24.344 E19.25823
G1 X26.123 Y-21.305 E19.28893
G1 X23.868 Y-20.003 E19.31525
G1 X23.868 Y-16.964 E19.34595
G1 X26.123 Y-15.662 E19.37226
G1 X26.123 Y-12.623 E19.40296
G1 X23.868 Y-11.321 E19.42928
G1 X23.868 Y-8.282 E19.45997
G1 X26.123 Y-6.980 E19.48629
G1 X26.123 Y-3.942 E19.51699
G1 X23.868 Y-2.639 E19.54330
G1 X23.868 Y0.399 E19.57400
G1 X26.123 Y1.702 E19.60032
G1 X26.123 Y4.740 E19.63102
G1 X23.868 Y6.042 E19.65733
G1 X23.868 Y9.081 E19.68803
G1 X26.123 Y10.383 E19.71435
G1 X26.123 Y13.422 E19.74504
G1 X23.868 Y14.724 E19.77136
G1 X23.868 Y17.763 E19.80206
G1 X26.123 Y19.065 E19.82837
G1 X26.123 Y22.104 E19.85907
G1 X23.868 Y23.406 E19.88539
G1 X23.868 Y24.908 E19.90056
G1 X23.617 Y24.913 E19.90310
G1 X23.617 Y23.406 E19.91832
G1 X21.362 Y22.104 E19.94464
G1 X21.362 Y19.065 E19.97533
G1 X23.617 Y17.763 E20.00165
G1 X23.617 Y14.724 E20.03235
G1 X21.362 Y13.422 E20.05866
G1 X21.362 Y10.383 E20.08936
G1 X23.617 Y9.081 E20.11568
G1 X23.617 Y6.042 E20.14638
G1 X21.362 Y4.740 E20.17269
G1 X21.362 Y1.702 E20.20339
G1 X23.617 Y0.399 E20.22971
G1 X23.617 Y-2.639 E20.26040
G1 X21.362 Y-3.942 E20.28672
G1 X21.362 Y-6.980 E20.31742
G1 X23.617 Y-8.282 E20.34373
G1 X23.617 Y-11.321 E20.37443
G1 X21.362 Y-12.623 E20.40075
G1 X21.362 Y-15.662 E20.43145
G1 X23.617 Y-16.964 E20.45776
G1 X23.617 Y-20.003 E20.48846
G1 X21.362 Y-21.305 E20.51477
G1 X21.362 Y-24.344 E20.54547
G1 X22.245 Y-24.854 E20.55578
G1 X24.578 Y-24.826 E20.57935
G1 X20.185 Y-24.878 F7800.000
G1 X21.111 Y-24.344 E20.59015 F1800.000
G1 X21.111 Y-21.305 E20.62085
G1 X18.855 Y-20.003 E20.64716
G1 X18.855 Y-16.964 E20.67786
G1 X21.111 Y-15.662 E20.70418
G1 X21.111 Y-12.623 E20.73488
G1 X18.855 Y-11.321 E20.76119
G1 X18.855 Y-8.282 E20.79189
G1 X21.111 Y-6.980 E20.81821
G1 X21.111 Y-3.942 E20.84890
G1 X18.855 Y-2.639 E20.87522
G1 X18.855 Y0.399 E20.90592
G1 X21.111 Y1.702 E20.93223
G1 X21.111 Y4.740 E20.96293
G1 X18.855 Y6.042 E20.98925
G1 X18.855 Y9.081 E21.01995
G1 X21.111 Y10.383 E21.04626
G1 X21.111 Y13.422 E21.07696
G1 X18.855 Y14.724 E21.10328
G1 X18.855 Y17.763 E21.13397
G1 X21.111 Y19.065 E21.16029
G1 X21.111 Y22.104 E21.19099
G1 X18.855 Y23.406 E21.21730
G1 X18.855 Y25.003 E21.23344
G1 X18.605 Y25.008 E21.23597
G1 X18.605 Y23.406 E21.25216
G1 X16.349 Y22.104 E21.27848
G1 X16.349 Y19.065 E21.30917
G1 X18.605 Y17.763 E21.33549
