; generated by Slic3r 1.2.9 on 2016-07-17 at 16:36:37

; external perimeters extrusion width = 0.40mm
; perimeters extrusion width = 0.67mm
; infill extrusion width = 0.67mm
; solid infill extrusion width = 0.67mm
; top infill extrusion width = 0.67mm

M107
M104 S215 ; set temperature
G28 ; home all axes
G1 Y-60 Z5 F5000 ; lift nozzle


M109 S215 ; wait for temperature to be reached
G21 ; set units to millimeters
G90 ; use absolute coordinates
M82 ; use absolute distances for extrusion
G92 E0
G1 E-3.00000 F2400.00000
G92 E0
G1 Z0.300 F6000.000
G1 X-29.589 Y1.697 F6000.000
G1 E3.00000 F2400.00000
G1 X-29.791 Y-3.366 E3.26476 F1800.000
G1 X-29.948 Y-8.492 E3.53268
G1 X-30.059 Y-13.677 E3.80365
G1 X-30.122 Y-18.921 E4.07763
G1 X-30.137 Y-24.222 E4.35458
G1 X-30.104 Y-29.560 E4.63343
G1 X-30.021 Y-34.971 E4.91621
G1 X-29.889 Y-40.455 E5.20281
G1 X-29.652 Y-47.402 E5.56596
G1 X-29.186 Y-49.213 E5.66363
G1 X-28.012 Y-50.668 E5.76130
G1 X-26.342 Y-51.508 E5.85898
G1 X-25.200 Y-51.648 E5.91910
G1 X25.753 Y-51.220 E8.58122
G1 X27.577 Y-50.810 E8.67889
G1 X29.068 Y-49.681 E8.77656
G1 X29.958 Y-48.038 E8.87423
G1 X30.135 Y-46.810 E8.93904
G1 X30.113 Y-31.935 E9.71618
G1 X30.002 Y-17.455 E10.47273
G1 X29.891 Y-9.119 E10.90827
G1 X29.794 Y-3.416 E11.20628
G1 X29.622 Y4.783 E11.63471
G1 X29.487 Y10.154 E11.91542
G1 X29.170 Y20.615 E12.46217
G1 X28.889 Y28.226 E12.86012
G1 X28.569 Y35.632 E13.24738
G1 X28.158 Y43.769 E13.67305
G1 X27.663 Y45.572 E13.77072
G1 X26.466 Y47.009 E13.86840
G1 X24.472 Y47.885 E13.98222
G1 X2.249 Y51.589 E15.15925
G1 X0.796 Y51.589 E15.23516
G1 X-22.456 Y47.714 E16.46672
G1 X-24.193 Y47.023 E16.56439
G1 X-25.489 Y45.676 E16.66206
G1 X-26.116 Y43.882 E16.76136
G1 X-26.349 Y41.947 E16.86321
G1 X-27.094 Y35.247 E17.21538
G1 X-27.553 Y30.679 E17.45527
G1 X-27.980 Y26.031 E17.69909
G1 X-28.374 Y21.308 E17.94669
G1 X-28.735 Y16.495 E18.19889
G1 X-29.058 Y11.630 E18.45363
G1 X-29.344 Y6.697 E18.71179
G1 X-29.586 Y1.757 E18.97015
G1 F4800
G1 X-29.791 Y-3.366 E16.53451
G1 F4800
G1 X-29.818 Y-4.238 E16.12015
G1 E15.97015 F2400.00000
G92 E0
G1 X-24.684 Y-46.552 F6000.000
G1 E3.00000 F2400.00000
G1 X1.523 Y-42.184 E4.38805 F1800.000
G1 X25.138 Y-46.120 E5.63882
G1 X25.117 Y-31.954 E6.37891
G1 X25.036 Y-20.369 E6.98421
G1 X24.894 Y-9.053 E7.57545
G1 X24.688 Y1.965 E8.15118
G1 X24.420 Y12.658 E8.71001
G1 X24.087 Y23.000 E9.25061
G1 X23.689 Y32.966 E9.77170
G1 X23.464 Y37.799 E10.02446
G1 X23.193 Y43.034 E10.29832
G1 X1.523 Y46.645 E11.44610
G1 X-21.206 Y42.857 E12.64992
G1 X-21.888 Y36.950 E12.96059
G1 X-22.581 Y30.191 E13.31556
G1 X-23.203 Y23.254 E13.67944
G1 X-23.577 Y18.538 E13.92662
G1 X-24.071 Y11.328 E14.30417
G1 X-24.354 Y6.440 E14.55998
G1 X-24.703 Y-1.017 E14.94998
G1 X-24.881 Y-6.065 E15.21387
G1 X-25.014 Y-11.174 E15.48088
G1 X-25.101 Y-16.342 E15.75094
G1 X-25.139 Y-21.569 E16.02402
G1 X-25.130 Y-26.853 E16.30007
G1 X-25.073 Y-32.192 E16.57906
G1 X-24.967 Y-37.587 E16.86094
G1 X-24.812 Y-43.034 E17.14567
G1 X-24.686 Y-46.492 E17.32644
G1 X-25.045 Y-46.995 F6000.000
G1 X1.523 Y-42.567 E18.45393 F1800.000
G1 X25.516 Y-46.566 E19.47213
G1 X25.494 Y-31.953 E20.08382
G1 X25.413 Y-20.365 E20.56890
G1 X25.271 Y-9.047 E21.04271
G1 X25.065 Y1.973 E21.50410
G1 X24.797 Y12.669 E21.95196
G1 X24.464 Y23.014 E22.38522
G1 X24.066 Y32.982 E22.80285
G1 X23.841 Y37.817 E23.00546
G1 X23.554 Y43.356 E23.23762
G1 X1.523 Y47.028 E24.17258
G1 X-21.548 Y43.183 E25.15164
G1 X-22.263 Y36.991 E25.41255
G1 X-22.956 Y30.227 E25.69716
G1 X-23.579 Y23.286 E25.98890
G1 X-23.953 Y18.565 E26.18712
G1 X-24.448 Y11.352 E26.48978
G1 X-24.731 Y6.460 E26.69492
G1 X-25.080 Y-1.001 E27.00758
G1 X-25.259 Y-6.053 E27.21918
G1 X-25.391 Y-11.166 E27.43326
G1 X-25.478 Y-16.338 E27.64980
G1 X-25.517 Y-21.568 E27.86874
G1 X-25.508 Y-26.855 E28.09007
G1 X-25.450 Y-32.198 E28.31374
G1 X-25.344 Y-37.596 E28.53973
G1 X-25.189 Y-43.047 E28.76800
G1 X-25.047 Y-46.935 E28.93087
G1 X-24.726 Y-46.754 F6000.000
G1 X-22.945 Y-45.795 F6000.000
G1 X-24.300 Y-44.441 E29.03094 F1800.000
G1 X-24.242 Y-46.011 E29.11305
G1 X-22.945 Y-45.795 E29.18176
G1 X-14.094 Y-44.320 F6000.000
G1 X-12.521 Y-38.448 E29.49937 F1800.000
G1 X-17.908 Y-33.061 E29.89737
G1 X-24.215 Y-34.751 E30.23852
G1 X-24.569 Y-34.397 E30.26466
G1 X-24.506 Y-37.576 E30.43074
G1 X-24.333 Y-43.519 E30.74136
G1 X-22.184 Y-45.668 E30.90018
G1 X-14.094 Y-44.320 E31.32863
G1 X6.369 Y-39.566 F6000.000
G1 X0.062 Y-41.256 E31.66977 F1800.000
G1 X-5.325 Y-35.869 E32.06777
G1 X-3.635 Y-29.562 E32.40891
G1 X-9.022 Y-24.175 E32.80691
G1 X-15.329 Y-25.865 E33.14805
G1 X-20.716 Y-20.479 E33.54605
G1 X-19.026 Y-14.172 E33.88720
G1 X-24.412 Y-8.785 E34.28520
G1 X-24.492 Y-8.806 E34.28949
G1 X-24.554 Y-11.184 E34.41374
G1 X-24.640 Y-16.348 E34.68358
G1 X-24.678 Y-21.866 E34.97187
G1 X-21.160 Y-20.923 E35.16216
G1 X-15.773 Y-26.310 E35.56016
G1 X-17.463 Y-32.617 E35.90130
G1 X-12.077 Y-38.004 E36.29930
G1 X-5.769 Y-36.314 E36.64044
G1 X-0.383 Y-41.700 E37.03844
G1 X-0.477 Y-42.050 E37.05738
G1 X1.523 Y-41.717 E37.16328
G1 X9.919 Y-43.117 E37.60801
G1 X6.369 Y-39.566 E37.87035
G1 X18.951 Y-42.374 F6000.000
G1 X20.641 Y-36.067 E38.21149 F1800.000
G1 X15.254 Y-30.680 E38.60949
G1 X8.947 Y-32.370 E38.95063
G1 X3.561 Y-26.984 E39.34863
G1 X5.251 Y-20.676 E39.68977
G1 X-0.136 Y-15.290 E40.08777
G1 X-6.443 Y-16.980 E40.42892
G1 X-11.830 Y-11.593 E40.82692
G1 X-10.140 Y-5.286 E41.16806
G1 X-15.527 Y0.101 E41.56606
G1 X-21.834 Y-1.589 E41.90720
G1 X-24.160 Y0.737 E42.07903
G1 X-24.199 Y-0.112 E42.12343
G1 X-22.278 Y-2.033 E42.26538
G1 X-23.968 Y-8.341 E42.60652
G1 X-18.581 Y-13.727 E43.00452
G1 X-12.274 Y-12.037 E43.34566
G1 X-6.888 Y-17.424 E43.74366
G1 X-8.578 Y-23.731 E44.08480
G1 X-3.191 Y-29.118 E44.48280
G1 X3.116 Y-27.428 E44.82394
G1 X8.503 Y-32.815 E45.22194
G1 X6.813 Y-39.122 E45.56309
G1 X10.986 Y-43.294 E45.87138
G1 X14.528 Y-43.885 E46.05898
G1 X18.507 Y-42.818 E46.27422
G1 X20.582 Y-44.894 E46.42756
G1 X21.649 Y-45.072 E46.48403
G1 X18.951 Y-42.374 E46.68333
G1 X24.660 Y-34.665 F6000.000
G1 X24.588 Y-22.242 E47.33235 F1800.000
G1 X24.140 Y-21.794 E47.36545
G1 X17.833 Y-23.484 E47.70659
G1 X12.446 Y-18.098 E48.10459
G1 X14.136 Y-11.791 E48.44573
G1 X8.750 Y-6.404 E48.84373
G1 X2.442 Y-8.094 E49.18487
G1 X-2.944 Y-2.707 E49.58287
G1 X-1.254 Y3.600 E49.92401
G1 X-6.641 Y8.987 E50.32201
G1 X-12.948 Y7.297 E50.66316
G1 X-18.335 Y12.683 E51.06116
G1 X-16.645 Y18.991 E51.40230
G1 X-22.032 Y24.377 E51.80030
G1 X-22.655 Y24.210 E51.83400
G1 X-23.117 Y18.504 E52.13313
G1 X-23.632 Y10.939 E52.52926
G1 X-18.779 Y12.239 E52.79175
G1 X-13.392 Y6.852 E53.18974
G1 X-15.082 Y0.545 E53.53089
G1 X-9.696 Y-4.841 E53.92889
G1 X-3.389 Y-3.151 E54.27003
G1 X1.998 Y-8.538 E54.66803
G1 X0.308 Y-14.845 E55.00917
G1 X5.695 Y-20.232 E55.40717
G1 X12.002 Y-18.542 E55.74831
G1 X17.389 Y-23.929 E56.14631
G1 X15.699 Y-30.236 E56.48745
G1 X21.085 Y-35.623 E56.88545
G1 X24.660 Y-34.665 E57.07879
G1 X24.474 Y-12.354 F6000.000
G1 X21.332 Y-9.212 E57.31095 F1800.000
G1 X23.022 Y-2.905 E57.65209
G1 X17.635 Y2.482 E58.05009
G1 X11.328 Y0.792 E58.39123
G1 X5.942 Y6.179 E58.78923
G1 X7.632 Y12.486 E59.13038
G1 X2.245 Y17.872 E59.52838
G1 X-4.062 Y16.182 E59.86952
G1 X-9.449 Y21.569 E60.26752
G1 X-7.759 Y27.876 E60.60866
G1 X-13.146 Y33.263 E61.00666
G1 X-19.453 Y31.573 E61.34780
G1 X-21.741 Y33.861 E61.51686
G1 X-21.824 Y33.055 E61.55919
G1 X-19.897 Y31.129 E61.70153
G1 X-21.587 Y24.822 E62.04268
G1 X-16.201 Y19.435 E62.44068
G1 X-9.893 Y21.125 E62.78182
G1 X-4.507 Y15.738 E63.17982
G1 X-6.197 Y9.431 E63.52096
G1 X-0.810 Y4.044 E63.91896
G1 X5.497 Y5.734 E64.26010
G1 X10.884 Y0.348 E64.65810
G1 X9.194 Y-5.960 E64.99924
G1 X14.581 Y-11.346 E65.39724
G1 X20.888 Y-9.656 E65.73839
G1 X24.486 Y-13.254 E66.00421
G1 X24.474 Y-12.354 E66.05123
G1 X24.306 Y-2.236 F6000.000
G1 X24.228 Y1.955 E66.27019 F1800.000
G1 X24.008 Y10.694 E66.72693
G1 X20.214 Y9.678 E66.93215
G1 X14.827 Y15.064 E67.33015
G1 X16.517 Y21.372 E67.67129
G1 X11.131 Y26.758 E68.06929
G1 X4.823 Y25.068 E68.41044
G1 X-0.563 Y30.455 E68.80843
G1 X1.127 Y36.762 E69.14958
G1 X-4.260 Y42.149 E69.54758
G1 X-10.567 Y40.459 E69.88872
G1 X-13.742 Y43.634 E70.12331
G1 X-14.504 Y43.507 E70.16365
G1 X-11.012 Y40.015 E70.42169
G1 X-12.702 Y33.707 E70.76283
G1 X-7.315 Y28.321 E71.16083
G1 X-1.008 Y30.011 E71.50198
G1 X4.379 Y24.624 E71.89998
G1 X2.689 Y18.317 E72.24112
G1 X8.076 Y12.930 E72.63912
G1 X14.383 Y14.620 E72.98026
G1 X19.770 Y9.233 E73.37826
G1 X18.080 Y2.926 E73.71940
G1 X23.466 Y-2.461 E74.11740
G1 X24.306 Y-2.236 E74.16279
G1 X23.269 Y23.506 F6000.000
G1 X23.620 Y23.155 E74.18874 F1800.000
G1 X23.250 Y32.410 E74.67269
G1 X20.016 Y35.644 E74.91161
G1 X13.709 Y33.954 E75.25276
G1 X8.322 Y39.341 E75.65076
G1 X9.786 Y44.801 E75.94609
G1 X1.523 Y46.178 E76.38373
G1 X-3.060 Y45.414 E76.62645
G1 X-3.816 Y42.593 E76.77904
G1 X1.571 Y37.206 E77.17704
G1 X7.878 Y38.896 E77.51819
G1 X13.265 Y33.510 E77.91619
G1 X11.575 Y27.203 E78.25733
G1 X16.962 Y21.816 E78.65533
G1 X23.269 Y23.506 E78.99647
G1 X23.004 Y37.776 F6000.000
G1 X22.752 Y42.640 E79.25092 F1800.000
G1 X21.737 Y42.809 E79.30468
G1 X22.151 Y42.396 E79.33524
G1 X20.461 Y36.088 E79.67638
G1 X23.210 Y33.339 E79.87955
G1 X23.004 Y37.776 E80.11164
G1 F4800
G1 X23.210 Y33.339 E78.00153
G1 F4800
G1 X22.109 Y34.440 E77.26164
G1 E77.11164 F2400.00000
G92 E0
G1 Z0.500 F6000.000
G1 X-24.562 Y-46.415 F6000.000
G1 E3.00000 F2400.00000
G1 X1.523 Y-42.067 E4.38159 F1200.000
G1 X25.022 Y-45.984 E5.62622
G1 X25.001 Y-31.705 E6.37221
G1 X24.920 Y-20.120 E6.97748
G1 X24.778 Y-8.805 E7.56869
G1 X24.573 Y2.212 E8.14438
G1 X24.304 Y12.905 E8.70317
G1 X23.972 Y23.246 E9.24372
G1 X23.574 Y33.211 E9.76477
G1 X23.349 Y38.043 E10.01750
G1 X23.096 Y42.933 E10.27329
G1 X1.523 Y46.528 E11.41594
G1 X-21.131 Y42.753 E12.61584
G1 X-21.773 Y37.187 E12.90854
G1 X-22.242 Y32.704 E13.14405
G1 X-22.889 Y25.825 E13.50500
G1 X-23.279 Y21.146 E13.75028
G1 X-23.800 Y13.990 E14.12515
G1 X-24.102 Y9.136 E14.37927
G1 X-24.365 Y4.214 E14.63674
G1 X-24.588 Y-0.770 E14.89741
G1 X-24.838 Y-8.365 E15.29445
G1 X-24.948 Y-13.502 E15.56289
G1 X-25.011 Y-18.699 E15.83442
G1 X-25.026 Y-23.954 E16.10893
G1 X-24.992 Y-29.264 E16.38640
G1 X-24.910 Y-34.631 E16.66679
G1 X-24.780 Y-40.050 E16.95001
G1 X-24.564 Y-46.355 E17.27959
G1 X-25.035 Y-46.993 F6000.000
G1 X1.523 Y-42.567 E18.07901 F600.000
G1 X25.515 Y-46.566 E18.80120
G1 X25.494 Y-31.703 E19.24249
G1 X25.413 Y-20.115 E19.58655
G1 X25.271 Y-8.797 E19.92262
G1 X25.065 Y2.223 E20.24988
G1 X24.797 Y12.919 E20.56755
G1 X24.464 Y23.264 E20.87486
G1 X24.066 Y33.232 E21.17108
G1 X23.841 Y38.067 E21.31480
G1 X23.568 Y43.354 E21.47196
G1 X1.523 Y47.028 E22.13554
G1 X-21.578 Y43.178 E22.83090
G1 X-22.263 Y37.241 E23.00834
G1 X-22.733 Y32.752 E23.14233
G1 X-23.380 Y25.869 E23.34762
G1 X-23.770 Y21.185 E23.48717
G1 X-24.292 Y14.023 E23.70037
G1 X-24.594 Y9.164 E23.84493
G1 X-24.858 Y4.239 E23.99138
G1 X-25.080 Y-0.751 E24.13967
G1 X-25.331 Y-8.352 E24.36548
G1 X-25.441 Y-13.494 E24.51819
G1 X-25.503 Y-18.696 E24.67264
G1 X-25.518 Y-23.954 E24.82878
G1 X-25.485 Y-29.270 E24.98660
G1 X-25.403 Y-34.640 E25.14608
G1 X-25.272 Y-40.064 E25.30718
G1 X-25.037 Y-46.933 E25.51124
G1 X-24.715 Y-46.753 F6000.000
G1 X-14.381 Y-44.177 F6000.000
G1 X-22.728 Y-45.568 E25.95335 F3000.000
G1 X-24.104 Y-44.192 E26.05496
G1 X-24.246 Y-40.035 E26.27232
G1 X-24.360 Y-35.294 E26.52007
G1 X-24.215 Y-34.751 E26.54942
G1 X-17.908 Y-33.061 E26.89056
G1 X-15.936 Y-25.703 E27.28856
G1 X-20.553 Y-21.086 E27.62970
G1 X-18.581 Y-13.727 E28.02770
G1 X-12.274 Y-12.037 E28.36885
G1 X-10.303 Y-4.679 E28.76685
G1 X-14.920 Y-0.062 E29.10799
G1 X-12.948 Y7.297 E29.50599
G1 X-6.641 Y8.987 E29.84713
G1 X-4.669 Y16.345 E30.24513
G1 X-9.286 Y20.962 E30.58627
G1 X-7.315 Y28.321 E30.98427
G1 X-1.008 Y30.011 E31.32541
G1 X0.964 Y37.369 E31.72341
G1 X-3.653 Y41.986 E32.06456
G1 X-2.773 Y45.271 E32.24221
G1 X1.523 Y45.987 E32.46974
G1 X9.425 Y44.670 E32.88829
G1 X7.878 Y38.896 E33.20056
G1 X1.571 Y37.206 E33.54170
G1 X-0.401 Y29.848 E33.93970
G1 X4.216 Y25.231 E34.28084
G1 X2.245 Y17.872 E34.67884
G1 X-4.062 Y16.182 E35.01998
G1 X-6.034 Y8.824 E35.41798
G1 X-1.417 Y4.207 E35.75912
G1 X-3.389 Y-3.151 E36.15712
G1 X-9.696 Y-4.841 E36.49827
G1 X-11.667 Y-12.200 E36.89627
G1 X-7.050 Y-16.817 E37.23741
G1 X-9.022 Y-24.175 E37.63541
G1 X-15.329 Y-25.865 E37.97655
G1 X-17.301 Y-33.224 E38.37455
G1 X-12.684 Y-37.841 E38.71569
G1 X-14.381 Y-44.177 E39.05837
G1 X-5.866 Y-42.757 F6000.000
G1 X-13.700 Y-44.063 E39.47331 F3000.000
G1 X-12.077 Y-38.004 E39.80106
G1 X-5.769 Y-36.314 E40.14220
G1 X-3.798 Y-28.955 E40.54020
G1 X-8.415 Y-24.338 E40.88134
G1 X-6.443 Y-16.980 E41.27934
G1 X-0.136 Y-15.290 E41.62048
G1 X1.836 Y-7.931 E42.01848
G1 X-2.782 Y-3.314 E42.35963
G1 X-0.810 Y4.044 E42.75763
G1 X5.497 Y5.734 E43.09877
G1 X7.469 Y13.093 E43.49677
G1 X2.852 Y17.710 E43.83791
G1 X4.823 Y25.068 E44.23591
G1 X11.131 Y26.758 E44.57705
G1 X13.102 Y34.117 E44.97505
G1 X8.485 Y38.734 E45.31619
G1 X10.048 Y44.566 E45.63164
G1 X21.879 Y42.594 E46.25827
G1 X20.016 Y35.644 E46.63419
G1 X13.709 Y33.954 E46.97533
G1 X11.737 Y26.596 E47.37333
G1 X16.355 Y21.978 E47.71447
G1 X14.383 Y14.620 E48.11247
G1 X8.076 Y12.930 E48.45361
G1 X6.104 Y5.572 E48.85161
G1 X10.721 Y0.955 E49.19275
G1 X8.750 Y-6.404 E49.59075
G1 X2.442 Y-8.094 E49.93190
G1 X0.471 Y-15.452 E50.32990
G1 X5.088 Y-20.069 E50.67104
G1 X3.116 Y-27.428 E51.06904
G1 X-3.191 Y-29.118 E51.41018
G1 X-5.163 Y-36.476 E51.80818
G1 X-0.545 Y-41.093 E52.14932
G1 X-0.763 Y-41.907 E52.19332
G1 X-5.866 Y-42.757 E52.46359
G1 X6.976 Y-39.729 F6000.000
G1 X10.223 Y-42.976 E52.70351 F3000.000
G1 X1.523 Y-41.526 E53.16431
G1 X-0.082 Y-41.793 E53.24934
G1 X0.062 Y-41.256 E53.27841
G1 X6.369 Y-39.566 E53.61955
G1 X8.340 Y-32.208 E54.01755
G1 X3.723 Y-27.590 E54.35869
G1 X5.695 Y-20.232 E54.75669
G1 X12.002 Y-18.542 E55.09783
G1 X13.974 Y-11.184 E55.49583
G1 X9.357 Y-6.566 E55.83698
G1 X11.328 Y0.792 E56.23497
G1 X17.635 Y2.482 E56.57612
G1 X19.607 Y9.840 E56.97412
G1 X14.990 Y14.457 E57.31526
G1 X16.962 Y21.816 E57.71326
G1 X23.269 Y23.506 E58.05440
G1 X23.406 Y24.020 E58.08220
G1 X23.771 Y12.889 E58.66402
G1 X23.827 Y10.646 E58.78127
G1 X20.214 Y9.678 E58.97668
G1 X18.242 Y2.319 E59.37468
G1 X22.859 Y-2.298 E59.71583
G1 X20.888 Y-9.656 E60.11383
G1 X14.581 Y-11.346 E60.45497
G1 X12.609 Y-18.705 E60.85297
G1 X17.226 Y-23.322 E61.19411
G1 X15.254 Y-30.680 E61.59211
G1 X8.947 Y-32.370 E61.93325
G1 X6.976 Y-39.729 E62.33125
G1 X19.114 Y-42.981 F6000.000
G1 X20.886 Y-44.753 E62.46218 F3000.000
G1 X14.968 Y-43.767 E62.77562
G1 X18.507 Y-42.818 E62.96704
G1 X20.479 Y-35.460 E63.36504
G1 X15.861 Y-30.843 E63.70618
G1 X17.833 Y-23.484 E64.10418
G1 X24.140 Y-21.794 E64.44532
G1 X24.391 Y-20.857 E64.49603
G1 X24.467 Y-31.707 E65.06292
G1 X24.471 Y-34.715 E65.22008
G1 X21.085 Y-35.623 E65.40322
G1 X19.114 Y-42.981 E65.80122
G1 X24.244 Y-8.813 F6000.000
G1 X24.292 Y-12.616 E65.99992 F3000.000
G1 X21.495 Y-9.819 E66.20659
G1 X23.466 Y-2.461 E66.60459
G1 X24.122 Y-2.285 E66.64008
G1 X24.244 Y-8.813 E66.98121
G1 X23.040 Y33.188 F6000.000
G1 X23.045 Y33.060 E66.98793 F3000.000
G1 X20.623 Y35.481 E67.16687
G1 X22.501 Y42.490 E67.54597
G1 X22.585 Y42.476 E67.55041
G1 X23.040 Y33.188 E68.03627
G1 X-22.032 Y24.377 F6000.000
G1 X-22.484 Y24.256 E68.06073 F3000.000
G1 X-22.357 Y25.778 E68.14050
G1 X-21.641 Y33.317 E68.53615
G1 X-20.060 Y31.736 E68.65298
G1 X-22.032 Y24.377 E69.05098
G1 X-21.160 Y-20.923 F6000.000
G1 X-24.485 Y-21.814 E69.23084 F3000.000
G1 X-24.476 Y-18.703 E69.39336
G1 X-24.414 Y-13.511 E69.66463
G1 X-24.304 Y-8.382 E69.93269
G1 X-22.441 Y-1.426 E70.30888
G1 X-24.012 Y0.145 E70.42498
G1 X-23.832 Y4.188 E70.63644
G1 X-23.452 Y10.987 E70.99220
G1 X-18.779 Y12.239 E71.24493
G1 X-16.807 Y19.598 E71.64293
G1 X-21.425 Y24.215 E71.98407
G1 X-19.453 Y31.573 E72.38207
G1 X-13.146 Y33.263 E72.72321
G1 X-11.174 Y40.621 E73.12121
G1 X-13.959 Y43.406 E73.32698
G1 X-3.454 Y45.157 E73.88340
G1 X-4.260 Y42.149 E74.04612
G1 X-10.567 Y40.459 E74.38726
G1 X-12.539 Y33.100 E74.78526
