; generated by Slic3r 1.2.9 on 2016-07-14 at 19:15:45

; external perimeters extrusion width = 0.30mm
; perimeters extrusion width = 0.31mm
; infill extrusion width = 0.31mm
; solid infill extrusion width = 0.31mm
; top infill extrusion width = 0.31mm

M107
M104 S215 ; set temperature
G28 ; home all axes
G1 Z5 F5000 ; lift nozzle

M109 S215 ; wait for temperature to be reached
G21 ; set units to millimeters
G90 ; use absolute coordinates
M82 ; use absolute distances for extrusion
G92 E0
G1 E-2.00000 F2400.00000
G92 E0
G1 Z0.100 F7800.000
G1 X0.000 Y36.179 F7800.000
G1 E2.00000 F2400.00000
G1 X-56.122 Y36.179 E2.56702 F1800.000
G1 X-58.300 Y35.782 E2.58939
G1 X-60.199 Y34.642 E2.61176
G1 X-61.574 Y32.907 E2.63413
G1 X-62.300 Y30.000 E2.66440
G1 X-62.300 Y-30.000 E3.27060
G1 X-61.904 Y-32.178 E3.29297
G1 X-60.764 Y-34.077 E3.31534
G1 X-59.029 Y-35.452 E3.33771
G1 X-56.122 Y-36.179 E3.36798
G1 X53.878 Y-36.179 E4.47935
G1 X56.056 Y-35.782 E4.50172
G1 X57.955 Y-34.642 E4.52409 F1800.000
G1 X59.740 Y-31.954 E4.55669
G1 X61.816 Y-25.725 E4.62303
G1 X62.133 Y-23.780 E4.64293
G1 X62.205 Y23.545 E5.12108
G1 X61.888 Y25.509 E5.14117
G1 X59.740 Y31.954 E5.20981
G1 X58.674 Y33.895 E5.23218
G1 X56.993 Y35.336 E5.25455
G1 X53.878 Y36.179 E5.28716
G1 X0.045 Y36.179 E5.83105
G1 F6240
G1 X-5.155 Y36.179 E3.93105
G1 E3.83105 F2400.00000
G92 E0
G1 X-7.308 Y16.145 F7800.000
G1 E2.00000 F2400.00000
G1 X-0.184 Y17.133 E2.07267 F1800.000
G1 X12.106 Y18.804 E2.19798
G1 X21.260 Y20.008 E2.29127
G1 X30.347 Y21.153 E2.38380
G1 X39.360 Y22.226 E2.47550
G1 X48.294 Y23.220 E2.56632
G1 X55.413 Y23.951 E2.63862
G1 X53.549 Y29.543 E2.69817
G1 X-55.488 Y29.543 E3.79980
G1 X-49.090 Y10.351 E4.00419
G1 X-47.304 Y10.595 E4.02240
G1 X-7.353 Y16.139 E4.42991 F1800.000
G1 X-7.328 Y15.962 F7800.000
G1 X-0.159 Y16.956 E4.50303 F1800.000
G1 X12.130 Y18.627 E4.62834
G1 X21.283 Y19.831 E4.72161
G1 X30.369 Y20.976 E4.81414
G1 X39.381 Y22.049 E4.90583
G1 X48.313 Y23.042 E4.99663
G1 X55.652 Y23.796 E5.07117
G1 X53.677 Y29.721 E5.13427
G1 X-55.735 Y29.721 E6.23970
G1 X-49.213 Y10.154 E6.44809
G1 X-47.280 Y10.418 E6.46780
G1 X-7.373 Y15.956 E6.87486 F1800.000
G1 X-7.348 Y15.779 F7800.000
G1 X-0.135 Y16.780 E6.94844 F1800.000
G1 X12.154 Y18.450 E7.07373
G1 X21.306 Y19.654 E7.16700
G1 X30.391 Y20.799 E7.25951
G1 X39.401 Y21.872 E7.35119
G1 X48.332 Y22.865 E7.44198
G1 X55.892 Y23.642 E7.51876
G1 X53.806 Y29.900 E7.58541
G1 X-55.983 Y29.900 E8.69464
G1 X-49.335 Y9.957 E8.90704
G1 X-47.256 Y10.242 E8.92825
G1 X-7.393 Y15.773 E9.33485 F1800.000
G1 X-7.236 Y16.057 F7800.000
G1 X-6.123 Y16.499 F7800.000
G1 X-6.123 Y17.822 E9.34821 F1800.000
G1 X-8.379 Y19.124 E9.37453
G1 X-8.379 Y22.163 E9.40523
G1 X-6.123 Y23.465 E9.43154
G1 X-6.123 Y26.503 E9.46224
G1 X-8.379 Y27.806 E9.48856
G1 X-8.379 Y29.355 E9.50421
G1 X-8.630 Y29.355 E9.50674
G1 X-8.630 Y27.806 E9.52240
G1 X-10.885 Y26.503 E9.54871
G1 X-10.885 Y23.465 E9.57941
G1 X-8.630 Y22.163 E9.60572
G1 X-8.630 Y19.124 E9.63642
G1 X-10.885 Y17.822 E9.66274
G1 X-10.885 Y15.838 E9.68278
G1 X-6.123 Y16.499 E9.73135
G1 X-1.111 Y17.194 F7800.000
G1 X-1.111 Y17.822 E9.73769 F1800.000
G1 X-3.367 Y19.124 E9.76400
G1 X-3.367 Y22.163 E9.79470
G1 X-1.111 Y23.465 E9.82102
G1 X-1.111 Y26.503 E9.85172
G1 X-3.367 Y27.806 E9.87803
G1 X-3.367 Y29.355 E9.89369
G1 X-3.617 Y29.355 E9.89622
G1 X-3.617 Y27.806 E9.91187
G1 X-5.873 Y26.503 E9.93819
G1 X-5.873 Y23.465 E9.96889
G1 X-3.617 Y22.163 E9.99520
G1 X-3.617 Y19.124 E10.02590
G1 X-5.873 Y17.822 E10.05221
G1 X-5.873 Y16.534 E10.06523
G1 X-1.111 Y17.194 E10.11380
G1 X-0.209 Y17.319 F7800.000
G1 X3.822 Y17.867 E10.15491 F1800.000
G1 X1.646 Y19.124 E10.18030
G1 X1.646 Y22.163 E10.21100
G1 X3.901 Y23.465 E10.23731
G1 X3.901 Y26.503 E10.26801
G1 X1.646 Y27.806 E10.29433
G1 X1.646 Y29.355 E10.30998
G1 X1.395 Y29.355 E10.31251
G1 X1.395 Y27.806 E10.32817
G1 X-0.860 Y26.503 E10.35448
G1 X-0.860 Y23.465 E10.38518
G1 X1.395 Y22.163 E10.41150
G1 X1.395 Y19.124 E10.44220
G1 X-0.860 Y17.822 E10.46851
G1 X-0.860 Y17.229 E10.47450
G1 X-0.209 Y17.319 E10.48114
G1 X7.880 Y18.419 F7800.000
G1 X6.658 Y19.124 E10.49539 F1800.000
G1 X6.658 Y22.163 E10.52609
G1 X8.914 Y23.465 E10.55240
G1 X8.914 Y26.503 E10.58310
G1 X6.658 Y27.806 E10.60942
G1 X6.658 Y29.355 E10.62507
G1 X6.408 Y29.355 E10.62760
G1 X6.408 Y27.806 E10.64326
G1 X4.152 Y26.503 E10.66957
G1 X4.152 Y23.465 E10.70027
G1 X6.408 Y22.163 E10.72658
G1 X6.408 Y19.124 E10.75728
G1 X4.357 Y17.940 E10.78121
G1 X7.880 Y18.419 E10.81712
G1 X11.937 Y18.970 F7800.000
G1 X11.671 Y19.124 E10.82023 F1800.000
G1 X11.671 Y22.163 E10.85093
G1 X13.926 Y23.465 E10.87724
G1 X13.926 Y26.503 E10.90794
G1 X11.671 Y27.806 E10.93426
G1 X11.671 Y29.355 E10.94991
G1 X11.420 Y29.355 E10.95244
G1 X11.420 Y27.806 E10.96810
G1 X9.164 Y26.503 E10.99441
G1 X9.164 Y23.465 E11.02511
G1 X11.420 Y22.163 E11.05143
G1 X11.420 Y19.124 E11.08213
G1 X10.913 Y18.831 E11.08804
G1 X11.937 Y18.970 E11.09848
G1 X16.683 Y19.595 F7800.000
G1 X16.683 Y22.163 E11.12442 F1800.000
G1 X18.939 Y23.465 E11.15074
G1 X18.939 Y26.503 E11.18144
G1 X16.683 Y27.806 E11.20775
G1 X16.683 Y29.355 E11.22340
G1 X16.432 Y29.355 E11.22594
G1 X16.432 Y27.806 E11.24159
G1 X14.177 Y26.503 E11.26790
G1 X14.177 Y23.465 E11.29860
G1 X16.432 Y22.163 E11.32492
G1 X16.432 Y19.562 E11.35119
G1 X16.683 Y19.595 E11.35374
G1 X21.695 Y20.252 F7800.000
G1 X21.695 Y22.163 E11.37304 F1800.000
G1 X23.951 Y23.465 E11.39936
G1 X23.951 Y26.503 E11.43006
G1 X21.695 Y27.806 E11.45637
G1 X21.695 Y29.355 E11.47203
G1 X21.445 Y29.355 E11.47456
G1 X21.445 Y27.806 E11.49021
G1 X19.189 Y26.503 E11.51653
G1 X19.189 Y23.465 E11.54723
G1 X21.445 Y22.163 E11.57354
G1 X21.445 Y20.221 E11.59316
G1 X21.695 Y20.252 E11.59571
G1 X26.708 Y20.884 F7800.000
G1 X26.708 Y22.163 E11.60863 F1800.000
G1 X28.963 Y23.465 E11.63495
G1 X28.963 Y26.503 E11.66565
G1 X26.708 Y27.806 E11.69196
G1 X26.708 Y29.355 E11.70762
G1 X26.457 Y29.355 E11.71015
G1 X26.457 Y27.806 E11.72580
G1 X24.202 Y26.503 E11.75212
G1 X24.202 Y23.465 E11.78282
G1 X26.457 Y22.163 E11.80913
G1 X26.457 Y20.852 E11.82237
G1 X26.708 Y20.884 E11.82492
G1 X31.720 Y21.506 F7800.000
G1 X31.720 Y22.163 E11.83156 F1800.000
G1 X33.976 Y23.465 E11.85787
G1 X33.976 Y26.503 E11.88857
G1 X31.720 Y27.806 E11.91489
G1 X31.720 Y29.355 E11.93054
G1 X31.470 Y29.355 E11.93307
G1 X31.470 Y27.806 E11.94873
G1 X29.214 Y26.503 E11.97504
G1 X29.214 Y23.465 E12.00574
G1 X31.470 Y22.163 E12.03206
G1 X31.470 Y21.476 E12.03900
G1 X31.720 Y21.506 E12.04155
G1 X36.733 Y22.102 F7800.000
G1 X36.733 Y22.163 E12.04215 F1800.000
G1 X38.988 Y23.465 E12.06847
G1 X38.988 Y26.503 E12.09917
G1 X36.733 Y27.806 E12.12548
G1 X36.733 Y29.355 E12.14114
G1 X36.482 Y29.355 E12.14367
G1 X36.482 Y27.806 E12.15932
G1 X34.226 Y26.503 E12.18564
G1 X34.226 Y23.465 E12.21634
G1 X36.482 Y22.163 E12.24265
G1 X36.482 Y22.073 E12.24356
G1 X36.733 Y22.102 E12.24611
G1 X42.856 Y22.804 F7800.000
G1 X44.001 Y23.465 E12.25947 F1800.000
G1 X44.001 Y26.503 E12.29017
G1 X41.745 Y27.806 E12.31648
G1 X41.745 Y29.355 E12.33213
G1 X41.494 Y29.355 E12.33467
G1 X41.494 Y27.806 E12.35032
G1 X39.239 Y26.503 E12.37663
G1 X39.239 Y23.465 E12.40733
G1 X40.783 Y22.573 E12.42535
G1 X42.856 Y22.804 E12.44642
G1 X48.275 Y23.406 F7800.000
G1 X49.013 Y23.482 E12.45392 F1800.000
G1 X49.013 Y26.503 E12.48444
G1 X46.757 Y27.806 E12.51076
G1 X46.757 Y29.355 E12.52641
G1 X46.507 Y29.355 E12.52894
G1 X46.507 Y27.806 E12.54460
G1 X44.251 Y26.503 E12.57091
G1 X44.251 Y23.465 E12.60161
G1 X44.986 Y23.041 E12.61018
G1 X48.275 Y23.406 E12.64361
G1 X54.025 Y23.997 F7800.000
G1 X54.025 Y26.503 E12.66893 F1800.000
G1 X51.770 Y27.806 E12.69525
G1 X51.770 Y29.355 E12.71090
G1 X51.519 Y29.355 E12.71343
G1 X51.519 Y27.806 E12.72909
G1 X49.264 Y26.503 E12.75540
G1 X49.264 Y23.508 E12.78566
G1 X54.025 Y23.997 E12.83403
G1 X55.160 Y24.114 F7800.000
G1 X54.350 Y26.546 E12.85993 F1800.000
G1 X54.276 Y26.503 E12.86079
G1 X54.276 Y24.023 E12.88584
G1 X55.160 Y24.114 E12.89483
G1 X-11.136 Y15.803 F7800.000
G1 X-11.136 Y17.822 E12.91522 F1800.000
G1 X-13.391 Y19.124 E12.94153
G1 X-13.391 Y22.163 E12.97223
G1 X-11.136 Y23.465 E12.99855
G1 X-11.136 Y26.503 E13.02925
G1 X-13.391 Y27.806 E13.05556
G1 X-13.391 Y29.355 E13.07122
G1 X-13.642 Y29.355 E13.07375
G1 X-13.642 Y27.806 E13.08940
G1 X-15.898 Y26.503 E13.11572
G1 X-15.898 Y23.465 E13.14642
G1 X-13.642 Y22.163 E13.17273
G1 X-13.642 Y19.124 E13.20343
G1 X-15.898 Y17.822 E13.22974
G1 X-15.898 Y15.143 E13.25681
G1 X-11.136 Y15.803 E13.30538
G1 X-16.148 Y15.108 F7800.000
G1 X-16.148 Y17.822 E13.33280 F1800.000
G1 X-18.404 Y19.124 E13.35912
G1 X-18.404 Y22.163 E13.38982
G1 X-16.148 Y23.465 E13.41613
G1 X-16.148 Y26.503 E13.44683
G1 X-18.404 Y27.806 E13.47314
G1 X-18.404 Y29.355 E13.48880
G1 X-18.654 Y29.355 E13.49133
G1 X-18.654 Y27.806 E13.50698
G1 X-20.910 Y26.503 E13.53330
G1 X-20.910 Y23.465 E13.56400
G1 X-18.654 Y22.163 E13.59031
G1 X-18.654 Y19.124 E13.62101
G1 X-20.910 Y17.822 E13.64733
G1 X-20.910 Y14.783 E13.67803
G1 X-20.441 Y14.512 E13.68350
G1 X-16.148 Y15.108 E13.72728
G1 X-22.006 Y14.295 F7800.000
G1 X-21.161 Y14.783 E13.73715 F1800.000
G1 X-21.161 Y17.822 E13.76785
G1 X-23.416 Y19.124 E13.79416
G1 X-23.416 Y22.163 E13.82486
G1 X-21.161 Y23.465 E13.85118
G1 X-21.161 Y26.503 E13.88187
G1 X-23.416 Y27.806 E13.90819
G1 X-23.416 Y29.355 E13.92384
G1 X-23.667 Y29.355 E13.92638
G1 X-23.667 Y27.806 E13.94203
G1 X-25.922 Y26.503 E13.96834
G1 X-25.922 Y23.465 E13.99904
G1 X-23.667 Y22.163 E14.02536
G1 X-23.667 Y19.124 E14.05606
G1 X-25.922 Y17.822 E14.08237
G1 X-25.922 Y14.783 E14.11307
G1 X-24.482 Y13.952 E14.12988
G1 X-22.006 Y14.295 E14.15513
G1 X-28.429 Y13.404 F7800.000
G1 X-28.429 Y13.481 E14.15591 F1800.000
G1 X-26.173 Y14.783 E14.18222
G1 X-26.173 Y17.822 E14.21292
G1 X-28.429 Y19.124 E14.23924
G1 X-28.429 Y22.163 E14.26994
G1 X-26.173 Y23.465 E14.29625
G1 X-26.173 Y26.503 E14.32695
G1 X-28.429 Y27.806 E14.35326
G1 X-28.429 Y29.355 E14.36892
G1 X-28.679 Y29.355 E14.37145
G1 X-28.679 Y27.806 E14.38710
G1 X-30.935 Y26.503 E14.41342
G1 X-30.935 Y23.465 E14.44412
G1 X-28.679 Y22.163 E14.47043
G1 X-28.679 Y19.124 E14.50113
G1 X-30.935 Y17.822 E14.52745
G1 X-30.935 Y14.783 E14.55815
G1 X-28.679 Y13.481 E14.58446
G1 X-28.679 Y13.369 E14.58559
G1 X-28.429 Y13.404 E14.58815
G1 X-33.441 Y12.708 F7800.000
G1 X-33.441 Y13.481 E14.59595 F1800.000
G1 X-31.185 Y14.783 E14.62226
G1 X-31.185 Y17.822 E14.65296
G1 X-33.441 Y19.124 E14.67928
G1 X-33.441 Y22.163 E14.70998
G1 X-31.185 Y23.465 E14.73629
G1 X-31.185 Y26.503 E14.76699
G1 X-33.441 Y27.806 E14.79331
G1 X-33.441 Y29.355 E14.80896
G1 X-33.692 Y29.355 E14.81149
G1 X-33.692 Y27.806 E14.82715
G1 X-35.947 Y26.503 E14.85346
G1 X-35.947 Y23.465 E14.88416
G1 X-33.692 Y22.163 E14.91047
G1 X-33.692 Y19.124 E14.94117
G1 X-35.947 Y17.822 E14.96749
G1 X-35.947 Y14.783 E14.99819
G1 X-33.692 Y13.481 E15.02450
G1 X-33.692 Y12.674 E15.03266
G1 X-33.441 Y12.708 E15.03521
G1 X-38.453 Y12.013 F7800.000
G1 X-38.453 Y13.481 E15.05005 F1800.000
G1 X-36.198 Y14.783 E15.07636
G1 X-36.198 Y17.822 E15.10706
G1 X-38.453 Y19.124 E15.13337
G1 X-38.453 Y22.163 E15.16407
G1 X-36.198 Y23.465 E15.19039
G1 X-36.198 Y26.503 E15.22109
G1 X-38.453 Y27.806 E15.24740
G1 X-38.453 Y29.355 E15.26306
G1 X-38.704 Y29.355 E15.26559
G1 X-38.704 Y27.806 E15.28124
G1 X-40.959 Y26.503 E15.30756
G1 X-40.959 Y23.465 E15.33826
G1 X-38.704 Y22.163 E15.36457
G1 X-38.704 Y19.124 E15.39527
G1 X-40.959 Y17.822 E15.42158
G1 X-40.959 Y14.783 E15.45228
G1 X-38.704 Y13.481 E15.47860
G1 X-38.704 Y11.978 E15.49378
G1 X-38.453 Y12.013 E15.49634
G1 X-43.466 Y11.318 F7800.000
G1 X-43.466 Y13.481 E15.51819 F1800.000
G1 X-41.210 Y14.783 E15.54451
G1 X-41.210 Y17.822 E15.57521
G1 X-43.466 Y19.124 E15.60152
G1 X-43.466 Y22.163 E15.63222
G1 X-41.210 Y23.465 E15.65854
G1 X-41.210 Y26.503 E15.68924
G1 X-43.466 Y27.806 E15.71555
G1 X-43.466 Y29.355 E15.73120
G1 X-43.716 Y29.355 E15.73374
G1 X-43.716 Y27.806 E15.74939
G1 X-45.972 Y26.503 E15.77570
G1 X-45.972 Y23.465 E15.80640
G1 X-43.716 Y22.163 E15.83272
G1 X-43.716 Y19.124 E15.86342
G1 X-45.972 Y17.822 E15.88973
G1 X-45.972 Y14.783 E15.92043
G1 X-43.716 Y13.481 E15.94675
G1 X-43.716 Y11.283 E15.96895
G1 X-43.466 Y11.318 E15.97151
G1 X-48.478 Y10.624 F7800.000
G1 X-48.478 Y13.481 E16.00038 F1800.000
G1 X-46.222 Y14.783 E16.02669
G1 X-46.222 Y17.822 E16.05739
G1 X-48.478 Y19.124 E16.08370
G1 X-48.478 Y22.163 E16.11440
G1 X-46.222 Y23.465 E16.14072
G1 X-46.222 Y26.503 E16.17142
G1 X-48.478 Y27.806 E16.19773
G1 X-48.478 Y29.355 E16.21339
G1 X-48.729 Y29.355 E16.21592
G1 X-48.729 Y27.806 E16.23157
G1 X-50.984 Y26.503 E16.25789
G1 X-50.984 Y23.465 E16.28859
G1 X-48.729 Y22.163 E16.31490
G1 X-48.729 Y19.124 E16.34560
G1 X-50.984 Y17.822 E16.37191
G1 X-50.984 Y16.626 E16.38399
G1 X-50.223 Y14.344 E16.40830
G1 X-48.729 Y13.481 E16.42574
G1 X-48.729 Y10.590 E16.45495
G1 X-48.478 Y10.624 E16.45750
G1 X-51.235 Y17.822 F7800.000
G1 X-51.418 Y17.927 E16.45964 F1800.000
G1 X-51.235 Y17.378 E16.46549
G1 X-51.235 Y17.822 E16.46998
G1 X-51.235 Y23.465 F7800.000
G1 X-51.235 Y26.503 E16.50068 F1800.000
G1 X-53.490 Y27.806 E16.52699
G1 X-53.490 Y29.355 E16.54264
G1 X-53.741 Y29.355 E16.54518
G1 X-53.741 Y27.806 E16.56083
G1 X-54.554 Y27.336 E16.57032
G1 X-52.936 Y22.483 E16.62201
G1 X-51.235 Y23.465 E16.64186
G1 F6240
G1 X-52.936 Y22.483 E15.92398
G1 F6240
G1 X-53.959 Y25.552 E14.74186
G1 E14.64186 F2400.00000
G92 E0
G1 X-0.122 Y16.681 F7800.000
G1 X14.911 Y-2.162 F7800.000
G1 X21.606 Y-1.812 F7800.000
G1 X27.083 Y-1.529 F7800.000
G1 X27.893 Y-1.488 F7800.000
G1 X27.367 Y-23.188 F7800.000
G1 X53.549 Y-29.543 F7800.000
G1 E2.00000 F2400.00000
G1 X53.768 Y-28.886 E2.00700 F1800.000
G1 X55.324 Y-24.217 E2.05672 F1800.000
G1 X43.119 Y-23.994 E2.18006
G1 X30.511 Y-23.721 E2.30747
G1 X17.888 Y-23.404 E2.43504
G1 X2.137 Y-22.950 E2.59425
G1 X-10.457 Y-22.543 E2.72155
G1 X-25.950 Y-21.987 E2.87818
G1 X-38.241 Y-21.503 E3.00246
G1 X-52.602 Y-20.886 E3.14769
G1 X-55.488 Y-29.543 E3.23989
G1 X53.504 Y-29.543 E4.34106
G1 X53.504 Y-29.721 F7800.000
G1 X53.677 Y-29.721 E4.34281 F1800.000
G1 X53.937 Y-28.942 E4.35111
G1 X55.570 Y-24.042 E4.40329 F1800.000
G1 X43.122 Y-23.816 E4.52908
G1 X30.515 Y-23.542 E4.65648
G1 X17.893 Y-23.225 E4.78405
G1 X2.142 Y-22.772 E4.94325
G1 X-10.451 Y-22.365 E5.07054
G1 X-25.943 Y-21.809 E5.22717
G1 X-38.234 Y-21.324 E5.35144
G1 X-52.729 Y-20.701 E5.49802
G1 X-55.735 Y-29.721 E5.59409
G1 X53.459 Y-29.721 E6.69730
G1 X53.459 Y-29.900 F7800.000
G1 X53.806 Y-29.900 E6.70081 F1800.000
G1 X54.106 Y-28.999 E6.71041
G1 X55.817 Y-23.868 E6.76505 F1800.000
G1 X43.126 Y-23.637 E6.89329
G1 X30.519 Y-23.364 E7.02068
G1 X17.898 Y-23.047 E7.14825
G1 X2.148 Y-22.593 E7.30744
G1 X-10.444 Y-22.186 E7.43473
G1 X-25.936 Y-21.631 E7.59135
G1 X-38.226 Y-21.146 E7.71561
G1 X-52.856 Y-20.517 E7.86355
G1 X-55.983 Y-29.900 E7.96348
G1 X53.414 Y-29.900 E9.06874
G1 X53.609 Y-29.640 F7800.000
G1 X53.569 Y-28.889 F7800.000
G1 X54.025 Y-27.519 E9.08333 F1800.000
G1 X54.025 Y-25.587 E9.10286
G1 X51.868 Y-24.341 E9.12802
G1 X51.434 Y-24.334 E9.13241
G1 X49.264 Y-25.587 E9.15773
G1 X49.264 Y-28.625 E9.18843
G1 X50.527 Y-29.355 E9.20318
G1 X52.761 Y-29.355 E9.22575
G1 X53.569 Y-28.889 E9.23516
G1 X54.763 Y-25.305 F7800.000
G1 X54.276 Y-25.587 E9.24085 F1800.000
G1 X54.276 Y-26.767 E9.25277
G1 X54.763 Y-25.305 E9.26834
G1 X49.013 Y-28.625 F7800.000
G1 X49.013 Y-25.587 E9.29904 F1800.000
G1 X46.757 Y-24.285 E9.32535
G1 X46.757 Y-24.248 E9.32572
G1 X46.507 Y-24.244 E9.32825
G1 X46.507 Y-24.285 E9.32867
G1 X44.251 Y-25.587 E9.35498
G1 X44.251 Y-28.625 E9.38568
G1 X45.515 Y-29.355 E9.40042
G1 X47.749 Y-29.355 E9.42299
G1 X49.013 Y-28.625 E9.43774
G1 X44.001 Y-28.625 F7800.000
G1 X44.001 Y-25.587 E9.46844 F1800.000
G1 X41.745 Y-24.285 E9.49475
G1 X41.745 Y-24.152 E9.49609
G1 X41.494 Y-24.147 E9.49862
G1 X41.494 Y-24.285 E9.50002
G1 X39.239 Y-25.587 E9.52633
G1 X39.239 Y-28.625 E9.55703
G1 X40.503 Y-29.355 E9.57177
G1 X42.737 Y-29.355 E9.59434
G1 X44.001 Y-28.625 E9.60909
G1 X38.988 Y-28.625 F7800.000
G1 X38.988 Y-25.587 E9.63979 F1800.000
