; generated by Slic3r 1.2.9 on 2016-07-17 at 16:38:16

; external perimeters extrusion width = 0.40mm
; perimeters extrusion width = 0.67mm
; infill extrusion width = 0.67mm
; solid infill extrusion width = 0.67mm
; top infill extrusion width = 0.67mm

M107
M104 S215 ; set temperature
G28 ; home all axes
G1 Y-60 Z5 F5000 ; lift nozzle


M109 S215 ; wait for temperature to be reached
G21 ; set units to millimeters
G90 ; use absolute coordinates
M82 ; use absolute distances for extrusion
G92 E0
G1 E-3.00000 F2400.00000
G92 E0
G1 Z0.300 F6000.000
G1 X14.705 Y-0.492 F6000.000
G1 E3.00000 F2400.00000
G1 X15.371 Y9.938 E3.54603 F1800.000
G1 X16.019 Y20.720 E4.11034
G1 X16.648 Y31.825 E4.69146
G1 X17.224 Y42.667 E5.25871
G1 X16.924 Y44.513 E5.35638
G1 X15.888 Y46.068 E5.45405
G1 X13.538 Y47.255 E5.59158
G1 X-5.695 Y50.460 E6.61027
G1 X-7.148 Y50.460 E6.68618
G1 X-13.527 Y49.397 E7.02402
G1 X-15.264 Y48.707 E7.12169
G1 X-16.560 Y47.360 E7.21937
G1 X-17.184 Y45.597 E7.31704
G1 X-17.193 Y44.559 E7.37126
G1 X-7.429 Y-44.942 E12.07499
G1 X-6.838 Y-46.715 E12.17266
G1 X-5.566 Y-48.086 E12.27033
G1 X-3.763 Y-48.821 E12.37208
G1 X6.059 Y-50.458 E12.89227
G1 X7.926 Y-50.368 E12.98994
G1 X9.589 Y-49.514 E13.08762
G1 X10.750 Y-48.049 E13.18529
G1 X11.186 Y-46.498 E13.26946
G1 X12.087 Y-36.050 E13.81737
G1 X12.802 Y-27.160 E14.28330
G1 X13.507 Y-17.824 E14.77245
G1 X14.026 Y-10.541 E15.15394
G1 X14.701 Y-0.552 E15.67699
G1 F4800
G1 X15.083 Y5.436 E12.82699
G1 E12.67699 F2400.00000
G92 E0
G1 X1.757 Y8.181 F6000.000
G1 E3.00000 F2400.00000
G1 X2.517 Y8.307 E3.04021 F1800.000
G1 X3.300 Y8.628 E3.08442
G1 X4.166 Y9.256 E3.14032
G1 X4.974 Y10.214 E3.20583
G1 X5.643 Y11.525 E3.28269
G1 X6.043 Y13.017 E3.36339
G1 X6.156 Y14.594 E3.44601
G1 X5.977 Y16.157 E3.52821
G1 X5.580 Y17.458 E3.59928
G1 X5.139 Y18.348 E3.65117
G1 X4.591 Y19.123 E3.70076
G1 X3.943 Y19.764 E3.74837
G1 X3.210 Y20.247 E3.79422
G1 X2.412 Y20.549 E3.83880
G1 X1.593 Y20.651 E3.88196
G1 X1.074 Y20.612 E3.90912
G1 X0.564 Y20.498 E3.93643
G1 X-0.230 Y20.151 E3.98171
G1 X-1.020 Y19.562 E4.03318
G1 X-1.831 Y18.593 E4.09921
G1 X-2.447 Y17.400 E4.16935
G1 X-2.841 Y16.054 E4.24260
G1 X-2.998 Y14.625 E4.31770
G1 X-2.912 Y13.186 E4.39305
G1 X-2.587 Y11.811 E4.46683
G1 X-2.107 Y10.699 E4.53013
G1 X-1.608 Y9.928 E4.57814
G1 X-1.077 Y9.323 E4.62015
G1 X-0.445 Y8.812 E4.66266
G1 X0.255 Y8.439 E4.70404
G1 X1.029 Y8.225 E4.74601
G1 X1.698 Y8.185 E4.78102
G1 X1.738 Y8.560 F6000.000
G1 X2.413 Y8.672 E4.80968 F1800.000
G1 X3.115 Y8.960 E4.84143
G1 X3.907 Y9.534 E4.88240
G1 X4.658 Y10.424 E4.93115
G1 X5.288 Y11.661 E4.98925
G1 X5.669 Y13.080 E5.05075
G1 X5.778 Y14.586 E5.11396
G1 X5.606 Y16.080 E5.17691
G1 X5.228 Y17.318 E5.23111
G1 X4.814 Y18.154 E5.27017
G1 X4.302 Y18.878 E5.30728
G1 X3.704 Y19.470 E5.34248
G1 X3.038 Y19.909 E5.37591
G1 X2.321 Y20.180 E5.40797
G1 X1.583 Y20.272 E5.43909
G1 X1.130 Y20.238 E5.45814
G1 X0.682 Y20.137 E5.47735
G1 X-0.039 Y19.823 E5.51029
G1 X-0.759 Y19.286 E5.54787
G1 X-1.515 Y18.382 E5.59718
G1 X-2.096 Y17.259 E5.65012
G1 X-2.470 Y15.980 E5.70589
G1 X-2.620 Y14.616 E5.76334
G1 X-2.538 Y13.241 E5.82101
G1 X-2.228 Y11.931 E5.87738
G1 X-1.773 Y10.878 E5.92539
G1 X-1.306 Y10.156 E5.96138
G1 X-0.815 Y9.596 E5.99253
G1 X-0.235 Y9.128 E6.02373
G1 X0.395 Y8.792 E6.05365
G1 X1.091 Y8.599 E6.08387
G1 X1.678 Y8.564 E6.10847
G1 X1.968 Y8.233 F6000.000
G1 F4800
G1 X2.413 Y8.672 E5.75544
G1 F4800
G1 X3.115 Y8.960 E5.39512
G1 F4800
G1 X3.907 Y9.534 E4.93028
G1 F4800
G1 X4.658 Y10.424 E4.37710
G1 F4800
G1 X5.288 Y11.661 E3.71775
G1 F4800
G1 X5.539 Y12.595 E3.25847
G1 E3.10847 F2400.00000
G92 E0
G1 X3.404 Y20.626 F6000.000
G1 X3.445 Y28.484 F6000.000
G1 X0.837 Y31.391 F6000.000
G1 X0.564 Y32.709 F6000.000
G1 X11.237 Y32.124 F6000.000
G1 X12.207 Y42.412 F6000.000
G1 E3.00000 F2400.00000
G1 X-6.422 Y45.516 E3.98670 F1800.000
G1 X-12.157 Y44.561 E4.29047
G1 X-10.516 Y31.768 E4.96429
G1 X-9.085 Y20.180 E5.57430
G1 X-7.426 Y6.097 E6.31515
G1 X-6.212 Y-4.798 E6.88786
G1 X-5.105 Y-15.317 E7.44050
G1 X-4.111 Y-25.425 E7.97113
G1 X-3.233 Y-35.083 E8.47778
G1 X-2.498 Y-43.967 E8.94352
G1 X6.264 Y-45.425 E9.40756
G1 X7.109 Y-35.634 E9.92102
G1 X7.821 Y-26.769 E10.38563
G1 X8.524 Y-17.458 E10.87350
G1 X9.383 Y-5.228 E11.51401
G1 X10.220 Y7.612 E12.18627
G1 X10.872 Y18.291 E12.74520
G1 X11.505 Y29.300 E13.32132
G1 X12.204 Y42.352 E14.00420
G1 X12.602 Y42.728 F6000.000
G1 X-6.422 Y45.899 E14.81152 F1800.000
G1 X-12.577 Y44.873 E15.07276
G1 X-10.891 Y31.721 E15.62782
G1 X-9.460 Y20.135 E16.11649
G1 X-7.801 Y6.054 E16.70999
G1 X-6.587 Y-4.838 E17.16877
G1 X-5.481 Y-15.356 E17.61146
G1 X-4.487 Y-25.461 E18.03650
G1 X-3.609 Y-35.116 E18.44233
G1 X-2.850 Y-44.291 E18.82772
G1 X6.604 Y-45.864 E19.22892
G1 X7.485 Y-35.665 E19.65746
G1 X8.197 Y-26.799 E20.02980
G1 X8.900 Y-17.485 E20.42078
G1 X9.759 Y-5.254 E20.93405
G1 X10.596 Y7.588 E21.47276
G1 X11.248 Y18.268 E21.92065
G1 X11.881 Y29.279 E22.38232
G1 X12.599 Y42.668 E22.94362
G1 X12.233 Y42.574 F6000.000
G1 X11.725 Y42.025 F6000.000
G1 X11.677 Y41.128 E22.99054 F1800.000
G1 X10.591 Y42.214 E23.07077
G1 X11.725 Y42.025 E23.13083
G1 X11.131 Y30.936 F6000.000
G1 X5.584 Y29.449 E23.43084 F1800.000
G1 X0.197 Y34.836 E23.82884
G1 X1.887 Y41.143 E24.16998
G1 X-1.138 Y44.169 E24.39350
G1 X-0.072 Y43.991 E24.44998
G1 X2.332 Y41.588 E24.62755
G1 X6.940 Y42.822 E24.87679
G1 X9.525 Y42.392 E25.01372
G1 X11.632 Y40.285 E25.16939
G1 X11.131 Y30.936 E25.65853
G1 X9.760 Y7.641 F6000.000
G1 X9.751 Y7.511 E25.66536 F1800.000
G1 X6.702 Y10.560 E25.89063
G1 X8.392 Y16.867 E26.23177
G1 X3.006 Y22.254 E26.62977
G1 X-3.302 Y20.564 E26.97091
G1 X-8.688 Y25.950 E27.36891
G1 X-6.998 Y32.258 E27.71006
G1 X-10.573 Y35.832 E27.97418
G1 X-10.704 Y36.852 E28.02786
G1 X-6.554 Y32.702 E28.33447
G1 X-0.247 Y34.392 E28.67561
G1 X5.140 Y29.005 E29.07361
G1 X3.450 Y22.698 E29.41475
G1 X8.837 Y17.311 E29.81275
G1 X10.376 Y17.724 E29.89599
G1 X9.760 Y7.641 E30.42372
G1 X9.123 Y-2.126 F6000.000
G1 X3.203 Y-3.713 E30.74392 F1800.000
G1 X-2.183 Y1.674 E31.14192
G1 X-0.493 Y7.981 E31.48306
G1 X-5.880 Y13.368 E31.88106
G1 X-7.760 Y12.864 E31.98271
G1 X-8.628 Y20.235 E32.37046
G1 X-9.274 Y25.468 E32.64594
G1 X-9.133 Y25.506 E32.65360
G1 X-3.746 Y20.119 E33.05160
G1 X-5.436 Y13.812 E33.39274
G1 X-2.826 Y11.202 E33.58558
G1 X-2.515 Y10.481 E33.62662
G1 X-1.976 Y9.649 E33.67839
G1 X-1.398 Y8.990 E33.72422
G1 X-0.700 Y8.426 E33.77109
G1 X0.083 Y8.009 E33.81741
G1 X0.952 Y7.768 E33.86458
G1 X1.782 Y7.718 E33.90798
G1 X2.643 Y7.861 E33.95361
G1 X3.526 Y8.222 E34.00342
G1 X4.482 Y8.916 E34.06513
G1 X5.271 Y9.851 E34.12907
G1 X6.258 Y10.116 E34.18246
G1 X9.697 Y6.677 E34.43654
G1 X9.123 Y-2.126 E34.89743
G1 X8.065 Y-17.424 F6000.000
G1 X7.439 Y-25.719 E35.33206 F1800.000
G1 X4.321 Y-22.602 E35.56237
G1 X6.011 Y-16.295 E35.90351
G1 X0.625 Y-10.908 E36.30151
G1 X-4.949 Y-12.402 E36.60296
G1 X-5.754 Y-4.748 E37.00505
G1 X-6.310 Y0.243 E37.26741
G1 X-2.628 Y1.230 E37.46659
G1 X2.759 Y-4.157 E37.86459
G1 X1.069 Y-10.464 E38.20573
G1 X6.456 Y-15.851 E38.60373
G1 X8.208 Y-15.381 E38.69850
G1 X8.065 Y-17.424 E38.80549
G1 X6.673 Y-35.307 F6000.000
G1 X0.822 Y-36.875 E39.12192 F1800.000
G1 X-2.950 Y-33.102 E39.40065
G1 X-3.469 Y-27.399 E39.69984
G1 X-2.874 Y-25.181 E39.81982
G1 X-3.759 Y-24.296 E39.88519
G1 X-3.856 Y-23.311 E39.93692
G1 X-2.430 Y-24.737 E40.04228
G1 X3.877 Y-23.047 E40.38342
G1 X7.376 Y-26.546 E40.64195
G1 X6.673 Y-35.307 E41.10117
G1 X-1.312 Y-43.626 F6000.000
G1 X-1.227 Y-43.711 E41.10746 F1800.000
G1 X-2.068 Y-43.571 E41.15203
G1 X-2.861 Y-34.080 E41.64965
G1 X0.378 Y-37.319 E41.88899
G1 X-1.312 Y-43.626 E42.23013
G1 X-10.251 Y44.396 F6000.000
G1 X-11.211 Y40.810 E42.42405 F1800.000
G1 X-11.643 Y44.179 E42.60148
G1 X-10.264 Y44.409 E42.67455
G1 X-10.251 Y44.396 E42.67552
M106 S188.7
G1 F4800
G1 X-10.264 Y44.409 E42.66670
G1 F4800
G1 X-11.643 Y44.179 E42.00238
G1 F4800
G1 X-11.211 Y40.810 E40.38923
G1 F4800
G1 X-10.904 Y41.957 E39.82552
G1 E39.67552 F2400.00000
G92 E0
G1 Z0.500 F6000.000
G1 X3.263 Y20.601 F6000.000
G1 E3.00000 F2400.00000
G1 X2.440 Y20.912 E3.04597 F1800.000
G1 X1.595 Y21.017 E3.09045
G1 X1.057 Y20.977 E3.11865
G1 X0.528 Y20.858 E3.14698
G1 X-0.288 Y20.501 E3.19353
G1 X-1.100 Y19.896 E3.24640
G1 X-1.928 Y18.907 E3.31380
G1 X-2.555 Y17.693 E3.38519
G1 X-2.955 Y16.327 E3.45955
G1 X-3.114 Y14.878 E3.53570
G1 X-3.027 Y13.419 E3.61208
G1 X-2.697 Y12.025 E3.68691
G1 X-2.210 Y10.897 E3.75112
G1 X-1.726 Y10.138 E3.79814
G1 X-1.158 Y9.490 E3.84318
G1 X-0.509 Y8.965 E3.88679
G1 X0.208 Y8.583 E3.92922
G1 X0.974 Y8.362 E3.97087
G1 X1.764 Y8.315 E4.01218
G1 X2.548 Y8.445 E4.05374
G1 X3.356 Y8.776 E4.09936
G1 X4.245 Y9.421 E4.15671
G1 X5.071 Y10.400 E4.22366
G1 X5.751 Y11.733 E4.30185
G1 X6.157 Y13.248 E4.38376
G1 X6.272 Y14.847 E4.46751
G1 X6.091 Y16.431 E4.55082
G1 X5.688 Y17.751 E4.62294
G1 X5.238 Y18.658 E4.67580
G1 X4.679 Y19.448 E4.72639
G1 X4.016 Y20.104 E4.77512
G1 X3.313 Y20.568 E4.81911
G1 X3.038 Y20.159 F6000.000
G1 X2.321 Y20.430 E4.84186 F1800.000
G1 X1.583 Y20.522 E4.86393
G1 X1.130 Y20.488 E4.87744
G1 X0.682 Y20.387 E4.89106
G1 X-0.039 Y20.073 E4.91443
G1 X-0.759 Y19.536 E4.94108
G1 X-1.515 Y18.632 E4.97606
G1 X-2.096 Y17.509 E5.01361
G1 X-2.470 Y16.230 E5.05317
G1 X-2.620 Y14.866 E5.09392
G1 X-2.538 Y13.491 E5.13482
G1 X-2.228 Y12.181 E5.17480
G1 X-1.773 Y11.128 E5.20883
G1 X-1.331 Y10.434 E5.23326
G1 X-0.815 Y9.846 E5.25649
G1 X-0.235 Y9.378 E5.27862
G1 X0.394 Y9.042 E5.29981
G1 X1.058 Y8.851 E5.32032
G1 X1.738 Y8.810 E5.34053
G1 X2.413 Y8.922 E5.36086
G1 X3.115 Y9.210 E5.38338
G1 X3.907 Y9.784 E5.41244
G1 X4.658 Y10.674 E5.44701
G1 X5.288 Y11.911 E5.48823
G1 X5.669 Y13.330 E5.53185
G1 X5.778 Y14.836 E5.57668
G1 X5.606 Y16.330 E5.62133
G1 X5.228 Y17.568 E5.65978
G1 X4.814 Y18.404 E5.68748
G1 X4.302 Y19.128 E5.71380
G1 X3.704 Y19.720 E5.73877
G1 X3.088 Y20.126 E5.76070
G1 X3.002 Y20.558 F6000.000
G1 X12.074 Y42.317 F6000.000
G1 X-6.422 Y45.399 E6.74031 F1200.000
G1 X-11.996 Y44.470 E7.03558
G1 X-10.402 Y32.032 E7.69072
G1 X-8.971 Y20.444 E8.30076
G1 X-7.312 Y6.360 E9.04164
G1 X-6.097 Y-4.535 E9.61439
G1 X-4.990 Y-15.056 E10.16707
G1 X-3.996 Y-25.164 E10.69774
G1 X-3.118 Y-34.823 E11.20444
G1 X-2.371 Y-43.871 E11.67878
G1 X6.138 Y-45.289 E12.12944
G1 X6.994 Y-35.374 E12.64939
G1 X7.706 Y-26.510 E13.11397
G1 X8.409 Y-17.199 E13.60181
G1 X9.268 Y-4.970 E14.24228
G1 X10.104 Y7.870 E14.91452
G1 X10.757 Y18.547 E15.47342
G1 X11.389 Y29.556 E16.04953
G1 X12.071 Y42.257 E16.71403
G1 X12.589 Y42.730 F6000.000
G1 X-6.422 Y45.899 E17.28627 F600.000
G1 X-12.545 Y44.878 E17.47060
G1 X-10.891 Y31.971 E17.85698
G1 X-9.460 Y20.385 E18.20359
G1 X-7.801 Y6.304 E18.62456
G1 X-6.587 Y-4.588 E18.94997
G1 X-5.481 Y-15.106 E19.26397
G1 X-4.487 Y-25.211 E19.56545
G1 X-3.609 Y-34.866 E19.85330
G1 X-2.830 Y-44.294 E20.13420
G1 X6.583 Y-45.863 E20.41754
G1 X7.485 Y-35.415 E20.72891
G1 X8.197 Y-26.549 E20.99301
G1 X8.900 Y-17.235 E21.27033
G1 X9.759 Y-5.004 E21.63439
G1 X10.596 Y7.838 E22.01650
G1 X11.248 Y18.518 E22.33418
G1 X11.881 Y29.529 E22.66164
G1 X12.586 Y42.670 E23.05239
G1 X12.220 Y42.576 F6000.000
G1 X11.515 Y41.869 F6000.000
G1 X11.463 Y40.898 E23.10317 F3000.000
G1 X10.288 Y42.073 E23.18999
G1 X11.515 Y41.869 E23.25498
G1 X-7.161 Y32.865 F6000.000
G1 X-9.081 Y25.697 E23.64264 F3000.000
G1 X-10.383 Y36.087 E24.18968
G1 X-7.161 Y32.865 E24.42775
G1 X-9.960 Y44.268 F6000.000
G1 X-10.955 Y40.552 E24.62877 F3000.000
G1 X-11.166 Y42.194 E24.71526
G1 X-10.641 Y44.155 E24.82133
G1 X-9.960 Y44.268 E24.85739
G1 X-2.628 Y1.230 F6000.000
G1 X-6.099 Y0.300 E25.04513 F3000.000
G1 X-6.781 Y6.421 E25.36692
G1 X-7.547 Y12.921 E25.70887
G1 X-5.880 Y13.368 E25.79902
G1 X-3.908 Y20.726 E26.19702
G1 X-8.526 Y25.344 E26.53816
G1 X-6.554 Y32.702 E26.93616
G1 X-0.247 Y34.392 E27.27730
G1 X1.725 Y41.750 E27.67530
G1 X-0.375 Y43.850 E27.83045
G1 X6.500 Y42.704 E28.19457
G1 X2.332 Y41.588 E28.42000
G1 X0.360 Y34.229 E28.81800
G1 X4.977 Y29.612 E29.15914
G1 X3.006 Y22.254 E29.55714
G1 X-3.302 Y20.564 E29.89828
G1 X-5.273 Y13.205 E30.29628
G1 X-2.630 Y10.562 E30.49158
G1 X-2.155 Y9.816 E30.53779
G1 X-1.529 Y9.103 E30.58736
G1 X-0.805 Y8.518 E30.63601
G1 X-0.691 Y8.457 E30.64273
G1 X-2.628 Y1.230 E31.03365
G1 X7.876 Y-17.160 F6000.000
G1 X7.214 Y-25.939 E31.49359 F3000.000
G1 X4.484 Y-23.209 E31.69528
G1 X6.456 Y-15.851 E32.09328
G1 X7.997 Y-15.438 E32.17666
G1 X7.876 Y-17.160 E32.26688
G1 X-2.430 Y-24.737 F6000.000
G1 X-3.228 Y-27.714 E32.42792 F3000.000
G1 X-3.393 Y-25.901 E32.52301
G1 X-3.037 Y-24.574 E32.59481
G1 X-3.570 Y-24.041 E32.63418
G1 X-4.459 Y-15.002 E33.10873
G1 X-4.739 Y-12.345 E33.24826
G1 X0.625 Y-10.908 E33.53835
G1 X2.596 Y-3.550 E33.93635
G1 X-2.021 Y1.067 E34.27749
G1 X-0.122 Y8.154 E34.66080
G1 X0.007 Y8.086 E34.66840
G1 X0.883 Y7.833 E34.71607
G1 X1.792 Y7.778 E34.76362
G1 X2.695 Y7.928 E34.81147
G1 X3.618 Y8.306 E34.86358
G1 X4.611 Y9.026 E34.92768
G1 X5.317 Y9.864 E34.98490
G1 X6.258 Y10.116 E35.03577
G1 X8.230 Y17.474 E35.43377
G1 X3.613 Y22.091 E35.77491
G1 X5.584 Y29.449 E36.17291
G1 X10.925 Y30.881 E36.46181
G1 X10.168 Y17.668 E37.15324
G1 X8.837 Y17.311 E37.22524
G1 X6.865 Y9.953 E37.62324
G1 X9.531 Y7.287 E37.82024
G1 X8.914 Y-2.182 E38.31600
G1 X3.203 Y-3.713 E38.62489
G1 X1.232 Y-11.071 E39.02288
G1 X5.849 Y-15.688 E39.36403
G1 X3.877 Y-23.047 E39.76203
G1 X-2.430 Y-24.737 E40.10317
G1 X0.215 Y-36.712 F6000.000
G1 X-1.593 Y-43.460 E40.46812 F3000.000
G1 X-1.873 Y-43.413 E40.48295
G1 X-2.672 Y-33.825 E40.98563
G1 X0.215 Y-36.712 E41.19898
G1 X6.458 Y-35.365 F6000.000
G1 X5.656 Y-44.668 E41.68682 F3000.000
G1 X-0.970 Y-43.563 E42.03774
G1 X0.822 Y-36.875 E42.39951
G1 X6.458 Y-35.365 E42.70435
M106 S193.8
G1 F4800
G1 X0.822 Y-36.875 E39.93281
G1 F4800
G1 X0.780 Y-37.034 E39.85435
G1 E39.70435 F2400.00000
G92 E0
G1 Z0.700 F6000.000
G1 X3.263 Y20.801 F6000.000
G1 E3.00000 F2400.00000
G1 X2.440 Y21.112 E3.04597 F1800.000
G1 X1.595 Y21.217 E3.09045
G1 X1.057 Y21.177 E3.11865
G1 X0.528 Y21.058 E3.14698
G1 X-0.288 Y20.701 E3.19353
G1 X-1.100 Y20.096 E3.24640
G1 X-1.928 Y19.107 E3.31380
G1 X-2.555 Y17.893 E3.38519
G1 X-2.955 Y16.527 E3.45955
G1 X-3.114 Y15.078 E3.53570
G1 X-3.027 Y13.619 E3.61208
G1 X-2.697 Y12.225 E3.68691
G1 X-2.210 Y11.097 E3.75112
G1 X-1.726 Y10.338 E3.79814
G1 X-1.158 Y9.690 E3.84318
G1 X-0.509 Y9.165 E3.88679
G1 X0.208 Y8.783 E3.92922
G1 X0.974 Y8.562 E3.97087
G1 X1.764 Y8.515 E4.01218
G1 X2.548 Y8.645 E4.05374
G1 X3.356 Y8.976 E4.09936
G1 X4.245 Y9.621 E4.15671
G1 X5.071 Y10.600 E4.22366
G1 X5.751 Y11.933 E4.30185
G1 X6.157 Y13.448 E4.38376
G1 X6.272 Y15.047 E4.46751
G1 X6.091 Y16.631 E4.55082
G1 X5.688 Y17.951 E4.62294
G1 X5.238 Y18.858 E4.67580
G1 X4.679 Y19.648 E4.72639
G1 X4.016 Y20.304 E4.77512
G1 X3.313 Y20.768 E4.81911
G1 X3.038 Y20.359 F6000.000
G1 X2.321 Y20.630 E4.84186 F1800.000
G1 X1.583 Y20.722 E4.86393
G1 X1.130 Y20.688 E4.87744
G1 X0.682 Y20.587 E4.89106
G1 X-0.039 Y20.273 E4.91443
G1 X-0.759 Y19.736 E4.94108
G1 X-1.515 Y18.832 E4.97606
G1 X-2.096 Y17.709 E5.01361
G1 X-2.470 Y16.430 E5.05317
G1 X-2.620 Y15.066 E5.09392
G1 X-2.538 Y13.691 E5.13482
G1 X-2.228 Y12.381 E5.17480
G1 X-1.773 Y11.328 E5.20883
G1 X-1.331 Y10.634 E5.23326
G1 X-0.815 Y10.046 E5.25649
G1 X-0.235 Y9.578 E5.27862
G1 X0.394 Y9.242 E5.29981
G1 X1.058 Y9.051 E5.32032
G1 X1.738 Y9.010 E5.34053
G1 X2.413 Y9.122 E5.36086
G1 X3.115 Y9.410 E5.38338
G1 X3.907 Y9.984 E5.41244
G1 X4.658 Y10.874 E5.44701
G1 X5.288 Y12.111 E5.48823
G1 X5.669 Y13.530 E5.53185
G1 X5.778 Y15.036 E5.57668
G1 X5.606 Y16.530 E5.62133
G1 X5.228 Y17.768 E5.65978
G1 X4.814 Y18.604 E5.68748
G1 X4.302 Y19.328 E5.71380
G1 X3.704 Y19.920 E5.73877
G1 X3.088 Y20.326 E5.76070
G1 X3.002 Y20.758 F6000.000
G1 X12.063 Y42.319 F6000.000
G1 X-6.422 Y45.399 E6.73977 F1200.000
G1 X-11.971 Y44.475 E7.03368
G1 X-10.402 Y32.232 E7.67851
G1 X-8.971 Y20.644 E8.28855
G1 X-7.312 Y6.560 E9.02943
G1 X-6.097 Y-4.335 E9.60218
G1 X-4.990 Y-14.856 E10.15486
G1 X-3.996 Y-24.964 E10.68553
G1 X-3.118 Y-34.623 E11.19224
G1 X-2.355 Y-43.874 E11.67719
G1 X6.121 Y-45.287 E12.12611
G1 X6.994 Y-35.174 E12.65640
