; generated by Slic3r 1.2.9 on 2016-07-17 at 16:38:54

; external perimeters extrusion width = 0.40mm
; perimeters extrusion width = 0.67mm
; infill extrusion width = 0.67mm
; solid infill extrusion width = 0.67mm
; top infill extrusion width = 0.67mm

M107
M104 S215 ; set temperature
G28 ; home all axes
G1 Y-60 Z5 F5000 ; lift nozzle


M109 S215 ; wait for temperature to be reached
G21 ; set units to millimeters
G90 ; use absolute coordinates
M82 ; use absolute distances for extrusion
G92 E0
G1 E-3.00000 F2400.00000
G92 E0
G1 Z0.300 F6000.000
G1 X6.380 Y-0.372 F6000.000
G1 E3.00000 F2400.00000
G1 X7.119 Y5.834 E3.32654 F6000.000
G1 X7.854 Y12.590 E3.68158
G1 X8.585 Y19.881 E4.06438
G1 X9.311 Y27.681 E4.47367
G1 X9.082 Y29.537 E4.57134
G1 X8.106 Y31.131 E4.66902
G1 X6.558 Y32.180 E4.76669
G1 X5.636 Y32.439 E4.81673
G1 X-4.185 Y34.076 E5.33690
G1 X-6.052 Y33.986 E5.43458
G1 X-7.715 Y33.132 E5.53225
G1 X-8.877 Y31.667 E5.62992
G1 X-9.328 Y29.597 E5.74064
G1 X-7.713 Y-29.707 E8.84010
G1 X-7.261 Y-31.521 E8.93777
G1 X-6.099 Y-32.986 E9.03545
G1 X-4.435 Y-33.839 E9.13312
G1 X-2.568 Y-33.927 E9.23079
G1 X-0.831 Y-33.236 E9.32847
G1 X0.465 Y-31.888 E9.42614
G1 X1.033 Y-30.455 E9.50668
G1 X3.626 Y-17.758 E10.18371
G1 X4.428 Y-13.483 E10.41095
G1 X5.030 Y-9.916 E10.59994
G1 X5.429 Y-7.339 E10.73621
G1 X5.816 Y-4.648 E10.87826
G1 X6.372 Y-0.431 E11.10043
G1 F4800
G1 X7.083 Y5.526 E8.25043
G1 E8.10043 F2400.00000
G92 E0
G1 X-2.112 Y-20.845 F6000.000
G1 E3.00000 F2400.00000
G1 X-1.656 Y-18.671 E3.11604 F6000.000
G1 X-0.883 Y-14.756 E3.32452
G1 X-0.096 Y-10.308 E3.56052
G1 X0.293 Y-7.881 E3.68897
G1 X0.677 Y-5.310 E3.82474
G1 X1.053 Y-2.598 E3.96783
G1 X1.608 Y1.743 E4.19643
G1 X1.973 Y4.814 E4.35800
G1 X2.521 Y9.688 E4.61428
G1 X3.431 Y18.502 E5.07721
G1 X4.285 Y27.599 E5.55456
G1 X-4.281 Y29.027 E6.00828
G1 X-3.711 Y21.290 E6.41356
G1 X-3.437 Y17.179 E6.62886
G1 X-3.082 Y11.284 E6.93739
G1 X-2.711 Y3.955 E7.32078
G1 X-2.569 Y0.526 E7.50006
G1 X-2.410 Y-4.303 E7.75248
G1 X-2.338 Y-7.309 E7.90961
G1 X-2.277 Y-11.485 E8.12777
G1 X-2.264 Y-14.042 E8.26140
G1 X-2.282 Y-17.526 E8.44339
G1 X-2.340 Y-20.818 E8.61541
G1 X-2.172 Y-20.838 E8.62429
G1 X-2.660 Y-25.293 F6000.000
G1 X-1.286 Y-18.746 E8.90429 F6000.000
G1 X-0.512 Y-14.826 E9.07158
G1 X0.276 Y-10.371 E9.26095
G1 X0.666 Y-7.938 E9.36408
G1 X1.050 Y-5.364 E9.47303
G1 X1.427 Y-2.647 E9.58784
G1 X1.982 Y1.697 E9.77116
G1 X2.348 Y4.770 E9.90074
G1 X2.896 Y9.648 E10.10620
G1 X3.806 Y18.465 E10.47725
G1 X4.693 Y27.913 E10.87450
G1 X-4.693 Y29.478 E11.27283
G1 X-4.087 Y21.264 E11.61760
G1 X-3.813 Y17.155 E11.79000
G1 X-3.458 Y11.263 E12.03707
G1 X-3.088 Y3.938 E12.34411
G1 X-2.946 Y0.512 E12.48762
G1 X-2.787 Y-4.313 E12.68973
G1 X-2.716 Y-7.317 E12.81548
G1 X-2.654 Y-11.488 E12.99013
G1 X-2.642 Y-14.042 E13.09704
G1 X-2.659 Y-17.522 E13.24268
G1 X-2.711 Y-20.572 E13.37039
G1 X-2.810 Y-23.957 E13.51217
G1 X-2.867 Y-25.267 E13.56702
G1 X-2.719 Y-25.285 E13.57324
G1 X-2.795 Y-24.916 F6000.000
G1 X-2.788 Y-25.478 F6000.000
G1 X-3.120 Y-28.129 E13.71284 F6000.000
G1 X-2.614 Y-24.091 F6000.000
G1 X-2.454 Y-22.749 E13.78344 F6000.000
G1 X-2.454 Y-22.749 F6000.000
G1 X-2.248 Y-21.019 E13.97950 F6000.000
G1 X-2.096 Y-19.684 F6000.000
G1 X-1.956 Y-18.426 E14.04559 F6000.000
G1 X-1.764 Y-16.574 E14.25515 F6000.000
G1 X0.481 Y-3.369 F6000.000
G1 X0.079 Y-2.967 E14.28481 F6000.000
G1 X0.962 Y0.328 E14.46302
G1 X1.380 Y3.729 E14.64208
G1 X-2.431 Y7.541 E14.92367
G1 X-2.251 Y3.976 E15.11015
G1 X-2.109 Y0.543 E15.28964
G1 X-1.965 Y-3.840 E15.51877
G1 X-0.365 Y-3.411 E15.60530
G1 X0.373 Y-4.149 E15.65980
G1 X0.481 Y-3.369 E15.70096
G1 X1.516 Y4.867 F6000.000
G1 X2.063 Y9.738 E15.95704 F6000.000
G1 X2.807 Y16.953 E16.33602
G1 X-1.039 Y15.923 E16.54404
G1 X-3.023 Y17.907 E16.69068
G1 X-2.962 Y16.957 E16.74043
G1 X-1.483 Y15.478 E16.84969
G1 X-2.618 Y11.242 E17.07883
G1 X-2.478 Y8.476 E17.22349
G1 X1.475 Y4.523 E17.51556
G1 X1.516 Y4.867 E17.53362
G1 X-3.140 Y28.369 F6000.000
G1 X-3.779 Y28.476 E17.56748 F6000.000
G1 X-3.759 Y28.203 E17.58175
G1 X-3.140 Y28.369 E17.61524
M106 S255
G1 F4800
G1 X-3.759 Y28.203 E17.31077
G1 F4800
G1 X-3.779 Y28.476 E17.18101
G1 F4800
G1 X-3.140 Y28.369 E16.87318
G1 E14.61524 F2400.00000
G92 E0
G1 Z0.500 F6000.000
G1 X-1.851 Y-18.788 F6000.000
G1 E3.00000 F2400.00000
G1 X-0.996 Y-14.485 E3.22918 F6000.000
G1 X-0.210 Y-10.039 E3.46507
G1 X0.179 Y-7.613 E3.59344
G1 X0.563 Y-5.044 E3.72914
G1 X0.939 Y-2.332 E3.87217
G1 X1.493 Y2.007 E4.10071
G1 X1.859 Y5.077 E4.26224
G1 X2.406 Y9.951 E4.51847
G1 X3.316 Y18.764 E4.98134
G1 X4.137 Y27.507 E5.44013
G1 X-4.135 Y28.885 E5.87828
G1 X-3.744 Y23.657 E6.15222
G1 X-3.455 Y19.473 E6.37130
G1 X-2.966 Y11.541 E6.78652
G1 X-2.596 Y4.210 E7.16999
G1 X-2.454 Y0.780 E7.34933
G1 X-2.295 Y-4.049 E7.60181
G1 X-2.223 Y-7.057 E7.75899
G1 X-2.162 Y-11.234 E7.97720
G1 X-2.149 Y-13.792 E8.11090
G1 X-2.191 Y-18.749 E8.36989
G1 X-1.910 Y-18.781 E8.38466
G1 X-2.580 Y-24.661 F6000.000
G1 X-1.286 Y-18.496 E8.57168 F6000.000
G1 X-0.512 Y-14.576 E8.69033
G1 X0.276 Y-10.121 E8.82465
G1 X0.666 Y-7.688 E8.89781
G1 X1.050 Y-5.114 E8.97508
G1 X1.427 Y-2.397 E9.05652
G1 X1.982 Y1.947 E9.18654
G1 X2.348 Y5.020 E9.27845
G1 X2.896 Y9.898 E9.42418
G1 X3.806 Y18.715 E9.68737
G1 X4.671 Y27.917 E9.96180
G1 X-4.673 Y29.474 E10.24306
G1 X-4.235 Y23.621 E10.41733
G1 X-3.946 Y19.441 E10.54174
G1 X-3.458 Y11.513 E10.77758
G1 X-3.088 Y4.188 E10.99537
G1 X-2.946 Y0.762 E11.09716
G1 X-2.787 Y-4.063 E11.24051
G1 X-2.716 Y-7.067 E11.32971
G1 X-2.654 Y-11.238 E11.45358
G1 X-2.642 Y-13.792 E11.52942
G1 X-2.659 Y-17.272 E11.63272
G1 X-2.711 Y-20.322 E11.72330
G1 X-2.850 Y-24.627 E11.85119
G1 X-2.639 Y-24.653 E11.85750
G1 X-2.715 Y-24.284 F6000.000
G1 X-2.740 Y-24.842 F6000.000
G1 X-3.120 Y-27.879 E12.01741 F6000.000
G1 X-2.528 Y-23.128 F6000.000
G1 X-2.309 Y-21.275 E12.11485 F6000.000
G1 X-2.309 Y-21.275 F6000.000
G1 X-2.049 Y-19.013 E12.36089 F6000.000
G1 X-1.833 Y-17.006 F6000.000
G1 X-1.660 Y-15.283 E12.45132 F6000.000
G1 X-1.660 Y-15.283 F6000.000
G1 X-1.385 Y-12.251 E12.78028 F6000.000
G1 X-0.365 Y-3.411 F6000.000
G1 X0.834 Y1.062 E13.02226 F6000.000
G1 X1.231 Y4.323 E13.19386
G1 X-2.242 Y7.796 E13.45049
G1 X-2.062 Y4.235 E13.63680
G1 X-1.920 Y0.800 E13.81638
G1 X-1.769 Y-3.788 E14.05621
G1 X-0.365 Y-3.411 E14.13217
G1 X-1.039 Y15.923 F6000.000
G1 X2.586 Y16.894 E14.32820 F6000.000
G1 X2.784 Y18.816 E14.42916
G1 X3.559 Y27.061 E14.86185
G1 X-3.552 Y28.247 E15.23847
G1 X-3.211 Y23.695 E15.47694
G1 X-2.781 Y17.220 E15.81595
G1 X-1.646 Y16.085 E15.89982
G1 X-2.512 Y12.852 E16.07471
G1 X-2.397 Y10.854 E16.17928
G1 X-1.039 Y15.923 E16.45344
G1 F4800
G1 X-2.397 Y10.854 E13.96080
G1 F4800
G1 X-2.440 Y11.605 E13.60344
G1 E13.45344 F2400.00000
G92 E0
G1 Z0.700 F6000.000
G1 X-1.851 Y-18.588 F6000.000
G1 E3.00000 F2400.00000
G1 X-0.996 Y-14.285 E3.22918 F6000.000
G1 X-0.210 Y-9.839 E3.46507
G1 X0.179 Y-7.413 E3.59344
G1 X0.563 Y-4.844 E3.72914
G1 X0.939 Y-2.132 E3.87217
G1 X1.493 Y2.207 E4.10071
G1 X1.859 Y5.277 E4.26224
G1 X2.406 Y10.151 E4.51847
G1 X3.316 Y18.964 E4.98134
G1 X4.120 Y27.510 E5.42980
G1 X-4.119 Y28.883 E5.86618
G1 X-3.744 Y23.857 E6.12950
G1 X-3.455 Y19.673 E6.34857
G1 X-2.966 Y11.741 E6.76380
G1 X-2.596 Y4.410 E7.14727
G1 X-2.454 Y0.980 E7.32660
G1 X-2.295 Y-3.849 E7.57908
G1 X-2.223 Y-6.857 E7.73627
G1 X-2.162 Y-11.034 E7.95448
G1 X-2.149 Y-13.592 E8.08817
G1 X-2.191 Y-18.549 E8.34716
G1 X-1.910 Y-18.581 E8.36193
G1 X-2.580 Y-24.461 F6000.000
G1 X-1.286 Y-18.296 E8.54895 F6000.000
G1 X-0.512 Y-14.376 E8.66761
G1 X0.276 Y-9.921 E8.80193
G1 X0.666 Y-7.488 E8.87508
G1 X1.050 Y-4.914 E8.95236
G1 X1.427 Y-2.197 E9.03379
G1 X1.982 Y2.147 E9.16382
G1 X2.348 Y5.220 E9.25573
G1 X2.896 Y10.098 E9.40146
G1 X3.806 Y18.915 E9.66465
G1 X4.653 Y27.920 E9.93320
G1 X-4.658 Y29.472 E10.21345
G1 X-4.235 Y23.821 E10.38169
G1 X-3.946 Y19.641 E10.50610
G1 X-3.458 Y11.713 E10.74194
G1 X-3.088 Y4.388 E10.95972
G1 X-2.946 Y0.962 E11.06152
G1 X-2.787 Y-3.863 E11.20487
G1 X-2.716 Y-6.867 E11.29407
G1 X-2.654 Y-11.038 E11.41794
G1 X-2.642 Y-13.592 E11.49378
G1 X-2.659 Y-17.072 E11.59708
G1 X-2.711 Y-20.122 E11.68766
G1 X-2.850 Y-24.427 E11.81555
G1 X-2.639 Y-24.453 E11.82185
G1 X-2.715 Y-24.084 F6000.000
G1 X-2.740 Y-24.642 F6000.000
G1 X-3.120 Y-27.683 E11.98193 F6000.000
G1 X-2.528 Y-22.928 F6000.000
G1 X-2.309 Y-21.075 E12.07937 F6000.000
G1 X-2.309 Y-21.075 F6000.000
G1 X-2.049 Y-18.813 E12.32540 F6000.000
G1 X-1.833 Y-16.806 F6000.000
G1 X-1.660 Y-15.083 E12.41583 F6000.000
G1 X-1.660 Y-15.083 F6000.000
G1 X-1.385 Y-12.051 E12.74480 F6000.000
G1 X-0.737 Y-9.750 F6000.000
G1 X-0.348 Y-7.331 E12.87279 F6000.000
G1 X0.198 Y-3.586 E13.07054
G1 X-1.754 Y-4.109 E13.17615
G1 X-1.689 Y-6.847 E13.31923
G1 X-1.625 Y-11.495 E13.56209
G1 X-1.054 Y-11.544 E13.59205
G1 X-0.737 Y-9.750 E13.68720
G1 X0.079 Y-2.967 F6000.000
G1 X0.489 Y-1.440 E13.76981 F6000.000
G1 X1.210 Y4.344 E14.07433
G1 X-2.232 Y7.786 E14.32860
G1 X-2.062 Y4.435 E14.50389
G1 X-1.920 Y1.000 E14.68348
G1 X-1.773 Y-3.464 E14.91681
G1 X0.079 Y-2.967 E15.01702
G1 X-1.483 Y15.478 F6000.000
G1 X2.530 Y16.554 E15.23407 F6000.000
G1 X2.599 Y17.223 E15.26921
G1 X-1.646 Y16.085 E15.49878
G1 X-2.768 Y17.207 E15.58169
G1 X-2.441 Y11.902 E15.85939
G1 X-1.483 Y15.478 E16.05282
G1 X-2.831 Y28.127 F6000.000
G1 X-3.536 Y28.244 E16.09014 F6000.000
G1 X-3.514 Y27.944 E16.10586
G1 X-2.831 Y28.127 E16.14276
G1 F4800
G1 X-3.514 Y27.944 E15.80732
G1 F4800
G1 X-3.536 Y28.244 E15.66432
G1 F4800
G1 X-2.831 Y28.127 E15.32503
G1 E13.14276 F2400.00000
G92 E0
G1 Z0.900 F6000.000
G1 X-1.851 Y-18.388 F6000.000
G1 E3.00000 F2400.00000
G1 X-0.996 Y-14.085 E3.22918 F6000.000
G1 X-0.210 Y-9.639 E3.46507
G1 X0.179 Y-7.213 E3.59344
G1 X0.563 Y-4.644 E3.72914
G1 X0.939 Y-1.932 E3.87217
G1 X1.493 Y2.407 E4.10071
G1 X1.859 Y5.477 E4.26224
G1 X2.406 Y10.351 E4.51847
G1 X3.316 Y19.164 E4.98135
G1 X4.102 Y27.513 E5.41946
G1 X-4.104 Y28.880 E5.85407
G1 X-3.744 Y24.057 E6.10677
G1 X-3.455 Y19.873 E6.32584
G1 X-2.966 Y11.941 E6.74107
G1 X-2.596 Y4.610 E7.12454
G1 X-2.454 Y1.180 E7.30388
G1 X-2.295 Y-3.649 E7.55635
G1 X-2.223 Y-6.657 E7.71354
G1 X-2.162 Y-10.834 E7.93175
G1 X-2.149 Y-13.392 E8.06545
G1 X-2.191 Y-18.349 E8.32443
G1 X-1.910 Y-18.381 E8.33921
G1 X-2.580 Y-24.261 F6000.000
G1 X-1.286 Y-18.096 E8.52623 F6000.000
G1 X-0.512 Y-14.176 E8.64488
G1 X0.276 Y-9.721 E8.77920
G1 X0.666 Y-7.288 E8.85236
G1 X1.050 Y-4.714 E8.92963
G1 X1.427 Y-1.997 E9.01107
G1 X1.982 Y2.347 E9.14109
G1 X2.348 Y5.420 E9.23300
G1 X2.896 Y10.298 E9.37873
G1 X3.806 Y19.115 E9.64192
G1 X4.635 Y27.923 E9.90460
G1 X-4.642 Y29.469 E10.18384
G1 X-4.235 Y24.021 E10.34605
G1 X-3.946 Y19.841 E10.47046
G1 X-3.458 Y11.913 E10.70630
G1 X-3.088 Y4.588 E10.92408
G1 X-2.946 Y1.162 E11.02587
G1 X-2.787 Y-3.663 E11.16923
G1 X-2.716 Y-6.667 E11.25843
G1 X-2.654 Y-10.838 E11.38230
G1 X-2.642 Y-13.392 E11.45814
G1 X-2.659 Y-16.872 E11.56144
G1 X-2.711 Y-19.922 E11.65202
G1 X-2.850 Y-24.227 E11.77991
G1 X-2.639 Y-24.253 E11.78621
G1 X-2.715 Y-23.884 F6000.000
G1 X-2.740 Y-24.442 F6000.000
G1 X-3.117 Y-27.421 E11.94310 F6000.000
G1 X-2.528 Y-22.728 F6000.000
G1 X-2.309 Y-20.875 E12.04054 F6000.000
G1 X-2.309 Y-20.875 F6000.000
G1 X-2.049 Y-18.613 E12.28658 F6000.000
G1 X-1.833 Y-16.606 F6000.000
G1 X-1.660 Y-14.883 E12.37701 F6000.000
G1 X-1.660 Y-14.883 F6000.000
G1 X-1.385 Y-11.851 E12.70597 F6000.000
G1 X0.235 Y-3.122 F6000.000
G1 X0.079 Y-2.967 E12.71743 F6000.000
G1 X0.440 Y-1.622 E12.79018
G1 X1.141 Y3.968 E13.08454
G1 X-2.197 Y7.307 E13.33121
G1 X-2.062 Y4.635 E13.47100
G1 X-1.920 Y1.200 E13.65059
G1 X-1.757 Y-3.785 E13.91116
G1 X-0.365 Y-3.411 E13.98648
G1 X0.126 Y-3.903 E14.02277
G1 X0.235 Y-3.122 E14.06393
G1 X1.328 Y5.538 F6000.000
G1 X1.875 Y10.408 E14.31994 F6000.000
G1 X2.543 Y16.882 E14.65999
G1 X-1.039 Y15.923 E14.85373
G1 X-2.784 Y17.668 E14.98266
G1 X-2.725 Y16.721 E15.03223
G1 X-1.483 Y15.478 E15.12403
G1 X-2.431 Y11.938 E15.31550
G1 X-2.245 Y8.243 E15.50881
G1 X1.236 Y4.762 E15.76597
G1 X1.328 Y5.538 E15.80679
G1 F4800
G1 X1.236 Y4.762 E15.43565
G1 F4800
G1 X-2.245 Y8.243 E13.09769
G1 F4800
G1 X-2.260 Y8.539 E12.95679
G1 E12.80679 F2400.00000
G92 E0
G1 Z1.100 F6000.000
G1 X-1.851 Y-18.188 F6000.000
G1 E3.00000 F2400.00000
G1 X-0.996 Y-13.885 E3.22918 F6000.000
G1 X-0.210 Y-9.439 E3.46507
G1 X0.179 Y-7.013 E3.59344
G1 X0.563 Y-4.446 E3.72906
G1 X1.309 Y1.126 E4.02274
G1 X1.676 Y4.123 E4.18052
G1 X2.224 Y8.891 E4.43122
G1 X3.134 Y17.535 E4.88532
G1 X4.085 Y27.515 E5.40912
G1 X-4.088 Y28.877 E5.84201
G1 X-3.455 Y20.073 E6.30317
G1 X-2.966 Y12.141 E6.71839
G1 X-2.596 Y4.810 E7.10186
G1 X-2.454 Y1.380 E7.28120
G1 X-2.295 Y-3.449 E7.53368
G1 X-2.223 Y-6.457 E7.69086
G1 X-2.162 Y-10.634 E7.90908
G1 X-2.149 Y-13.192 E8.04277
G1 X-2.191 Y-18.149 E8.30176
G1 X-1.910 Y-18.181 E8.31653
G1 X-2.580 Y-24.061 F6000.000
G1 X-1.286 Y-17.896 E8.50355 F6000.000
G1 X-0.512 Y-13.976 E8.62221
G1 X0.276 Y-9.521 E8.75653
G1 X0.666 Y-7.088 E8.82968
G1 X1.050 Y-4.515 E8.90694
G1 X1.798 Y1.063 E9.07404
G1 X2.165 Y4.065 E9.16384
G1 X2.713 Y8.837 E9.30644
G1 X3.624 Y17.485 E9.56464
G1 X4.169 Y23.073 E9.73135
G1 X4.618 Y27.926 E9.87604
G1 X-4.626 Y29.467 E10.15429
G1 X-4.235 Y24.221 E10.31047
G1 X-3.946 Y20.041 E10.43487
G1 X-3.458 Y12.113 E10.67071
G1 X-3.088 Y4.788 E10.88850
G1 X-2.946 Y1.362 E10.99029
G1 X-2.787 Y-3.463 E11.13365
G1 X-2.716 Y-6.467 E11.22284
G1 X-2.654 Y-10.638 E11.34672
G1 X-2.642 Y-13.192 E11.42255
G1 X-2.659 Y-16.672 E11.52585
G1 X-2.711 Y-19.722 E11.61644
G1 X-2.850 Y-24.027 E11.74432
G1 X-2.639 Y-24.053 E11.75063
G1 X-2.715 Y-23.684 F6000.000
G1 X-2.740 Y-24.242 F6000.000
G1 X-3.117 Y-27.221 E11.90751 F6000.000
G1 X-2.528 Y-22.528 F6000.000
G1 X-2.309 Y-20.675 E12.00495 F6000.000
G1 X-2.309 Y-20.675 F6000.000
G1 X-2.049 Y-18.413 E12.25099 F6000.000
G1 X-1.833 Y-16.406 F6000.000
G1 X-1.660 Y-14.683 E12.34142 F6000.000
G1 X-1.660 Y-14.683 F6000.000
G1 X-1.385 Y-11.651 E12.67039 F6000.000
G1 X-0.365 Y-3.411 F6000.000
G1 X0.690 Y0.525 E12.88331 F6000.000
G1 X1.168 Y4.385 E13.08653
G1 X-2.210 Y7.764 E13.33618
G1 X-2.062 Y4.835 E13.48943
G1 X-1.920 Y1.400 E13.66901
G1 X-1.753 Y-3.783 E13.93997
G1 X-0.365 Y-3.411 E14.01503
G1 X-1.039 Y15.923 F6000.000
G1 X2.528 Y16.878 E14.20794 F6000.000
G1 X3.506 Y27.070 E14.74288
G1 X-3.507 Y28.239 E15.11431
G1 X-2.922 Y20.109 E15.54017
G1 X-2.741 Y17.181 E15.69342
G1 X-1.646 Y16.085 E15.77440
G1 X-2.482 Y12.964 E15.94322
G1 X-2.371 Y10.949 E16.04865
G1 X-1.039 Y15.923 E16.31767
G1 F4800
G1 X-2.371 Y10.949 E13.87184
G1 F4800
G1 X-2.418 Y11.799 E13.46767
G1 E13.31767 F2400.00000
G92 E0
G1 Z1.300 F6000.000
G1 X-1.851 Y-17.988 F6000.000
G1 E3.00000 F2400.00000
G1 X-0.996 Y-13.685 E3.22918 F6000.000
G1 X-0.210 Y-9.239 E3.46507
G1 X0.179 Y-6.813 E3.59344
G1 X0.563 Y-4.246 E3.72906
G1 X1.309 Y1.326 E4.02274
G1 X1.676 Y4.323 E4.18052
G1 X2.224 Y9.091 E4.43122
G1 X3.134 Y17.734 E4.88528
G1 X4.065 Y27.519 E5.39879
G1 X-4.073 Y28.875 E5.82982
G1 X-3.455 Y20.273 E6.28036
G1 X-2.966 Y12.341 E6.69559
G1 X-2.596 Y5.010 E7.07906
G1 X-2.454 Y1.580 E7.25840
G1 X-2.295 Y-3.249 E7.51087
G1 X-2.223 Y-6.257 E7.66806
G1 X-2.162 Y-10.434 E7.88627
G1 X-2.149 Y-12.992 E8.01996
G1 X-2.191 Y-17.949 E8.27895
G1 X-1.910 Y-17.981 E8.29373
G1 X-2.580 Y-23.861 F6000.000
G1 X-1.286 Y-17.696 E8.48074 F6000.000
G1 X-0.512 Y-13.776 E8.59940
G1 X0.276 Y-9.321 E8.73372
G1 X0.666 Y-6.888 E8.80687
G1 X1.050 Y-4.315 E8.88414
G1 X1.798 Y1.263 E9.05123
G1 X2.165 Y4.265 E9.14104
G1 X2.713 Y9.037 E9.28363
G1 X3.624 Y17.685 E9.54183
G1 X4.599 Y27.929 E9.84737
G1 X-4.611 Y29.464 E10.12459
G1 X-3.946 Y20.241 E10.39914
G1 X-3.458 Y12.313 E10.63498
G1 X-3.088 Y4.988 E10.85276
G1 X-2.946 Y1.562 E10.95455
G1 X-2.787 Y-3.263 E11.09791
G1 X-2.716 Y-6.267 E11.18711
G1 X-2.654 Y-10.438 E11.31098
G1 X-2.642 Y-12.992 E11.38681
G1 X-2.659 Y-16.472 E11.49012
G1 X-2.711 Y-19.522 E11.58070
G1 X-2.850 Y-23.827 E11.70859
G1 X-2.639 Y-23.853 E11.71489
G1 X-2.715 Y-23.484 F6000.000
G1 X-2.740 Y-24.042 F6000.000
G1 X-3.118 Y-27.025 E11.87194 F6000.000
G1 X-2.528 Y-22.328 F6000.000
G1 X-2.309 Y-20.475 E11.96938 F6000.000
