; generated by Slic3r 1.2.9 on 2016-07-14 at 19:17:06

; external perimeters extrusion width = 0.30mm
; perimeters extrusion width = 0.31mm
; infill extrusion width = 0.31mm
; solid infill extrusion width = 0.31mm
; top infill extrusion width = 0.31mm

M107
M104 S215 ; set temperature
G28 ; home all axes
G1 Z5 F5000 ; lift nozzle

M109 S215 ; wait for temperature to be reached
G21 ; set units to millimeters
G90 ; use absolute coordinates
M82 ; use absolute distances for extrusion
G92 E0
G1 E-2.00000 F2400.00000
G92 E0
G1 Z0.100 F7800.000
G1 X0.000 Y36.179 F7800.000
G1 E2.00000 F2400.00000
G1 X-58.423 Y36.179 E2.59027 F1800.000
G1 X-60.602 Y35.782 E2.61264
G1 X-62.500 Y34.642 E2.63501
G1 X-63.875 Y32.907 E2.65738
G1 X-64.602 Y30.000 E2.68765
G1 X-64.602 Y-30.000 E3.29385
G1 X-64.205 Y-32.178 E3.31622
G1 X-63.066 Y-34.077 E3.33859
G1 X-61.330 Y-35.452 E3.36096
G1 X-58.423 Y-36.179 E3.39123
G1 X51.577 Y-36.179 E4.50260
G1 X53.755 Y-35.782 E4.52497
G1 X55.654 Y-34.642 E4.54734 F1800.000
G1 X57.438 Y-31.954 E4.57994
G1 X60.634 Y-22.368 E4.68203
G1 X60.909 Y-21.129 E4.69486
G1 X64.432 Y9.132 E5.00265
G1 X64.156 Y11.800 E5.02975
G1 X57.438 Y31.954 E5.24439
G1 X56.373 Y33.895 E5.26676
G1 X54.692 Y35.336 E5.28913
G1 X51.577 Y36.179 E5.32173
G1 X0.045 Y36.179 E5.84237
G1 F6240
G1 X-5.155 Y36.179 E3.94237
G1 E3.84237 F2400.00000
G92 E0
G1 X-48.686 Y-2.235 F7800.000
G1 E2.00000 F2400.00000
G1 X-47.947 Y-2.171 E2.00750 F1800.000
G1 X-38.147 Y-1.281 E2.10692 F1800.000
G1 X-33.151 Y-0.798 E2.15763
G1 X-25.456 Y-0.021 E2.23577
G1 X-14.845 Y1.112 E2.34358
G1 X-1.073 Y2.678 E2.48362
G1 X13.190 Y4.395 E2.62877
G1 X27.860 Y6.248 E2.77816
G1 X42.853 Y8.218 E2.93094
G1 X57.687 Y10.225 E3.08217
G1 X51.247 Y29.543 E3.28790
G1 X-57.789 Y29.543 E4.38953
G1 X-47.941 Y0.000 E4.70416
G1 X-48.672 Y-2.192 E4.72750
G1 X-48.841 Y-2.136 F7800.000
G1 X-48.942 Y-2.436 E4.73070 F1800.000
G1 X-47.931 Y-2.349 E4.74095
G1 X-38.130 Y-1.459 E4.84038 F1800.000
G1 X-33.134 Y-0.976 E4.89109
G1 X-25.438 Y-0.199 E4.96924
G1 X-14.826 Y0.935 E5.07707
G1 X-1.052 Y2.500 E5.21712
G1 X13.212 Y4.218 E5.36228
G1 X27.883 Y6.071 E5.51168
G1 X42.877 Y8.041 E5.66447
G1 X57.924 Y10.077 E5.81788
G1 X51.376 Y29.721 E6.02709
G1 X-58.037 Y29.721 E7.13252
G1 X-48.130 Y0.000 E7.44905
G1 X-48.827 Y-2.093 E7.47134
G1 X-48.997 Y-2.037 F7800.000
G1 X-49.197 Y-2.637 E7.47773 F1800.000
G1 X-47.916 Y-2.527 E7.49073
G1 X-38.114 Y-1.636 E7.59017 F1800.000
G1 X-33.116 Y-1.154 E7.64089
G1 X-25.419 Y-0.376 E7.71905
G1 X-14.806 Y0.757 E7.82689
G1 X-1.031 Y2.323 E7.96695
G1 X13.234 Y4.041 E8.11212
G1 X27.906 Y5.894 E8.26154
G1 X42.900 Y7.864 E8.41433
G1 X58.162 Y9.929 E8.56993
G1 X51.505 Y29.900 E8.78261
G1 X-58.284 Y29.900 E9.89184
G1 X-48.318 Y0.000 E10.21027
G1 X-48.982 Y-1.994 E10.23151
G1 X-48.798 Y-2.261 F7800.000
G1 X-47.963 Y-1.984 F7800.000
G1 X-43.511 Y-1.580 E10.27667 F1800.000
G1 X-43.511 Y0.458 E10.29726
G1 X-45.767 Y1.761 E10.32358
G1 X-45.767 Y4.799 E10.35428
G1 X-43.511 Y6.101 E10.38059
G1 X-43.511 Y9.140 E10.41129
G1 X-45.767 Y10.442 E10.43761
G1 X-45.767 Y13.481 E10.46831
G1 X-43.511 Y14.783 E10.49462
G1 X-43.511 Y17.822 E10.52532
G1 X-45.767 Y19.124 E10.55163
G1 X-45.767 Y22.163 E10.58233
G1 X-43.511 Y23.465 E10.60865
G1 X-43.511 Y26.503 E10.63935
G1 X-45.767 Y27.806 E10.66566
G1 X-45.767 Y29.355 E10.68132
G1 X-46.018 Y29.355 E10.68385
G1 X-46.018 Y27.806 E10.69950
G1 X-48.273 Y26.503 E10.72582
G1 X-48.273 Y23.465 E10.75652
G1 X-46.018 Y22.163 E10.78283
G1 X-46.018 Y19.124 E10.81353
G1 X-48.273 Y17.822 E10.83984
G1 X-48.273 Y14.783 E10.87054
G1 X-46.018 Y13.481 E10.89686
G1 X-46.018 Y10.442 E10.92756
G1 X-48.273 Y9.140 E10.95387
G1 X-48.273 Y6.101 E10.98457
G1 X-46.018 Y4.799 E11.01089
G1 X-46.018 Y1.761 E11.04159
G1 X-47.957 Y0.641 E11.06421
G1 X-47.743 Y0.000 E11.07104
G1 X-48.273 Y-1.589 E11.08796
G1 X-48.273 Y-2.011 E11.09222
G1 X-47.963 Y-1.984 E11.09536
G1 X-48.524 Y6.101 F7800.000
G1 X-48.524 Y9.140 E11.12606 F1800.000
G1 X-50.779 Y10.442 E11.15238
G1 X-50.779 Y13.481 E11.18308
G1 X-48.524 Y14.783 E11.20939
G1 X-48.524 Y17.822 E11.24009
G1 X-50.779 Y19.124 E11.26640
G1 X-50.779 Y22.163 E11.29710
G1 X-48.524 Y23.465 E11.32342
G1 X-48.524 Y26.503 E11.35412
G1 X-50.779 Y27.806 E11.38043
G1 X-50.779 Y29.355 E11.39609
G1 X-51.030 Y29.355 E11.39862
G1 X-51.030 Y27.806 E11.41427
G1 X-53.286 Y26.503 E11.44059
G1 X-53.286 Y23.465 E11.47129
G1 X-51.030 Y22.163 E11.49760
G1 X-51.030 Y19.124 E11.52830
G1 X-53.286 Y17.822 E11.55461
G1 X-53.286 Y16.626 E11.56669
G1 X-52.525 Y14.344 E11.59100
G1 X-51.030 Y13.481 E11.60844
G1 X-51.030 Y10.442 E11.63914
G1 X-51.193 Y10.348 E11.64104
G1 X-49.575 Y5.495 E11.69273
G1 X-48.524 Y6.101 E11.70499
G1 X-38.499 Y-1.124 F7800.000
G1 X-38.499 Y0.458 E11.72098 F1800.000
G1 X-40.755 Y1.761 E11.74730
G1 X-40.755 Y4.799 E11.77800
G1 X-38.499 Y6.101 E11.80431
G1 X-38.499 Y9.140 E11.83501
G1 X-40.755 Y10.442 E11.86132
G1 X-40.755 Y13.481 E11.89202
G1 X-38.499 Y14.783 E11.91834
G1 X-38.499 Y17.822 E11.94904
G1 X-40.755 Y19.124 E11.97535
G1 X-40.755 Y22.163 E12.00605
G1 X-38.499 Y23.465 E12.03237
G1 X-38.499 Y26.503 E12.06307
G1 X-40.755 Y27.806 E12.08938
G1 X-40.755 Y29.355 E12.10503
G1 X-41.005 Y29.355 E12.10757
G1 X-41.005 Y27.806 E12.12322
G1 X-43.261 Y26.503 E12.14953
G1 X-43.261 Y23.465 E12.18023
G1 X-41.005 Y22.163 E12.20655
G1 X-41.005 Y19.124 E12.23725
G1 X-43.261 Y17.822 E12.26356
G1 X-43.261 Y14.783 E12.29426
G1 X-41.005 Y13.481 E12.32058
G1 X-41.005 Y10.442 E12.35128
G1 X-43.261 Y9.140 E12.37759
G1 X-43.261 Y6.101 E12.40829
G1 X-41.005 Y4.799 E12.43460
G1 X-41.005 Y1.761 E12.46530
G1 X-43.261 Y0.458 E12.49162
G1 X-43.261 Y-1.557 E12.51198
G1 X-38.499 Y-1.124 E12.56029
G1 X-38.164 Y-1.094 F7800.000
G1 X-33.487 Y-0.642 E12.60777 F1800.000
G1 X-33.487 Y0.458 E12.61889
G1 X-35.742 Y1.761 E12.64520
G1 X-35.742 Y4.799 E12.67590
G1 X-33.487 Y6.101 E12.70221
G1 X-33.487 Y9.140 E12.73291
G1 X-35.742 Y10.442 E12.75923
G1 X-35.742 Y13.481 E12.78993
G1 X-33.487 Y14.783 E12.81624
G1 X-33.487 Y17.822 E12.84694
G1 X-35.742 Y19.124 E12.87326
G1 X-35.742 Y22.163 E12.90396
G1 X-33.487 Y23.465 E12.93027
G1 X-33.487 Y26.503 E12.96097
G1 X-35.742 Y27.806 E12.98728
G1 X-35.742 Y29.355 E13.00294
G1 X-35.993 Y29.355 E13.00547
G1 X-35.993 Y27.806 E13.02112
G1 X-38.248 Y26.503 E13.04744
G1 X-38.248 Y23.465 E13.07814
G1 X-35.993 Y22.163 E13.10445
G1 X-35.993 Y19.124 E13.13515
G1 X-38.248 Y17.822 E13.16147
G1 X-38.248 Y14.783 E13.19217
G1 X-35.993 Y13.481 E13.21848
G1 X-35.993 Y10.442 E13.24918
G1 X-38.248 Y9.140 E13.27549
G1 X-38.248 Y6.101 E13.30619
G1 X-35.993 Y4.799 E13.33251
G1 X-35.993 Y1.761 E13.36321
G1 X-38.248 Y0.458 E13.38952
G1 X-38.248 Y-1.101 E13.40528
G1 X-38.164 Y-1.094 E13.40613
G1 X-33.170 Y-0.611 F7800.000
G1 X-28.474 Y-0.137 E13.45381 F1800.000
G1 X-28.474 Y0.458 E13.45983
G1 X-30.730 Y1.761 E13.48615
G1 X-30.730 Y4.799 E13.51685
G1 X-28.474 Y6.101 E13.54316
G1 X-28.474 Y9.140 E13.57386
G1 X-30.730 Y10.442 E13.60017
G1 X-30.730 Y13.481 E13.63087
G1 X-28.474 Y14.783 E13.65719
G1 X-28.474 Y17.822 E13.68789
G1 X-30.730 Y19.124 E13.71420
G1 X-30.730 Y22.163 E13.74490
G1 X-28.474 Y23.465 E13.77122
G1 X-28.474 Y26.503 E13.80192
G1 X-30.730 Y27.806 E13.82823
G1 X-30.730 Y29.355 E13.84388
G1 X-30.980 Y29.355 E13.84642
G1 X-30.980 Y27.806 E13.86207
G1 X-33.236 Y26.503 E13.88838
G1 X-33.236 Y23.465 E13.91908
G1 X-30.980 Y22.163 E13.94540
G1 X-30.980 Y19.124 E13.97610
G1 X-33.236 Y17.822 E14.00241
G1 X-33.236 Y14.783 E14.03311
G1 X-30.980 Y13.481 E14.05943
G1 X-30.980 Y10.442 E14.09013
G1 X-33.236 Y9.140 E14.11644
G1 X-33.236 Y6.101 E14.14714
G1 X-30.980 Y4.799 E14.17345
G1 X-30.980 Y1.761 E14.20415
G1 X-33.236 Y0.458 E14.23047
G1 X-33.236 Y-0.618 E14.24134
G1 X-33.170 Y-0.611 E14.24201
G1 X-25.475 Y0.166 F7800.000
G1 X-23.462 Y0.381 E14.26247 F1800.000
G1 X-23.462 Y0.458 E14.26326
G1 X-25.717 Y1.761 E14.28957
G1 X-25.717 Y4.799 E14.32027
G1 X-23.462 Y6.101 E14.34659
G1 X-23.462 Y9.140 E14.37729
G1 X-25.717 Y10.442 E14.40360
G1 X-25.717 Y13.481 E14.43430
G1 X-23.462 Y14.783 E14.46061
G1 X-23.462 Y17.822 E14.49131
G1 X-25.717 Y19.124 E14.51763
G1 X-25.717 Y22.163 E14.54833
G1 X-23.462 Y23.465 E14.57464
G1 X-23.462 Y26.503 E14.60534
G1 X-25.717 Y27.806 E14.63166
G1 X-25.717 Y29.355 E14.64731
G1 X-25.968 Y29.355 E14.64984
G1 X-25.968 Y27.806 E14.66550
G1 X-28.224 Y26.503 E14.69181
G1 X-28.224 Y23.465 E14.72251
G1 X-25.968 Y22.163 E14.74882
G1 X-25.968 Y19.124 E14.77952
G1 X-28.224 Y17.822 E14.80584
G1 X-28.224 Y14.783 E14.83654
G1 X-25.968 Y13.481 E14.86285
G1 X-25.968 Y10.442 E14.89355
G1 X-28.224 Y9.140 E14.91987
G1 X-28.224 Y6.101 E14.95057
G1 X-25.968 Y4.799 E14.97688
G1 X-25.968 Y1.761 E15.00758
G1 X-28.224 Y0.458 E15.03389
G1 X-28.224 Y-0.112 E15.03966
G1 X-25.475 Y0.166 E15.06756
G1 X-19.118 Y0.845 F7800.000
G1 X-20.705 Y1.761 E15.08607 F1800.000
G1 X-20.705 Y4.799 E15.11677
G1 X-18.449 Y6.101 E15.14308
G1 X-18.449 Y9.140 E15.17378
G1 X-20.705 Y10.442 E15.20010
G1 X-20.705 Y13.481 E15.23080
G1 X-18.449 Y14.783 E15.25711
G1 X-18.449 Y17.822 E15.28781
G1 X-20.705 Y19.124 E15.31413
G1 X-20.705 Y22.163 E15.34483
G1 X-18.449 Y23.465 E15.37114
G1 X-18.449 Y26.503 E15.40184
G1 X-20.705 Y27.806 E15.42815
G1 X-20.705 Y29.355 E15.44381
G1 X-20.956 Y29.355 E15.44634
G1 X-20.956 Y27.806 E15.46199
G1 X-23.211 Y26.503 E15.48831
G1 X-23.211 Y23.465 E15.51901
G1 X-20.956 Y22.163 E15.54532
G1 X-20.956 Y19.124 E15.57602
G1 X-23.211 Y17.822 E15.60234
G1 X-23.211 Y14.783 E15.63304
G1 X-20.956 Y13.481 E15.65935
G1 X-20.956 Y10.442 E15.69005
G1 X-23.211 Y9.140 E15.71636
G1 X-23.211 Y6.101 E15.74706
G1 X-20.956 Y4.799 E15.77338
G1 X-20.956 Y1.761 E15.80408
G1 X-23.211 Y0.458 E15.83039
G1 X-23.211 Y0.408 E15.83091
G1 X-19.118 Y0.845 E15.87249
G1 X-14.889 Y1.296 F7800.000
G1 X-15.693 Y1.761 E15.88187 F1800.000
G1 X-15.693 Y4.799 E15.91257
G1 X-13.437 Y6.101 E15.93888
G1 X-13.437 Y9.140 E15.96958
G1 X-15.693 Y10.442 E15.99590
G1 X-15.693 Y13.481 E16.02660
G1 X-13.437 Y14.783 E16.05291
G1 X-13.437 Y17.822 E16.08361
G1 X-15.693 Y19.124 E16.10993
G1 X-15.693 Y22.163 E16.14063
G1 X-13.437 Y23.465 E16.16694
G1 X-13.437 Y26.503 E16.19764
G1 X-15.693 Y27.806 E16.22395
G1 X-15.693 Y29.355 E16.23961
G1 X-15.943 Y29.355 E16.24214
G1 X-15.943 Y27.806 E16.25779
G1 X-18.199 Y26.503 E16.28411
G1 X-18.199 Y23.465 E16.31481
G1 X-15.943 Y22.163 E16.34112
G1 X-15.943 Y19.124 E16.37182
G1 X-18.199 Y17.822 E16.39814
G1 X-18.199 Y14.783 E16.42884
G1 X-15.943 Y13.481 E16.45515
G1 X-15.943 Y10.442 E16.48585
G1 X-18.199 Y9.140 E16.51216
G1 X-18.199 Y6.101 E16.54286
G1 X-15.943 Y4.799 E16.56918
G1 X-15.943 Y1.761 E16.59988
G1 X-17.169 Y1.053 E16.61418
G1 X-14.889 Y1.296 E16.63735
G1 X-10.680 Y1.775 F7800.000
G1 X-10.680 Y4.799 E16.66791 F1800.000
G1 X-8.425 Y6.101 E16.69422
G1 X-8.425 Y9.140 E16.72492
G1 X-10.680 Y10.442 E16.75124
G1 X-10.680 Y13.481 E16.78194
G1 X-8.425 Y14.783 E16.80825
G1 X-8.425 Y17.822 E16.83895
G1 X-10.680 Y19.124 E16.86526
G1 X-10.680 Y22.163 E16.89596
G1 X-8.425 Y23.465 E16.92228
G1 X-8.425 Y26.503 E16.95298
G1 X-10.680 Y27.806 E16.97929
G1 X-10.680 Y29.355 E16.99495
G1 X-10.931 Y29.355 E16.99748
G1 X-10.931 Y27.806 E17.01313
G1 X-13.186 Y26.503 E17.03945
G1 X-13.186 Y23.465 E17.07015
G1 X-10.931 Y22.163 E17.09646
G1 X-10.931 Y19.124 E17.12716
G1 X-13.186 Y17.822 E17.15347
G1 X-13.186 Y14.783 E17.18417
G1 X-10.931 Y13.481 E17.21049
G1 X-10.931 Y10.442 E17.24119
G1 X-13.186 Y9.140 E17.26750
G1 X-13.186 Y6.101 E17.29820
G1 X-10.931 Y4.799 E17.32452
G1 X-10.931 Y1.761 E17.35522
G1 X-10.962 Y1.743 E17.35558
G1 X-10.680 Y1.775 E17.35845
G1 X-5.668 Y2.344 F7800.000
G1 X-5.668 Y4.799 E17.38325 F1800.000
G1 X-3.412 Y6.101 E17.40956
G1 X-3.412 Y9.140 E17.44026
G1 X-5.668 Y10.442 E17.46658
G1 X-5.668 Y13.481 E17.49728
G1 X-3.412 Y14.783 E17.52359
G1 X-3.412 Y17.822 E17.55429
G1 X-5.668 Y19.124 E17.58061
G1 X-5.668 Y22.163 E17.61131
G1 X-3.412 Y23.465 E17.63762
G1 X-3.412 Y26.503 E17.66832
G1 X-5.668 Y27.806 E17.69463
G1 X-5.668 Y29.355 E17.71029
G1 X-5.918 Y29.355 E17.71282
G1 X-5.918 Y27.806 E17.72847
G1 X-8.174 Y26.503 E17.75479
G1 X-8.174 Y23.465 E17.78549
G1 X-5.918 Y22.163 E17.81180
G1 X-5.918 Y19.124 E17.84250
G1 X-8.174 Y17.822 E17.86882
G1 X-8.174 Y14.783 E17.89952
G1 X-5.918 Y13.481 E17.92583
G1 X-5.918 Y10.442 E17.95653
G1 X-8.174 Y9.140 E17.98284
G1 X-8.174 Y6.101 E18.01354
G1 X-5.918 Y4.799 E18.03986
G1 X-5.918 Y2.316 E18.06495
G1 X-5.668 Y2.344 E18.06750
G1 X-0.655 Y2.917 F7800.000
G1 X-0.655 Y4.799 E18.08651 F1800.000
G1 X1.600 Y6.101 E18.11283
G1 X1.600 Y9.140 E18.14353
G1 X-0.655 Y10.442 E18.16984
G1 X-0.655 Y13.481 E18.20054
G1 X1.600 Y14.783 E18.22686
G1 X1.600 Y17.822 E18.25756
G1 X-0.655 Y19.124 E18.28387
G1 X-0.655 Y22.163 E18.31457
G1 X1.600 Y23.465 E18.34088
G1 X1.600 Y26.503 E18.37158
G1 X-0.655 Y27.806 E18.39790
G1 X-0.655 Y29.355 E18.41355
G1 X-0.906 Y29.355 E18.41609
G1 X-0.906 Y27.806 E18.43174
G1 X-3.162 Y26.503 E18.45805
G1 X-3.162 Y23.465 E18.48875
G1 X-0.906 Y22.163 E18.51507
G1 X-0.906 Y19.124 E18.54577
G1 X-3.162 Y17.822 E18.57208
G1 X-3.162 Y14.783 E18.60278
G1 X-0.906 Y13.481 E18.62910
G1 X-0.906 Y10.442 E18.65980
G1 X-3.162 Y9.140 E18.68611
G1 X-3.162 Y6.101 E18.71681
G1 X-0.906 Y4.799 E18.74312
G1 X-0.906 Y2.887 E18.76245
G1 X-0.655 Y2.917 E18.76500
G1 X4.357 Y3.521 F7800.000
G1 X4.357 Y4.799 E18.77791 F1800.000
G1 X6.613 Y6.101 E18.80423
G1 X6.613 Y9.140 E18.83493
G1 X4.357 Y10.442 E18.86124
G1 X4.357 Y13.481 E18.89194
G1 X6.613 Y14.783 E18.91826
G1 X6.613 Y17.822 E18.94896
G1 X4.357 Y19.124 E18.97527
G1 X4.357 Y22.163 E19.00597
G1 X6.613 Y23.465 E19.03228
G1 X6.613 Y26.503 E19.06298
G1 X4.357 Y27.806 E19.08930
G1 X4.357 Y29.355 E19.10495
G1 X4.106 Y29.355 E19.10748
G1 X4.106 Y27.806 E19.12314
G1 X1.851 Y26.503 E19.14945
G1 X1.851 Y23.465 E19.18015
G1 X4.106 Y22.163 E19.20647
G1 X4.106 Y19.124 E19.23717
G1 X1.851 Y17.822 E19.26348
G1 X1.851 Y14.783 E19.29418
G1 X4.106 Y13.481 E19.32049
G1 X4.106 Y10.442 E19.35119
G1 X1.851 Y9.140 E19.37751
G1 X1.851 Y6.101 E19.40821
G1 X4.106 Y4.799 E19.43452
G1 X4.106 Y3.490 E19.44775
G1 X4.357 Y3.521 E19.45030
G1 X9.369 Y4.124 F7800.000
G1 X9.369 Y4.799 E19.45712 F1800.000
G1 X11.625 Y6.101 E19.48343
G1 X11.625 Y9.140 E19.51413
G1 X9.369 Y10.442 E19.54045
G1 X9.369 Y13.481 E19.57115
G1 X11.625 Y14.783 E19.59746
G1 X11.625 Y17.822 E19.62816
G1 X9.369 Y19.124 E19.65447
G1 X9.369 Y22.163 E19.68517
G1 X11.625 Y23.465 E19.71149
G1 X11.625 Y26.503 E19.74219
G1 X9.369 Y27.806 E19.76850
G1 X9.369 Y29.355 E19.78416
G1 X9.119 Y29.355 E19.78669
G1 X9.119 Y27.806 E19.80234
G1 X6.863 Y26.503 E19.82866
G1 X6.863 Y23.465 E19.85936
G1 X9.119 Y22.163 E19.88567
G1 X9.119 Y19.124 E19.91637
G1 X6.863 Y17.822 E19.94268
G1 X6.863 Y14.783 E19.97338
G1 X9.119 Y13.481 E19.99970
G1 X9.119 Y10.442 E20.03040
G1 X6.863 Y9.140 E20.05671
G1 X6.863 Y6.101 E20.08741
G1 X9.119 Y4.799 E20.11373
G1 X9.119 Y4.094 E20.12085
G1 X9.369 Y4.124 E20.12340
G1 X14.382 Y4.735 F7800.000
G1 X14.382 Y4.799 E20.12405 F1800.000
G1 X16.637 Y6.101 E20.15037
G1 X16.637 Y9.140 E20.18107
G1 X14.382 Y10.442 E20.20738
G1 X14.382 Y13.481 E20.23808
G1 X16.637 Y14.783 E20.26440
G1 X16.637 Y17.822 E20.29510
G1 X14.382 Y19.124 E20.32141
G1 X14.382 Y22.163 E20.35211
G1 X16.637 Y23.465 E20.37842
G1 X16.637 Y26.503 E20.40912
G1 X14.382 Y27.806 E20.43544
G1 X14.382 Y29.355 E20.45109
G1 X14.131 Y29.355 E20.45362
G1 X14.131 Y27.806 E20.46928
G1 X11.876 Y26.503 E20.49559
G1 X11.876 Y23.465 E20.52629
G1 X14.131 Y22.163 E20.55261
G1 X14.131 Y19.124 E20.58331
G1 X11.876 Y17.822 E20.60962
G1 X11.876 Y14.783 E20.64032
G1 X14.131 Y13.481 E20.66663
G1 X14.131 Y10.442 E20.69733
G1 X11.876 Y9.140 E20.72365
G1 X11.876 Y6.101 E20.75435
G1 X14.131 Y4.799 E20.78066
G1 X14.131 Y4.703 E20.78163
G1 X14.382 Y4.735 E20.78418
G1 X20.655 Y5.527 F7800.000
G1 X21.650 Y6.101 E20.79578 F1800.000
G1 X21.650 Y9.140 E20.82648
G1 X19.394 Y10.442 E20.85280
G1 X19.394 Y13.481 E20.88350
G1 X21.650 Y14.783 E20.90981
G1 X21.650 Y17.822 E20.94051
G1 X19.394 Y19.124 E20.96683
G1 X19.394 Y22.163 E20.99753
G1 X21.650 Y23.465 E21.02384
G1 X21.650 Y26.503 E21.05454
G1 X19.394 Y27.806 E21.08085
