; generated by Slic3r 1.2.9 on 2016-07-14 at 19:11:53

; external perimeters extrusion width = 0.30mm
; perimeters extrusion width = 0.31mm
; infill extrusion width = 0.31mm
; solid infill extrusion width = 0.31mm
; top infill extrusion width = 0.31mm

M107
M104 S215 ; set temperature
G28 ; home all axes
G1 Z5 F5000 ; lift nozzle

M109 S215 ; wait for temperature to be reached
G21 ; set units to millimeters
G90 ; use absolute coordinates
M82 ; use absolute distances for extrusion
G92 E0
G1 E-2.00000 F2400.00000
G92 E0
G1 Z0.100 F7800.000
G1 X0.000 Y36.179 F7800.000
G1 E2.00000 F2400.00000
G1 X-60.000 Y36.179 E2.60620 F1800.000
G1 X-62.178 Y35.782 E2.62857
G1 X-64.077 Y34.642 E2.65094
G1 X-65.452 Y32.907 E2.67331
G1 X-66.179 Y30.000 E2.70358
G1 X-66.179 Y-30.000 E3.30978
G1 X-65.782 Y-32.178 E3.33215
G1 X-64.642 Y-34.077 E3.35452
G1 X-62.907 Y-35.452 E3.37689
G1 X-60.000 Y-36.179 E3.40717
G1 X50.000 Y-36.179 E4.51853
G1 X52.178 Y-35.782 E4.54090
G1 X54.077 Y-34.642 E4.56327 F1800.000
G1 X55.861 Y-31.954 E4.59587
G1 X65.861 Y-1.954 E4.91537
G1 X66.174 Y0.238 E4.93774
G1 X65.861 Y1.954 E4.95535
G1 X55.861 Y31.954 E5.27485
G1 X54.796 Y33.895 E5.29722
G1 X53.115 Y35.336 E5.31959
G1 X50.000 Y36.179 E5.35219
G1 X0.045 Y36.179 E5.85690
G1 F6240
G1 X-5.155 Y36.179 E3.95690
G1 E3.85690 F2400.00000
G92 E0
G1 X52.012 Y22.518 F7800.000
G1 E2.00000 F2400.00000
G1 X49.671 Y29.543 E2.07481 F1800.000
G1 X-59.366 Y29.543 E3.17644
G1 X-58.266 Y26.242 E3.21159
G1 X-51.990 Y25.757 E3.27518
G1 X-47.338 Y25.349 E3.32237
G1 X-42.762 Y24.909 E3.36881
G1 X-36.053 Y24.192 E3.43698
G1 X-31.683 Y23.677 E3.48143
G1 X-25.296 Y22.852 E3.54650
G1 X-19.114 Y21.965 E3.60960
G1 X-13.146 Y21.020 E3.67064
G1 X-9.257 Y20.355 E3.71051
G1 X-3.694 Y19.328 E3.76766
G1 X1.668 Y18.247 E3.82293
G1 X6.789 Y17.121 E3.87590
G1 X10.094 Y16.339 E3.91021
G1 X14.773 Y15.151 E3.95898
G1 X19.222 Y13.921 E4.00563
G1 X23.410 Y12.658 E4.04981
G1 X26.055 Y11.800 E4.07791
G1 X28.581 Y10.931 E4.10490
G1 X30.984 Y10.051 E4.13075
G1 X32.143 Y9.606 E4.14329
G1 X34.363 Y8.713 E4.16747
G1 X36.459 Y7.813 E4.19052
G1 X37.465 Y7.360 E4.20167
G1 X39.376 Y6.454 E4.22303
G1 X41.162 Y5.546 E4.24328
G1 X42.012 Y5.089 E4.25302
G1 X43.608 Y4.181 E4.27158
G1 X45.077 Y3.275 E4.28901
G1 X45.767 Y2.819 E4.29737
G1 X47.037 Y1.919 E4.31310
G1 X47.629 Y1.466 E4.32063
G1 X48.703 Y0.580 E4.33470
G1 X49.200 Y0.137 E4.34142
G1 X50.087 Y-0.724 E4.35391
G1 X50.851 Y-1.561 E4.36536
G1 X51.194 Y-1.979 E4.37083
G1 X51.765 Y-2.780 E4.38076
G1 X52.003 Y-3.185 E4.38551
G1 X52.200 Y-3.584 E4.39001
G1 X52.355 Y-3.983 E4.39433
G1 X52.466 Y-4.382 E4.39851
G1 X52.527 Y-4.781 E4.40259
G1 X52.535 Y-5.178 E4.40660
G1 X52.490 Y-5.569 E4.41058
G1 X52.392 Y-5.953 E4.41458
G1 X52.242 Y-6.326 E4.41865
G1 X52.045 Y-6.689 E4.42282
G1 X51.801 Y-7.042 E4.42716
G1 X51.513 Y-7.388 E4.43170
G1 X51.182 Y-7.727 E4.43649
G1 X50.806 Y-8.068 E4.44162
G1 X49.943 Y-8.730 E4.45260
G1 X48.923 Y-9.389 E4.46488
G1 X48.349 Y-9.721 E4.47158
G1 X47.111 Y-10.376 E4.48573
G1 X45.735 Y-11.028 E4.50111
G1 X44.991 Y-11.354 E4.50932
G1 X43.408 Y-11.997 E4.52658
G1 X41.684 Y-12.631 E4.54514
G1 X40.764 Y-12.945 E4.55496
G1 X38.826 Y-13.560 E4.57551
G1 X36.743 Y-14.162 E4.59741
G1 X33.357 Y-15.036 E4.63274
G1 X29.658 Y-15.878 E4.67107
G1 X27.019 Y-16.420 E4.69829
G1 X24.245 Y-16.947 E4.72682
G1 X21.335 Y-17.457 E4.75666
G1 X18.291 Y-17.950 E4.78782
G1 X15.086 Y-18.429 E4.82056
G1 X10.103 Y-19.105 E4.87137
G1 X6.599 Y-19.535 E4.90704
G1 X2.968 Y-19.947 E4.94396
G1 X-2.712 Y-20.532 E5.00165
G1 X-6.654 Y-20.899 E5.04164
G1 X-12.789 Y-21.417 E5.10385
G1 X-19.188 Y-21.896 E5.16868
G1 X-23.597 Y-22.193 E5.21333
G1 X-32.745 Y-22.732 E5.30591
G1 X-37.474 Y-22.974 E5.35375
G1 X-44.776 Y-23.305 E5.42761
G1 X-52.293 Y-23.598 E5.50361
G1 X-57.442 Y-23.772 E5.55566
G1 X-59.366 Y-29.543 E5.61712
G1 X49.671 Y-29.543 E6.71874
G1 X49.733 Y-29.355 E6.72074
G1 X59.518 Y0.000 E7.03337 F1800.000
G1 X52.026 Y22.476 E7.27273
G1 X52.196 Y22.532 F7800.000
G1 X49.799 Y29.721 E7.34930 F1800.000
G1 X-59.614 Y29.721 E8.45472
G1 X-58.398 Y26.073 E8.49357
G1 X-52.005 Y25.579 E8.55835
G1 X-47.354 Y25.171 E8.60552
G1 X-42.780 Y24.732 E8.65195
G1 X-36.073 Y24.015 E8.72010
G1 X-31.705 Y23.500 E8.76453
G1 X-25.320 Y22.675 E8.82958
G1 X-19.141 Y21.788 E8.89265
G1 X-13.175 Y20.844 E8.95367
G1 X-9.288 Y20.179 E8.99351
G1 X-3.728 Y19.152 E9.05064
G1 X1.631 Y18.072 E9.10587
G1 X6.749 Y16.947 E9.15882
G1 X10.051 Y16.166 E9.19310
G1 X14.727 Y14.979 E9.24184
G1 X19.173 Y13.749 E9.28844
G1 X23.356 Y12.488 E9.33259
G1 X25.999 Y11.631 E9.36066
G1 X28.521 Y10.762 E9.38761
G1 X30.921 Y9.884 E9.41343
G1 X32.077 Y9.440 E9.42594
G1 X34.294 Y8.548 E9.45009
G1 X36.388 Y7.650 E9.47310
G1 X37.390 Y7.198 E9.48421
G1 X39.297 Y6.293 E9.50553
G1 X41.079 Y5.387 E9.52573
G1 X41.925 Y4.933 E9.53544
G1 X43.517 Y4.028 E9.55394
G1 X44.980 Y3.124 E9.57131
G1 X45.666 Y2.672 E9.57961
G1 X46.931 Y1.775 E9.59528
G1 X47.518 Y1.327 E9.60274
G1 X48.587 Y0.445 E9.61674
G1 X49.078 Y0.006 E9.62339
G1 X49.958 Y-0.849 E9.63579
G1 X50.716 Y-1.678 E9.64714
G1 X51.053 Y-2.088 E9.65250
G1 X51.615 Y-2.877 E9.66229
G1 X51.846 Y-3.270 E9.66690
G1 X52.036 Y-3.656 E9.67125
G1 X52.186 Y-4.039 E9.67540
G1 X52.291 Y-4.419 E9.67938
G1 X52.349 Y-4.796 E9.68324
G1 X52.357 Y-5.169 E9.68701
G1 X52.314 Y-5.537 E9.69074
G1 X52.222 Y-5.897 E9.69450
G1 X52.081 Y-6.250 E9.69834
G1 X51.892 Y-6.595 E9.70232
G1 X51.658 Y-6.934 E9.70648
G1 X51.380 Y-7.268 E9.71087
G1 X51.059 Y-7.599 E9.71553
G1 X50.691 Y-7.930 E9.72053
G1 X49.840 Y-8.584 E9.73137
G1 X48.829 Y-9.237 E9.74353
G1 X48.263 Y-9.565 E9.75014
G1 X47.031 Y-10.216 E9.76422
G1 X45.661 Y-10.865 E9.77953
G1 X44.921 Y-11.189 E9.78769
G1 X43.343 Y-11.830 E9.80490
G1 X41.624 Y-12.463 E9.82341
G1 X40.708 Y-12.776 E9.83319
G1 X38.774 Y-13.390 E9.85369
G1 X36.695 Y-13.990 E9.87555
G1 X33.315 Y-14.863 E9.91083
G1 X29.620 Y-15.703 E9.94911
G1 X26.984 Y-16.245 E9.97629
G1 X24.213 Y-16.771 E10.00480
G1 X21.305 Y-17.281 E10.03462
G1 X18.264 Y-17.774 E10.06575
G1 X15.061 Y-18.252 E10.09847
G1 X10.080 Y-18.928 E10.14926
G1 X6.578 Y-19.358 E10.18490
G1 X2.948 Y-19.770 E10.22181
G1 X-2.730 Y-20.354 E10.27948
G1 X-6.670 Y-20.721 E10.31946
G1 X-12.803 Y-21.239 E10.38165
G1 X-19.201 Y-21.718 E10.44646
G1 X-23.609 Y-22.015 E10.49110
G1 X-32.755 Y-22.554 E10.58367
G1 X-37.483 Y-22.796 E10.63149
G1 X-44.784 Y-23.127 E10.70533
G1 X-52.300 Y-23.420 E10.78133
G1 X-57.572 Y-23.598 E10.83463
G1 X-59.614 Y-29.721 E10.89984
G1 X49.799 Y-29.721 E12.00527
G1 X49.902 Y-29.412 E12.00857
G1 X59.706 Y0.000 E12.32180 F1800.000
G1 X52.210 Y22.489 E12.56131
G1 X52.379 Y22.546 F7800.000
G1 X49.928 Y29.900 E12.63963 F1800.000
G1 X-59.861 Y29.900 E13.74886
G1 X-58.529 Y25.905 E13.79141
G1 X-52.020 Y25.401 E13.85738
G1 X-47.370 Y24.993 E13.90453
G1 X-42.798 Y24.554 E13.95094
G1 X-36.093 Y23.837 E14.01907
G1 X-31.727 Y23.323 E14.06348
G1 X-25.344 Y22.498 E14.12850
G1 X-19.167 Y21.612 E14.19155
G1 X-13.204 Y20.668 E14.25255
G1 X-9.320 Y20.003 E14.29237
G1 X-3.762 Y18.977 E14.34947
G1 X1.594 Y17.897 E14.40467
G1 X6.709 Y16.773 E14.45758
G1 X10.009 Y15.992 E14.49184
G1 X14.681 Y14.806 E14.54054
G1 X19.123 Y13.578 E14.58711
G1 X23.303 Y12.318 E14.63121
G1 X25.942 Y11.462 E14.65924
G1 X28.461 Y10.594 E14.68616
G1 X30.859 Y9.717 E14.71196
G1 X32.012 Y9.274 E14.72444
G1 X34.226 Y8.383 E14.74855
G1 X36.316 Y7.486 E14.77152
G1 X37.315 Y7.036 E14.78260
G1 X39.218 Y6.133 E14.80388
G1 X40.996 Y5.229 E14.82403
G1 X41.839 Y4.777 E14.83370
G1 X43.426 Y3.874 E14.85215
G1 X44.884 Y2.974 E14.86946
G1 X45.565 Y2.524 E14.87770
G1 X46.825 Y1.631 E14.89331
G1 X47.407 Y1.187 E14.90070
G1 X48.471 Y0.309 E14.91463
G1 X48.956 Y-0.124 E14.92121
G1 X49.830 Y-0.973 E14.93352
G1 X50.581 Y-1.795 E14.94476
G1 X50.911 Y-2.197 E14.95002
G1 X51.465 Y-2.974 E14.95966
G1 X51.689 Y-3.355 E14.96413
G1 X51.873 Y-3.728 E14.96833
G1 X52.016 Y-4.095 E14.97231
G1 X52.116 Y-4.457 E14.97610
G1 X52.170 Y-4.812 E14.97973
G1 X52.178 Y-5.161 E14.98326
G1 X52.138 Y-5.504 E14.98675
G1 X52.052 Y-5.841 E14.99027
G1 X51.919 Y-6.174 E14.99388
G1 X51.740 Y-6.502 E14.99766
G1 X51.516 Y-6.826 E15.00164
G1 X51.248 Y-7.149 E15.00588
G1 X50.935 Y-7.470 E15.01041
G1 X50.577 Y-7.793 E15.01528
G1 X49.737 Y-8.438 E15.02597
G1 X48.736 Y-9.084 E15.03802
G1 X48.176 Y-9.409 E15.04455
G1 X46.951 Y-10.056 E15.05856
G1 X45.587 Y-10.703 E15.07381
G1 X44.852 Y-11.025 E15.08192
G1 X43.279 Y-11.664 E15.09907
G1 X41.564 Y-12.295 E15.11753
G1 X40.652 Y-12.606 E15.12726
G1 X38.722 Y-13.219 E15.14772
G1 X36.648 Y-13.817 E15.16953
G1 X33.272 Y-14.689 E15.20476
G1 X29.582 Y-15.529 E15.24299
G1 X26.950 Y-16.070 E15.27015
G1 X24.181 Y-16.596 E15.29862
G1 X21.276 Y-17.105 E15.32842
G1 X18.236 Y-17.597 E15.35953
G1 X15.036 Y-18.076 E15.39223
G1 X10.057 Y-18.751 E15.44299
G1 X6.557 Y-19.181 E15.47861
G1 X2.929 Y-19.592 E15.51550
G1 X-2.747 Y-20.176 E15.57315
G1 X-6.685 Y-20.543 E15.61312
G1 X-12.818 Y-21.061 E15.67529
G1 X-19.213 Y-21.540 E15.74009
G1 X-23.620 Y-21.837 E15.78471
G1 X-32.765 Y-22.376 E15.87727
G1 X-37.491 Y-22.618 E15.92508
G1 X-44.791 Y-22.949 E15.99891
G1 X-52.306 Y-23.241 E16.07489
G1 X-57.703 Y-23.424 E16.12945
G1 X-59.861 Y-29.900 E16.19842
G1 X49.928 Y-29.900 E17.30765
G1 X50.072 Y-29.468 E17.31224
G1 X59.895 Y0.000 E17.62608 F1800.000
G1 X52.394 Y22.503 E17.86573
G1 X52.085 Y22.606 F7800.000
G1 X50.472 Y26.546 F7800.000
G1 X50.398 Y26.503 E17.86659 F1800.000
G1 X50.398 Y23.465 E17.89729
G1 X51.761 Y22.678 E17.91319
G1 X50.472 Y26.546 E17.95439
G1 X40.122 Y9.140 F7800.000
G1 X37.867 Y10.442 E17.98070 F1800.000
G1 X37.867 Y13.481 E18.01140
G1 X40.122 Y14.783 E18.03772
G1 X40.122 Y17.822 E18.06842
G1 X37.867 Y19.124 E18.09473
G1 X37.867 Y22.163 E18.12543
G1 X40.122 Y23.465 E18.15174
G1 X40.122 Y26.503 E18.18244
G1 X37.867 Y27.806 E18.20876
G1 X37.867 Y29.355 E18.22441
G1 X37.616 Y29.355 E18.22694
G1 X37.616 Y27.806 E18.24260
G1 X35.361 Y26.503 E18.26891
G1 X35.361 Y23.465 E18.29961
G1 X37.616 Y22.163 E18.32593
G1 X37.616 Y19.124 E18.35663
G1 X35.361 Y17.822 E18.38294
G1 X35.361 Y14.783 E18.41364
G1 X37.616 Y13.481 E18.43995
G1 X37.616 Y10.442 E18.47065
G1 X35.361 Y9.140 E18.49697
G1 X35.361 Y8.489 E18.50355
G1 X37.543 Y7.530 E18.52763
G1 X39.458 Y6.622 E18.54905
G1 X40.122 Y6.285 E18.55657
G1 X40.122 Y9.140 E18.58542
G1 X35.110 Y9.140 F7800.000
G1 X32.854 Y10.442 E18.61174 F1800.000
G1 X32.854 Y13.481 E18.64244
G1 X35.110 Y14.783 E18.66875
G1 X35.110 Y17.822 E18.69945
G1 X32.854 Y19.124 E18.72576
G1 X32.854 Y22.163 E18.75646
G1 X35.110 Y23.465 E18.78278
G1 X35.110 Y26.503 E18.81348
G1 X32.854 Y27.806 E18.83979
G1 X32.854 Y29.355 E18.85545
G1 X32.604 Y29.355 E18.85798
G1 X32.604 Y27.806 E18.87363
G1 X30.348 Y26.503 E18.89995
G1 X30.348 Y23.465 E18.93065
G1 X32.604 Y22.163 E18.95696
G1 X32.604 Y19.124 E18.98766
G1 X30.348 Y17.822 E19.01397
G1 X30.348 Y14.783 E19.04467
G1 X32.604 Y13.481 E19.07099
G1 X32.604 Y10.442 E19.10169
G1 X31.759 Y9.955 E19.11154
G1 X34.435 Y8.886 E19.14065
G1 X35.110 Y8.597 E19.14807
G1 X35.110 Y9.140 E19.15357
G1 X27.842 Y13.481 F7800.000
G1 X30.098 Y14.783 E19.17988 F1800.000
G1 X30.098 Y17.822 E19.21058
G1 X27.842 Y19.124 E19.23689
G1 X27.842 Y22.163 E19.26759
G1 X30.098 Y23.465 E19.29391
G1 X30.098 Y26.503 E19.32461
G1 X27.842 Y27.806 E19.35092
G1 X27.842 Y29.355 E19.36658
G1 X27.591 Y29.355 E19.36911
G1 X27.591 Y27.806 E19.38476
G1 X25.336 Y26.503 E19.41108
G1 X25.336 Y23.465 E19.44178
G1 X27.591 Y22.163 E19.46809
G1 X27.591 Y19.124 E19.49879
G1 X25.336 Y17.822 E19.52510
G1 X25.336 Y14.783 E19.55580
G1 X27.591 Y13.481 E19.58212
G1 X27.591 Y11.470 E19.60244
G1 X27.842 Y11.384 E19.60511
G1 X27.842 Y13.481 E19.62630
G1 X22.830 Y13.481 F7800.000
G1 X25.085 Y14.783 E19.65262 F1800.000
G1 X25.085 Y17.822 E19.68332
G1 X22.830 Y19.124 E19.70963
G1 X22.830 Y22.163 E19.74033
G1 X25.085 Y23.465 E19.76665
G1 X25.085 Y26.503 E19.79735
G1 X22.830 Y27.806 E19.82366
G1 X22.830 Y29.355 E19.83931
G1 X22.579 Y29.355 E19.84185
G1 X22.579 Y27.806 E19.85750
G1 X20.324 Y26.503 E19.88381
G1 X20.324 Y23.465 E19.91451
G1 X22.579 Y22.163 E19.94083
G1 X22.579 Y19.124 E19.97153
G1 X20.324 Y17.822 E19.99784
G1 X20.324 Y14.783 E20.02854
G1 X22.579 Y13.481 E20.05486
G1 X22.579 Y13.105 E20.05865
G1 X22.830 Y13.029 E20.06130
G1 X22.830 Y13.481 E20.06586
G1 X20.073 Y14.783 F7800.000
G1 X20.073 Y17.822 E20.09656 F1800.000
G1 X17.817 Y19.124 E20.12287
G1 X17.817 Y22.163 E20.15357
G1 X20.073 Y23.465 E20.17989
G1 X20.073 Y26.503 E20.21059
G1 X17.817 Y27.806 E20.23690
G1 X17.817 Y29.355 E20.25256
G1 X17.567 Y29.355 E20.25509
G1 X17.567 Y27.806 E20.27074
G1 X15.311 Y26.503 E20.29706
G1 X15.311 Y23.465 E20.32776
G1 X17.567 Y22.163 E20.35407
G1 X17.567 Y19.124 E20.38477
G1 X15.311 Y17.822 E20.41109
G1 X15.311 Y15.197 E20.43760
G1 X19.016 Y14.173 E20.47643
G1 X20.073 Y14.783 E20.48877
G1 X15.061 Y17.822 F7800.000
G1 X12.805 Y19.124 E20.51508 F1800.000
G1 X12.805 Y22.163 E20.54578
G1 X15.061 Y23.465 E20.57210
G1 X15.061 Y26.503 E20.60280
G1 X12.805 Y27.806 E20.62911
G1 X12.805 Y29.355 E20.64476
G1 X12.554 Y29.355 E20.64730
G1 X12.554 Y27.806 E20.66295
G1 X10.299 Y26.503 E20.68926
G1 X10.299 Y23.465 E20.71996
G1 X12.554 Y22.163 E20.74628
G1 X12.554 Y19.124 E20.77698
G1 X10.299 Y17.822 E20.80329
G1 X10.299 Y16.481 E20.81684
G1 X15.061 Y15.267 E20.86649
G1 X15.061 Y17.822 E20.89230
G1 X10.048 Y17.822 F7800.000
G1 X7.793 Y19.124 E20.91862 F1800.000
G1 X7.793 Y22.163 E20.94932
G1 X10.048 Y23.465 E20.97563
G1 X10.048 Y26.503 E21.00633
G1 X7.793 Y27.806 E21.03264
G1 X7.793 Y29.355 E21.04830
G1 X7.542 Y29.355 E21.05083
G1 X7.542 Y27.806 E21.06648
G1 X5.286 Y26.503 E21.09280
G1 X5.286 Y23.465 E21.12350
G1 X7.542 Y22.163 E21.14981
G1 X7.542 Y19.124 E21.18051
G1 X5.286 Y17.822 E21.20683
G1 X5.286 Y17.643 E21.20863
G1 X6.830 Y17.304 E21.22460
G1 X10.048 Y16.543 E21.25801
G1 X10.048 Y17.822 E21.27093
G1 X5.036 Y17.822 F7800.000
G1 X2.780 Y19.124 E21.29724 F1800.000
G1 X2.780 Y22.163 E21.32794
G1 X5.036 Y23.465 E21.35426
G1 X5.036 Y26.503 E21.38496
G1 X2.780 Y27.806 E21.41127
G1 X2.780 Y29.355 E21.42692
G1 X2.530 Y29.355 E21.42946
G1 X2.530 Y27.806 E21.44511
G1 X0.274 Y26.503 E21.47142
G1 X0.274 Y23.465 E21.50212
G1 X2.530 Y22.163 E21.52844
G1 X2.530 Y19.124 E21.55914
G1 X1.426 Y18.487 E21.57201
G1 X5.036 Y17.698 E21.60934
G1 X5.036 Y17.822 E21.61059
G1 X-2.232 Y22.163 F7800.000
G1 X0.023 Y23.465 E21.63690 F1800.000
G1 X0.023 Y26.503 E21.66760
G1 X-2.232 Y27.806 E21.69391
G1 X-2.232 Y29.355 E21.70957
G1 X-2.483 Y29.355 E21.71210
G1 X-2.483 Y27.806 E21.72775
G1 X-4.738 Y26.503 E21.75407
G1 X-4.738 Y23.465 E21.78477
G1 X-2.483 Y22.163 E21.81108
G1 X-2.483 Y19.275 E21.84026
G1 X-2.232 Y19.224 E21.84284
G1 X-2.232 Y22.163 E21.87252
G1 X-7.245 Y22.163 F7800.000
G1 X-4.989 Y23.465 E21.89884 F1800.000
G1 X-4.989 Y26.503 E21.92954
G1 X-7.245 Y27.806 E21.95585
G1 X-7.245 Y29.355 E21.97151
G1 X-7.495 Y29.355 E21.97404
G1 X-7.495 Y27.806 E21.98969
G1 X-9.751 Y26.503 E22.01601
G1 X-9.751 Y23.465 E22.04671
G1 X-7.495 Y22.163 E22.07302
G1 X-7.495 Y20.220 E22.09265
G1 X-7.245 Y20.174 E22.09522
G1 X-7.245 Y22.163 E22.11531
G1 X-12.257 Y22.163 F7800.000
G1 X-10.001 Y23.465 E22.14163 F1800.000
G1 X-10.001 Y26.503 E22.17233
G1 X-12.257 Y27.806 E22.19864
G1 X-12.257 Y29.355 E22.21429
G1 X-12.508 Y29.355 E22.21683
G1 X-12.508 Y27.806 E22.23248
G1 X-14.763 Y26.503 E22.25879
G1 X-14.763 Y23.465 E22.28949
G1 X-12.508 Y22.163 E22.31581
G1 X-12.508 Y21.102 E22.32653
G1 X-12.257 Y21.059 E22.32910
G1 X-12.257 Y22.163 E22.34025
G1 X-17.269 Y22.163 F7800.000
G1 X-15.014 Y23.465 E22.36657 F1800.000
G1 X-15.014 Y26.503 E22.39727
G1 X-17.269 Y27.806 E22.42358
G1 X-17.269 Y29.355 E22.43923
G1 X-17.520 Y29.355 E22.44177
G1 X-17.520 Y27.806 E22.45742
G1 X-19.776 Y26.503 E22.48373
G1 X-19.776 Y23.465 E22.51443
G1 X-17.520 Y22.163 E22.54075
G1 X-17.520 Y21.903 E22.54337
G1 X-17.269 Y21.863 E22.54594
G1 X-17.269 Y22.163 E22.54896
G1 X-20.026 Y23.465 F7800.000
G1 X-20.026 Y26.503 E22.57966 F1800.000
G1 X-22.282 Y27.806 E22.60598
G1 X-22.282 Y29.355 E22.62163
G1 X-22.532 Y29.355 E22.62416
G1 X-22.532 Y27.806 E22.63982
G1 X-24.788 Y26.503 E22.66613
