; generated by Slic3r 1.2.9 on 2016-07-14 at 19:18:08

; external perimeters extrusion width = 0.30mm
; perimeters extrusion width = 0.31mm
; infill extrusion width = 0.31mm
; solid infill extrusion width = 0.31mm
; top infill extrusion width = 0.31mm

M107
M104 S215 ; set temperature
G28 ; home all axes
G1 Z5 F5000 ; lift nozzle

M109 S215 ; wait for temperature to be reached
G21 ; set units to millimeters
G90 ; use absolute coordinates
M82 ; use absolute distances for extrusion
G92 E0
G1 E-2.00000 F2400.00000
G92 E0
G1 Z0.100 F7800.000
G1 X-1.013 Y-8.619 F7800.000
G1 E2.00000 F2400.00000
G1 X5.042 Y-9.305 E2.06157 F1800.000
G1 X12.081 Y-10.039 E2.13307
G1 X19.641 Y-10.768 E2.20981
G1 X29.357 Y-11.636 E2.30836
G1 X31.561 Y-11.428 E2.33073
G1 X33.551 Y-10.456 E2.35310 F1800.000
G1 X35.070 Y-8.845 E2.37547
G1 X35.749 Y-7.434 E2.39129
G1 X39.402 Y3.526 E2.50801
G1 X39.715 Y5.718 E2.53039
G1 X39.234 Y7.880 E2.55276
G1 X38.023 Y9.733 E2.57513
G1 X36.235 Y11.040 E2.59750
G1 X33.334 Y11.655 E2.62747
G1 X-33.700 Y9.405 E3.30511
G1 X-35.864 Y8.935 E3.32748
G1 X-37.723 Y7.733 E3.34985
G1 X-39.039 Y5.952 E3.37222
G1 X-39.643 Y3.822 E3.39459
G1 X-39.456 Y1.615 E3.41696
G1 X-38.504 Y-0.384 E3.43933
G1 X-36.908 Y-1.919 E3.46170
G1 X-34.731 Y-2.824 E3.48552
G1 X-22.027 Y-5.418 E3.61652
G1 X-18.847 Y-6.024 E3.64923
G1 X-16.555 Y-6.430 E3.67275
G1 X-12.822 Y-7.039 E3.71097
G1 X-8.838 Y-7.623 E3.75165
G1 X-4.518 Y-8.192 E3.79567
G1 X-1.058 Y-8.614 E3.83088
G1 F6240
G1 X4.109 Y-9.199 E1.93088
G1 E1.83088 F2400.00000
G92 E0
G1 X6.055 Y-2.728 F7800.000
G1 E2.00000 F2400.00000
G1 X10.940 Y-3.254 E2.04964 F1800.000
G1 X20.251 Y-4.161 E2.14415
G1 X29.568 Y-4.993 E2.23866
G1 X29.708 Y-4.575 E2.24311
G1 X32.889 Y4.968 E2.34474 F1800.000
G1 X23.786 Y4.230 E2.43701
G1 X19.466 Y3.911 E2.48078
G1 X13.248 Y3.489 E2.54375
G1 X9.281 Y3.245 E2.58390
G1 X3.612 Y2.935 E2.64126
G1 X0.025 Y2.764 E2.67755
G1 X-5.053 Y2.562 E2.72889
G1 X-8.231 Y2.463 E2.76101
G1 X-12.671 Y2.365 E2.80589
G1 X-16.711 Y2.321 E2.84670
G1 X-20.335 Y2.325 E2.88331
G1 X-23.532 Y2.366 E2.91562
G1 X-26.813 Y2.451 E2.94878
G1 X-26.825 Y2.354 E2.94977
G1 X-20.727 Y1.088 E3.01269
G1 X-16.545 Y0.304 E3.05568
G1 X-13.055 Y-0.285 E3.09144
G1 X-10.555 Y-0.672 E3.11700
G1 X-7.912 Y-1.052 E3.14397
G1 X-3.679 Y-1.610 E3.18711
G1 X2.466 Y-2.342 E3.24964
G1 X6.011 Y-2.724 E3.28565
G1 X5.992 Y-2.901 F7800.000
G1 X10.922 Y-3.431 E3.33575 F1800.000
G1 X20.235 Y-4.338 E3.43029
G1 X29.693 Y-5.183 E3.52623
G1 X29.854 Y-4.702 E3.53136
G1 X33.143 Y5.168 E3.63647 F1800.000
G1 X23.772 Y4.408 E3.73146
G1 X19.453 Y4.089 E3.77522
G1 X13.236 Y3.668 E3.83817
G1 X9.271 Y3.424 E3.87831
G1 X3.603 Y3.113 E3.93566
G1 X0.017 Y2.942 E3.97193
G1 X-5.059 Y2.741 E4.02326
G1 X-8.235 Y2.642 E4.05536
G1 X-12.674 Y2.544 E4.10022
G1 X-16.712 Y2.500 E4.14101
G1 X-20.333 Y2.503 E4.17760
G1 X-23.529 Y2.545 E4.20989
G1 X-27.111 Y2.638 E4.24610
G1 X-28.912 Y2.712 E4.26431
G1 X-28.925 Y2.614 E4.26531
G1 X-20.761 Y0.913 E4.34956
G1 X-16.576 Y0.128 E4.39258
G1 X-13.083 Y-0.461 E4.42837
G1 X-10.581 Y-0.849 E4.45395
G1 X-7.937 Y-1.229 E4.48094
G1 X-3.701 Y-1.787 E4.52410
G1 X2.446 Y-2.520 E4.58665
G1 X5.947 Y-2.896 E4.62222
G1 X5.928 Y-3.074 F7800.000
G1 X10.904 Y-3.609 E4.67279 F1800.000
G1 X20.218 Y-4.516 E4.76733
G1 X29.818 Y-5.373 E4.86471
G1 X30.023 Y-4.758 E4.87126
G1 X33.398 Y5.368 E4.97910 F1800.000
G1 X23.758 Y4.586 E5.07682
G1 X19.440 Y4.268 E5.12056
G1 X13.225 Y3.846 E5.18350
G1 X9.261 Y3.602 E5.22363
G1 X3.594 Y3.291 E5.28097
G1 X0.009 Y3.121 E5.31723
G1 X-5.065 Y2.919 E5.36854
G1 X-8.240 Y2.820 E5.40063
G1 X-12.677 Y2.722 E5.44547
G1 X-16.713 Y2.678 E5.48624
G1 X-20.332 Y2.682 E5.52281
G1 X-23.525 Y2.723 E5.55507
G1 X-27.105 Y2.816 E5.59126
G1 X-31.175 Y2.996 E5.63242
G1 X-31.188 Y2.896 E5.63343
G1 X-20.795 Y0.738 E5.74066
G1 X-16.607 Y-0.047 E5.78372
G1 X-13.112 Y-0.637 E5.81953
G1 X-10.607 Y-1.025 E5.84513
G1 X-7.961 Y-1.406 E5.87215
G1 X-3.723 Y-1.964 E5.91533
G1 X2.426 Y-2.697 E5.97790
G1 X5.883 Y-3.069 E6.01303
G1 X6.105 Y-2.832 F7800.000
G1 X-31.281 Y2.959 F7800.000
G1 X-32.704 Y3.137 E6.02753 F1800.000
G1 X-30.541 Y2.864 F7800.000
G1 X-29.914 Y2.788 E6.03392 F1800.000
G1 X-29.914 Y2.788 F7800.000
G1 X-29.007 Y2.674 E6.05349 F1800.000
G1 X-28.373 Y2.595 F7800.000
G1 X-27.782 Y2.521 E6.05951 F1800.000
G1 X-26.908 Y2.413 E6.07838 F1800.000
G1 X-26.315 Y2.344 F7800.000
G1 X-25.778 Y2.281 E6.08385 F1800.000
G1 X-25.778 Y2.281 F7800.000
G1 X-24.953 Y2.184 E6.10164 F1800.000
G1 X-20.886 Y2.144 F7800.000
G1 X-21.137 Y2.147 E6.10417 F1800.000
G1 X-21.137 Y1.365 E6.11208
G1 X-20.886 Y1.313 E6.11466
G1 X-20.886 Y2.144 E6.12306
G1 X-15.874 Y2.142 F7800.000
G1 X-16.124 Y2.140 E6.12559 F1800.000
G1 X-16.124 Y0.424 E6.14293
G1 X-15.874 Y0.381 E6.14550
G1 X-15.874 Y2.142 E6.16329
G1 X-10.861 Y0.231 F7800.000
G1 X-10.861 Y2.217 E6.18336 F1800.000
G1 X-11.112 Y2.212 E6.18589
G1 X-11.112 Y0.231 E6.20590
G1 X-11.968 Y-0.263 E6.21589
G1 X-9.317 Y-0.660 E6.24297
G1 X-10.861 Y0.231 E6.26099
G1 X-3.593 Y-1.071 F7800.000
G1 X-5.849 Y0.231 E6.28730 F1800.000
G1 X-5.849 Y2.350 E6.30870
G1 X-6.100 Y2.342 E6.31124
G1 X-6.100 Y0.231 E6.33256
G1 X-7.977 Y-0.853 E6.35447
G1 X-3.593 Y-1.431 E6.39914
G1 X-3.593 Y-1.071 E6.40278
G1 X1.419 Y-1.071 F7800.000
G1 X-0.837 Y0.231 E6.42910 F1800.000
G1 X-0.837 Y2.542 E6.45244
G1 X-1.087 Y2.532 E6.45498
G1 X-1.087 Y0.231 E6.47822
G1 X-3.343 Y-1.071 E6.50453
G1 X-3.343 Y-1.461 E6.50847
G1 X1.419 Y-2.028 E6.55692
G1 X1.419 Y-1.071 E6.56660
G1 X6.431 Y-1.071 F7800.000
G1 X4.176 Y0.231 E6.59291 F1800.000
G1 X4.176 Y2.777 E6.61864
G1 X3.925 Y2.764 E6.62117
G1 X3.925 Y0.231 E6.64676
G1 X1.670 Y-1.071 E6.67307
G1 X1.670 Y-2.058 E6.68305
G1 X6.431 Y-2.580 E6.73145
G1 X6.431 Y-1.071 E6.74669
G1 X11.444 Y-1.071 F7800.000
G1 X9.188 Y0.231 E6.77300 F1800.000
G1 X9.188 Y3.052 E6.80151
G1 X8.938 Y3.038 E6.80404
G1 X8.938 Y0.231 E6.83240
G1 X6.682 Y-1.071 E6.85872
G1 X6.682 Y-2.607 E6.87423
G1 X11.444 Y-3.114 E6.92262
G1 X11.444 Y-1.071 E6.94326
G1 X16.456 Y-1.071 F7800.000
G1 X14.201 Y0.231 E6.96957 F1800.000
G1 X14.201 Y3.270 E7.00027
G1 X14.389 Y3.379 E7.00247
G1 X13.827 Y3.341 E7.00816
G1 X13.950 Y3.270 E7.00959
G1 X13.950 Y0.231 E7.04029
G1 X11.694 Y-1.071 E7.06660
G1 X11.694 Y-3.139 E7.08749
G1 X16.456 Y-3.602 E7.13583
G1 X16.456 Y-1.071 E7.16140
G1 X21.469 Y-1.071 F7800.000
G1 X19.213 Y0.231 E7.18772 F1800.000
G1 X19.213 Y3.270 E7.21842
G1 X20.076 Y3.768 E7.22849
G1 X18.313 Y3.645 E7.24635
G1 X18.962 Y3.270 E7.25393
G1 X18.962 Y0.231 E7.28463
G1 X16.707 Y-1.071 E7.31094
G1 X16.707 Y-3.627 E7.33676
G1 X21.469 Y-4.081 E7.38509
G1 X21.469 Y-1.071 E7.41550
G1 X26.481 Y-4.110 F7800.000
G1 X26.481 Y-1.071 E7.44620 F1800.000
G1 X24.225 Y0.231 E7.47251
G1 X24.225 Y3.270 E7.50321
G1 X25.853 Y4.210 E7.52220
G1 X22.767 Y3.967 E7.55348
G1 X23.975 Y3.270 E7.56756
G1 X23.975 Y0.231 E7.59826
G1 X21.719 Y-1.071 E7.62458
G1 X21.719 Y-4.103 E7.65521
G1 X25.853 Y-4.472 E7.69714
G1 X26.481 Y-4.110 E7.70447
G1 X29.517 Y-4.552 F7800.000
G1 X30.809 Y-0.676 E7.74575 F1800.000
G1 X29.238 Y0.231 E7.76408
G1 X29.238 Y3.270 E7.79478
G1 X31.493 Y4.572 E7.82110
G1 X31.493 Y4.667 E7.82205
G1 X27.174 Y4.317 E7.86584
G1 X28.987 Y3.270 E7.88699
G1 X28.987 Y0.231 E7.91769
G1 X26.732 Y-1.071 E7.94400
G1 X26.732 Y-4.110 E7.97470
G1 X27.635 Y-4.632 E7.98525
G1 X29.437 Y-4.792 E8.00353
G1 X29.517 Y-4.552 E8.00609
G1 X32.621 Y4.758 F7800.000
G1 X31.744 Y4.687 E8.01497 F1800.000
G1 X31.744 Y4.572 E8.01614
G1 X32.427 Y4.178 E8.02411
G1 X32.621 Y4.758 E8.03029
G1 F6240
G1 X32.427 Y4.178 E7.80666
G1 F6240
G1 X31.744 Y4.572 E7.51839
G1 F6240
G1 X31.744 Y4.687 E7.47634
G1 F6240
G1 X32.621 Y4.758 E7.15492
G1 E6.03029 F2400.00000
G92 E0
G1 Z0.400 F7800.000
G1 X-4.487 Y2.390 F7800.000
G1 E2.00000 F2400.00000
G1 X-8.026 Y2.277 E2.15063 F3600.000
G1 X-12.468 Y2.178 E2.33970
G1 X-16.510 Y2.135 E2.51167
G1 X-20.136 Y2.138 E2.66593
G1 X-24.346 Y2.206 E2.84509
G1 X-24.362 Y2.069 E2.85093
G1 X-22.381 Y1.654 E2.93703
G1 X-18.467 Y0.881 E3.10680
G1 X-15.184 Y0.291 E3.24872
G1 X-12.826 Y-0.101 E3.35042
G1 X-10.327 Y-0.488 E3.45799
G1 X-7.686 Y-0.867 E3.57151
G1 X-4.902 Y-1.240 E3.69102
G1 X-0.455 Y-1.792 E3.88166
G1 X4.312 Y-2.339 E4.08585
G1 X9.396 Y-2.886 E4.30337
G1 X18.542 Y-3.794 E4.69444
G1 X29.443 Y-4.778 E5.16012
G1 X30.433 Y-1.808 E5.29331
G1 X32.616 Y4.742 E5.58705 F3600.000
G1 X24.000 Y4.044 E5.95484
G1 X19.679 Y3.725 E6.13920
G1 X13.460 Y3.303 E6.40440
G1 X9.492 Y3.059 E6.57354
G1 X3.822 Y2.748 E6.81515
G1 X0.233 Y2.578 E6.96802
G1 X-4.442 Y2.392 E7.16708
G1 X-4.452 Y2.642 F7800.000
G1 X-8.032 Y2.527 E7.31949 F3600.000
G1 X-12.472 Y2.429 E7.50845
G1 X-16.511 Y2.385 E7.68029
G1 X-20.134 Y2.389 E7.83443
G1 X-23.331 Y2.430 E7.97045
G1 X-27.112 Y2.531 E8.13136
G1 X-27.129 Y2.394 E8.13725
G1 X-22.431 Y1.408 E8.34145
G1 X-18.513 Y0.635 E8.51138
G1 X-15.226 Y0.044 E8.65346
G1 X-12.865 Y-0.348 E8.75529
G1 X-10.364 Y-0.735 E8.86298
G1 X-7.721 Y-1.115 E8.97661
G1 X-4.934 Y-1.489 E9.09622
G1 X-0.485 Y-2.041 E9.28696
G1 X4.285 Y-2.588 E9.49124
G1 X9.370 Y-3.135 E9.70884
G1 X18.518 Y-4.043 E10.09999
G1 X29.618 Y-5.045 E10.57418
G1 X30.671 Y-1.887 E10.71578
G1 X32.974 Y5.022 E11.02565 F3600.000
G1 X23.981 Y4.294 E11.40953
G1 X19.661 Y3.975 E11.59382
G1 X13.444 Y3.553 E11.85896
G1 X9.478 Y3.309 E12.02802
G1 X3.809 Y2.999 E12.26957
G1 X0.222 Y2.828 E12.42236
G1 X-4.407 Y2.644 E12.61946
G1 X-4.417 Y2.887 F7800.000
G1 X-8.039 Y2.770 E12.76441 F1800.000
G1 X-12.476 Y2.672 E12.94197
G1 X-16.512 Y2.628 E13.10341
G1 X-20.132 Y2.632 E13.24821
G1 X-23.326 Y2.673 E13.37597
G1 X-26.907 Y2.766 E13.51925
G1 X-30.053 Y2.896 E13.64519
G1 X-30.069 Y2.763 E13.65056
G1 X-22.480 Y1.170 E13.96074
G1 X-18.558 Y0.396 E14.12064
G1 X-15.268 Y-0.195 E14.25436
G1 X-12.904 Y-0.588 E14.35022
G1 X-10.400 Y-0.976 E14.45156
G1 X-7.754 Y-1.356 E14.55849
G1 X-4.965 Y-1.730 E14.67104
G1 X-0.514 Y-2.282 E14.85046
G1 X4.258 Y-2.830 E15.04259
G1 X9.345 Y-3.377 E15.24724
G1 X18.495 Y-4.286 E15.61505
G1 X29.788 Y-5.303 E16.06861
G1 X30.902 Y-1.964 E16.20942
G1 X33.321 Y5.294 E16.51545 F1800.000
G1 X23.962 Y4.537 E16.89103
G1 X19.644 Y4.218 E17.06423
G1 X13.428 Y3.796 E17.31344
G1 X9.463 Y3.552 E17.47232
G1 X3.796 Y3.241 E17.69934
G1 X0.211 Y3.071 E17.84291
G1 X-4.372 Y2.889 E18.02638
G1 X-4.558 Y2.622 F7800.000
G1 X-17.765 Y1.775 F7800.000
G1 X-19.394 Y1.601 F7800.000
G1 X-20.404 Y1.702 F7800.000
G1 X-21.254 Y1.790 F7800.000
G1 X-21.278 Y1.793 F7800.000
G1 X-30.210 Y2.848 F7800.000
G1 X-32.131 Y3.093 E18.10878 F1800.000
G1 X-29.301 Y2.735 F7800.000
G1 X-28.366 Y2.618 E18.14890 F1200.000
G1 X-28.366 Y2.618 F7800.000
G1 X-27.241 Y2.478 E18.25776 F1200.000
G1 X-26.389 Y2.376 F7800.000
G1 X-25.539 Y2.276 E18.29419 F1200.000
G1 X-25.539 Y2.276 F7800.000
G1 X-24.478 Y2.152 E18.39668 F1200.000
G1 X-23.634 Y2.053 F7800.000
G1 X-22.826 Y1.962 E18.43126 F1200.000
G1 X-22.826 Y1.962 F7800.000
G1 X-21.798 Y1.852 E18.53057 F1200.000
G1 X-21.011 Y1.937 F7800.000
G1 X-21.574 Y1.944 E18.55450 F4800.000
G1 X-21.598 Y1.716 E18.56423
G1 X-21.011 Y1.601 E18.58966
G1 X-21.011 Y1.937 E18.60395
G1 X-10.987 Y0.448 F7800.000
G1 X-10.987 Y1.998 E18.66989 F4800.000
G1 X-15.999 Y1.927 E18.88318
G1 X-15.999 Y0.654 E18.93734
G1 X-11.831 Y-0.039 E19.11712
G1 X-10.987 Y0.448 E19.15859
G1 X-10.861 Y0.231 F7800.000
G1 X-11.436 Y-0.100 E19.18680 F4800.000
G1 X-9.877 Y-0.337 E19.25387
G1 X-10.861 Y0.231 E19.30222
G1 X-0.962 Y0.448 F7800.000
G1 X-0.962 Y2.317 E19.38173 F4800.000
G1 X-5.974 Y2.127 E19.59514
G1 X-5.974 Y0.448 E19.66658
G1 X-7.841 Y-0.630 E19.75831
G1 X-7.437 Y-0.686 E19.77567
G1 X-5.849 Y0.231 E19.85369
G1 X-3.593 Y-1.071 E19.96450
G1 X-0.962 Y0.448 E20.09378
G1 X1.544 Y-1.288 F7800.000
G1 X4.176 Y0.231 E20.22306 F4800.000
G1 X6.431 Y-1.071 E20.33388
G1 X9.063 Y0.448 E20.46316
G1 X9.063 Y2.822 E20.56416
G1 X4.050 Y2.547 E20.77774
G1 X4.050 Y0.448 E20.86705
G1 X1.419 Y-1.071 E20.99633
G1 X-0.837 Y0.231 E21.10715
G1 X-3.347 Y-1.218 E21.23050
G1 X1.544 Y-1.807 E21.44012
G1 X1.544 Y-1.288 E21.46220
G1 X11.569 Y-1.288 F7800.000
G1 X14.201 Y0.231 E21.59148 F4800.000
G1 X16.456 Y-1.071 E21.70229
G1 X19.088 Y0.448 E21.83157
G1 X19.088 Y3.053 E21.94239
G1 X19.912 Y3.529 E21.98290
G1 X19.342 Y3.489 E22.00723
G1 X18.962 Y3.270 E22.02587
G1 X18.663 Y3.443 E22.04058
G1 X14.230 Y3.142 E22.22964
G1 X14.075 Y3.053 E22.23722
G1 X14.075 Y0.448 E22.34803
G1 X11.444 Y-1.071 E22.47731
G1 X9.188 Y0.231 E22.58813
G1 X6.557 Y-1.288 E22.71741
G1 X6.557 Y-2.366 E22.76329
G1 X11.569 Y-2.888 E22.97770
G1 X11.569 Y-1.288 E23.04576
G1 X21.594 Y-1.288 F7800.000
G1 X24.225 Y0.231 E23.17504 F4800.000
G1 X26.481 Y-1.071 E23.28585
G1 X29.112 Y0.448 E23.41513
G1 X29.112 Y3.053 E23.52595
G1 X31.513 Y4.439 E23.64389
G1 X30.930 Y4.392 E23.66878
G1 X28.987 Y3.270 E23.76424
G1 X27.522 Y4.116 E23.83623
G1 X25.683 Y3.967 E23.91471
G1 X24.100 Y3.053 E23.99249
G1 X24.100 Y0.448 E24.10330
G1 X21.469 Y-1.071 E24.23259
G1 X19.213 Y0.231 E24.34340
G1 X16.581 Y-1.288 E24.47268
G1 X16.581 Y-3.385 E24.56191
G1 X21.594 Y-3.855 E24.77611
G1 X21.594 Y-1.288 E24.88534
G1 X25.100 Y3.920 F7800.000
G1 X23.116 Y3.765 E24.97001 F4800.000
G1 X23.975 Y3.270 E25.01219
G1 X25.100 Y3.920 E25.06749
G1 X32.312 Y4.504 F7800.000
G1 X31.918 Y4.472 E25.08433 F4800.000
G1 X32.240 Y4.286 E25.10015
G1 X32.312 Y4.504 E25.10992
G1 X30.231 Y-1.740 F7800.000
G1 X30.622 Y-0.568 E25.16250 F4800.000
G1 X29.238 Y0.231 E25.23051
G1 X26.606 Y-1.288 E25.35979
G1 X26.606 Y-3.893 E25.47060
G1 X25.984 Y-4.252 E25.50115
G1 X26.418 Y-4.291 E25.51967
G1 X26.732 Y-4.110 E25.53507
G1 X27.161 Y-4.358 E25.55619
G1 X29.295 Y-4.550 E25.64732
G1 X30.231 Y-1.740 E25.77333
G1 F6240
G1 X29.295 Y-4.550 E24.69113
G1 F6240
G1 X27.161 Y-4.358 E23.90852
G1 F6240
G1 X27.078 Y-4.310 E23.87333
G1 E23.77333 F2400.00000
G92 E0
G1 Z0.700 F7800.000
G1 X19.256 Y3.676 F7800.000
G1 E2.00000 F2400.00000
G1 X13.760 Y3.303 E2.23437 F3600.000
G1 X9.792 Y3.059 E2.40350
G1 X4.122 Y2.748 E2.64512
G1 X0.533 Y2.578 E2.79799
G1 X-4.546 Y2.376 E3.01425
G1 X-7.726 Y2.277 E3.14959
G1 X-12.168 Y2.178 E3.33866
G1 X-16.210 Y2.135 E3.51063
G1 X-19.836 Y2.138 E3.66490
G1 X-24.046 Y2.206 E3.84405
G1 X-24.062 Y2.069 E3.84989
G1 X-22.081 Y1.654 E3.93599
G1 X-18.167 Y0.881 E4.10576
G1 X-14.884 Y0.291 E4.24768
G1 X-12.526 Y-0.101 E4.34938
G1 X-10.027 Y-0.488 E4.45695
G1 X-7.386 Y-0.867 E4.57047
G1 X-4.602 Y-1.240 E4.68998
G1 X-0.155 Y-1.792 E4.88062
G1 X4.612 Y-2.339 E5.08481
G1 X9.696 Y-2.886 E5.30233
G1 X18.842 Y-3.794 E5.69338
G1 X29.452 Y-4.751 E6.14664
G1 X31.805 Y2.308 E6.46325
G1 X32.608 Y4.716 E6.57121 F3600.000
G1 X24.300 Y4.044 E6.92581
G1 X19.301 Y3.679 E7.13909
G1 X19.284 Y3.929 F7800.000
G1 X13.744 Y3.553 E7.37534 F3600.000
G1 X9.778 Y3.309 E7.54440
G1 X4.109 Y2.999 E7.78595
G1 X0.522 Y2.828 E7.93873
G1 X-4.555 Y2.626 E8.15491
G1 X-7.732 Y2.527 E8.29016
G1 X-12.172 Y2.429 E8.47912
G1 X-16.211 Y2.385 E8.65096
G1 X-19.834 Y2.389 E8.80510
G1 X-23.031 Y2.430 E8.94112
G1 X-26.812 Y2.531 E9.10204
G1 X-26.829 Y2.394 E9.10793
G1 X-22.131 Y1.408 E9.31213
G1 X-18.213 Y0.635 E9.48205
G1 X-14.926 Y0.044 E9.62413
G1 X-12.565 Y-0.348 E9.72596
G1 X-10.064 Y-0.735 E9.83365
G1 X-7.421 Y-1.115 E9.94728
G1 X-4.634 Y-1.489 E10.06689
G1 X-0.185 Y-2.041 E10.25763
G1 X4.585 Y-2.588 E10.46191
G1 X9.670 Y-3.135 E10.67951
G1 X18.818 Y-4.043 E11.07065
G1 X29.627 Y-5.019 E11.53240
G1 X32.060 Y2.280 E11.85975
G1 X32.965 Y4.996 E11.98153 F3600.000
G1 X24.281 Y4.294 E12.35223
G1 X19.329 Y3.932 E12.56349
G1 X19.312 Y4.175 F7800.000
G1 X13.728 Y3.796 E12.78737 F1800.000
G1 X9.763 Y3.552 E12.94625
G1 X4.096 Y3.241 E13.17327
G1 X0.511 Y3.071 E13.31684
G1 X-4.564 Y2.869 E13.52000
G1 X-7.739 Y2.770 E13.64706
G1 X-12.176 Y2.672 E13.82462
G1 X-16.212 Y2.628 E13.98606
G1 X-19.832 Y2.632 E14.13086
G1 X-23.026 Y2.673 E14.25862
G1 X-26.607 Y2.766 E14.40190
G1 X-29.753 Y2.896 E14.52784
G1 X-29.769 Y2.763 E14.53321
G1 X-22.180 Y1.170 E14.84339
G1 X-18.258 Y0.396 E15.00329
G1 X-14.968 Y-0.195 E15.13701
G1 X-12.604 Y-0.588 E15.23287
G1 X-10.100 Y-0.976 E15.33421
G1 X-7.454 Y-1.356 E15.44114
G1 X-4.665 Y-1.730 E15.55369
G1 X-0.214 Y-2.282 E15.73311
G1 X4.558 Y-2.830 E15.92524
