; generated by Slic3r 1.2.9 on 2016-07-17 at 16:37:12

; external perimeters extrusion width = 0.40mm
; perimeters extrusion width = 0.67mm
; infill extrusion width = 0.67mm
; solid infill extrusion width = 0.67mm
; top infill extrusion width = 0.67mm

M107
M104 S215 ; set temperature
G28 ; home all axes
G1 Y-60 Z5 F5000 ; lift nozzle


M109 S215 ; wait for temperature to be reached
G21 ; set units to millimeters
G90 ; use absolute coordinates
M82 ; use absolute distances for extrusion
G92 E0
G1 E-3.00000 F2400.00000
G92 E0
G1 Z0.300 F6000.000
G1 X-26.782 Y-2.124 F6000.000
G1 E3.00000 F2400.00000
G1 X-25.872 Y-11.012 E3.46678 F1800.000
G1 X-25.218 Y-16.969 E3.77989
G1 X-24.525 Y-22.984 E4.09620
G1 X-23.800 Y-29.009 E4.41326
G1 X-23.042 Y-35.077 E4.73273
G1 X-21.517 Y-46.755 E5.34801
G1 X-20.884 Y-48.514 E5.44568
G1 X-19.580 Y-49.853 E5.54336
G1 X-17.215 Y-50.590 E5.67279
G1 X23.992 Y-51.316 E7.82594
G1 X25.826 Y-50.953 E7.92361
G1 X27.345 Y-49.864 E8.02128
G1 X28.278 Y-48.244 E8.11896
G1 X28.487 Y-47.022 E8.18374
G1 X28.892 Y-31.622 E8.98861
G1 X29.241 Y-15.841 E9.81325
G1 X29.521 Y-0.138 E10.63378
G1 X29.729 Y15.423 E11.44687
G1 X29.837 Y27.736 E12.09020
G1 X29.898 Y42.859 E12.88026
G1 X29.506 Y44.687 E12.97793
G1 X28.393 Y46.189 E13.07561
G1 X26.206 Y47.226 E13.20207
G1 X2.013 Y51.258 E14.48347
G1 X0.560 Y51.258 E14.55938
G1 X-26.200 Y46.798 E15.97672
G1 X-27.937 Y46.107 E16.07440
G1 X-29.234 Y44.760 E16.17207
G1 X-29.889 Y42.266 E16.30680
G1 X-29.715 Y38.130 E16.52306
G1 X-29.437 Y32.515 E16.81678
G1 X-29.110 Y26.853 E17.11310
G1 X-28.735 Y21.144 E17.41198
G1 X-28.316 Y15.407 E17.71254
G1 X-27.849 Y9.609 E18.01644
G1 X-27.337 Y3.769 E18.32269
G1 X-26.787 Y-2.064 E18.62882
G1 F4800
G1 X-26.177 Y-8.033 E15.77882
G1 E15.62882 F2400.00000
G92 E0
G1 X-16.642 Y-45.504 F6000.000
G1 E3.00000 F2400.00000
G1 X1.286 Y-42.516 E3.94956 F1800.000
G1 X23.511 Y-46.220 E5.12672
G1 X23.819 Y-34.654 E5.73121
G1 X24.115 Y-22.038 E6.39051
G1 X24.364 Y-9.611 E7.03988
G1 X24.526 Y-0.058 E7.53902
G1 X24.698 Y12.387 E8.18928
G1 X24.794 Y21.642 E8.67283
G1 X24.860 Y30.816 E9.15213
G1 X24.900 Y42.378 E9.75621
G1 X1.286 Y46.314 E11.00695
G1 X-24.875 Y41.954 E12.39261
G1 X-24.725 Y38.367 E12.58017
G1 X-24.448 Y32.792 E12.87177
G1 X-24.124 Y27.169 E13.16603
G1 X-23.752 Y21.499 E13.46290
G1 X-23.107 Y12.906 E13.91311
G1 X-22.621 Y7.123 E14.21633
G1 X-22.091 Y1.297 E14.52197
G1 X-21.518 Y-4.570 E14.82991
G1 X-20.905 Y-10.475 E15.14006
G1 X-20.253 Y-16.416 E15.45235
G1 X-19.564 Y-22.394 E15.76671
G1 X-18.840 Y-28.406 E16.08308
G1 X-18.085 Y-34.451 E16.40136
G1 X-16.649 Y-45.444 E16.98058
G1 X-16.965 Y-45.940 F6000.000
G1 X1.286 Y-42.898 E17.75512 F1800.000
G1 X23.876 Y-46.663 E18.71379
G1 X24.197 Y-34.663 E19.21630
G1 X24.492 Y-22.046 E19.74461
G1 X24.741 Y-9.618 E20.26495
G1 X24.903 Y-0.064 E20.66492
G1 X25.075 Y12.382 E21.18599
G1 X25.171 Y21.638 E21.57348
G1 X25.237 Y30.814 E21.95756
G1 X25.279 Y42.697 E22.45503
G1 X1.286 Y46.696 E23.47322
G1 X-25.266 Y42.271 E24.60004
G1 X-25.102 Y38.349 E24.76434
G1 X-24.825 Y32.772 E24.99810
G1 X-24.500 Y27.146 E25.23400
G1 X-24.128 Y21.473 E25.47199
G1 X-23.483 Y12.876 E25.83287
G1 X-22.997 Y7.090 E26.07593
G1 X-22.466 Y1.261 E26.32093
G1 X-21.894 Y-4.608 E26.56776
G1 X-21.280 Y-10.515 E26.81636
G1 X-20.628 Y-16.459 E27.06667
G1 X-19.938 Y-22.438 E27.31862
G1 X-19.215 Y-28.452 E27.57218
G1 X-18.459 Y-34.499 E27.82728
G1 X-16.973 Y-45.881 E28.30777
G1 X-16.653 Y-45.690 F6000.000
G1 X-13.828 Y-44.568 F6000.000
G1 X-13.972 Y-44.424 E28.31842 F1800.000
G1 X-12.282 Y-38.116 E28.65957
G1 X-17.669 Y-32.730 E29.05757
G1 X-17.830 Y-32.773 E29.06630
G1 X-16.247 Y-44.971 E29.70893
G1 X-13.828 Y-44.568 E29.83703
G1 X6.608 Y-39.235 F6000.000
G1 X0.300 Y-40.925 E30.17818 F1800.000
G1 X-5.086 Y-35.538 E30.57618
G1 X-3.396 Y-29.231 E30.91732
G1 X-8.783 Y-23.844 E31.31532
G1 X-15.090 Y-25.534 E31.65646
G1 X-19.213 Y-21.411 E31.96108
G1 X-19.097 Y-22.416 E32.01392
G1 X-15.535 Y-25.978 E32.27713
G1 X-17.225 Y-32.285 E32.61827
G1 X-11.838 Y-37.672 E33.01627
G1 X-5.531 Y-35.982 E33.35741
G1 X-0.144 Y-41.369 E33.75541
G1 X-0.401 Y-42.330 E33.80740
G1 X1.286 Y-42.049 E33.89679
G1 X11.049 Y-43.676 E34.41387
G1 X6.608 Y-39.235 E34.74202
G1 X19.190 Y-42.043 F6000.000
G1 X20.880 Y-35.735 E35.08317 F1800.000
G1 X15.493 Y-30.349 E35.48117
G1 X9.186 Y-32.039 E35.82231
G1 X3.799 Y-26.652 E36.22031
G1 X5.489 Y-20.345 E36.56145
G1 X0.103 Y-14.958 E36.95945
G1 X-6.204 Y-16.648 E37.30059
G1 X-11.591 Y-11.261 E37.69859
G1 X-9.901 Y-4.954 E38.03973
G1 X-15.288 Y0.432 E38.43773
G1 X-21.384 Y-1.201 E38.76747
G1 X-21.060 Y-4.524 E38.94188
G1 X-20.340 Y-11.398 E39.30301
G1 X-18.343 Y-13.396 E39.45059
G1 X-12.035 Y-11.706 E39.79173
G1 X-6.649 Y-17.092 E40.18973
G1 X-8.339 Y-23.400 E40.53088
G1 X-2.952 Y-28.786 E40.92888
G1 X3.355 Y-27.096 E41.27002
G1 X8.742 Y-32.483 E41.66802
G1 X7.052 Y-38.790 E42.00916
G1 X12.115 Y-43.854 E42.38327
G1 X13.059 Y-44.011 E42.43324
G1 X18.746 Y-42.487 E42.74084
G1 X21.712 Y-45.453 E42.95999
G1 X22.778 Y-45.631 E43.01647
G1 X19.190 Y-42.043 E43.28157
G1 X23.356 Y-34.747 F6000.000
G1 X23.662 Y-21.655 E43.96573 F1800.000
G1 X18.072 Y-23.153 E44.26807
G1 X12.685 Y-17.766 E44.66607
G1 X14.375 Y-11.459 E45.00721
G1 X8.988 Y-6.072 E45.40521
G1 X2.681 Y-7.762 E45.74635
G1 X-2.705 Y-2.376 E46.14435
G1 X-1.015 Y3.932 E46.48549
G1 X-6.402 Y9.318 E46.88349
G1 X-12.709 Y7.628 E47.22463
G1 X-18.096 Y13.015 E47.62263
G1 X-16.406 Y19.322 E47.96378
G1 X-21.793 Y24.709 E48.36177
G1 X-23.471 Y24.259 E48.45256
G1 X-23.292 Y21.531 E48.59537
G1 X-22.527 Y11.502 E49.12086
G1 X-18.540 Y12.571 E49.33648
G1 X-13.154 Y7.184 E49.73448
G1 X-14.844 Y0.877 E50.07562
G1 X-9.457 Y-4.510 E50.47362
G1 X-3.150 Y-2.820 E50.81476
G1 X2.237 Y-8.207 E51.21276
G1 X0.547 Y-14.514 E51.55390
G1 X5.934 Y-19.901 E51.95190
G1 X12.241 Y-18.211 E52.29305
G1 X17.628 Y-23.597 E52.69104
G1 X15.938 Y-29.904 E53.03219
G1 X21.324 Y-35.291 E53.43019
G1 X23.356 Y-34.747 E53.54008
G1 X23.871 Y-11.181 F6000.000
G1 X21.571 Y-8.881 E53.71004 F1800.000
G1 X23.261 Y-2.573 E54.05118
G1 X17.874 Y2.813 E54.44918
G1 X11.567 Y1.123 E54.79032
G1 X6.180 Y6.510 E55.18832
G1 X7.870 Y12.817 E55.52946
G1 X2.484 Y18.204 E55.92746
G1 X-3.824 Y16.514 E56.26861
G1 X-9.210 Y21.901 E56.66660
G1 X-7.520 Y28.208 E57.00775
G1 X-12.907 Y33.595 E57.40575
G1 X-19.214 Y31.905 E57.74689
G1 X-24.190 Y36.880 E58.11451
G1 X-24.143 Y35.945 E58.16341
G1 X-19.658 Y31.460 E58.49477
G1 X-21.348 Y25.153 E58.83592
G1 X-15.962 Y19.766 E59.23392
G1 X-9.655 Y21.456 E59.57506
G1 X-4.268 Y16.070 E59.97306
G1 X-5.958 Y9.763 E60.31420
G1 X-0.571 Y4.376 E60.71220
G1 X5.736 Y6.066 E61.05334
G1 X11.123 Y0.679 E61.45134
G1 X9.433 Y-5.628 E61.79248
G1 X14.819 Y-11.015 E62.19048
G1 X21.127 Y-9.325 E62.53163
G1 X23.854 Y-12.052 E62.73312
G1 X23.871 Y-11.181 E62.77865
G1 X24.031 Y-2.042 F6000.000
G1 X24.218 Y11.018 E63.46102 F1800.000
G1 X20.453 Y10.009 E63.66466
G1 X15.066 Y15.396 E64.06266
G1 X16.756 Y21.703 E64.40380
G1 X11.369 Y27.090 E64.80180
G1 X5.062 Y25.400 E65.14295
G1 X-0.324 Y30.786 E65.54095
G1 X1.366 Y37.094 E65.88209
G1 X-4.021 Y42.480 E66.28009
G1 X-10.328 Y40.790 E66.62123
G1 X-13.003 Y43.465 E66.81886
G1 X-13.765 Y43.338 E66.85920
G1 X-10.773 Y40.346 E67.08027
G1 X-12.463 Y34.039 E67.42141
G1 X-7.076 Y28.652 E67.81941
G1 X-0.769 Y30.342 E68.16055
G1 X4.618 Y24.955 E68.55855
G1 X2.928 Y18.648 E68.89970
G1 X8.315 Y13.262 E69.29770
G1 X14.622 Y14.952 E69.63884
G1 X20.009 Y9.565 E70.03684
G1 X18.319 Y3.258 E70.37798
G1 X23.705 Y-2.129 E70.77598
G1 X24.031 Y-2.042 E70.79361
G1 X23.508 Y23.837 F6000.000
G1 X24.343 Y23.002 E70.85532 F1800.000
G1 X24.349 Y23.884 E70.90142
G1 X23.952 Y24.282 E70.93077
G1 X24.363 Y25.817 E71.01379
G1 X24.403 Y31.828 E71.32786
G1 X20.255 Y35.976 E71.63431
G1 X13.948 Y34.286 E71.97545
G1 X8.561 Y39.672 E72.37345
G1 X9.834 Y44.422 E72.63036
G1 X1.286 Y45.847 E73.08310
G1 X-2.985 Y45.135 E73.30930
G1 X-3.577 Y42.925 E73.42885
G1 X1.810 Y37.538 E73.82685
G1 X8.117 Y39.228 E74.16799
G1 X13.504 Y33.841 E74.56599
G1 X11.814 Y27.534 E74.90713
G1 X17.200 Y22.147 E75.30513
G1 X23.508 Y23.837 E75.64628
G1 X24.438 Y41.988 F6000.000
G1 X22.288 Y42.346 E75.76019 F1800.000
G1 X20.699 Y36.420 E76.08074
G1 X24.406 Y32.713 E76.35460
G1 X24.438 Y41.988 E76.83915
G1 X-23.411 Y41.730 F6000.000
G1 X-24.398 Y41.566 E76.89141 F1800.000
G1 X-24.270 Y38.525 E77.05041
G1 X-23.411 Y41.730 E77.22376
G1 X-18.787 Y-13.840 F6000.000
G1 X-20.231 Y-12.396 E77.33043 F1800.000
G1 X-19.695 Y-17.229 E77.58447
G1 X-18.787 Y-13.840 E77.76780
G1 F4800
G1 X-19.695 Y-17.229 E76.10101
G1 F4800
G1 X-19.969 Y-14.754 E74.91780
G1 E74.76780 F2400.00000
G92 E0
G1 Z0.500 F6000.000
G1 X-16.510 Y-45.365 F6000.000
G1 E3.00000 F2400.00000
G1 X1.286 Y-42.399 E3.94259 F1200.000
G1 X23.392 Y-46.083 E5.11346
G1 X23.704 Y-34.401 E5.72402
G1 X23.999 Y-21.785 E6.38330
G1 X24.251 Y-9.202 E7.04085
G1 X24.410 Y0.193 E7.53177
G1 X24.582 Y12.638 E8.18201
G1 X24.678 Y21.893 E8.66554
G1 X24.745 Y31.066 E9.14482
G1 X24.784 Y42.280 E9.73071
G1 X1.286 Y46.197 E10.97528
G1 X-24.746 Y41.858 E12.35409
G1 X-24.609 Y38.622 E12.52330
G1 X-24.333 Y33.048 E12.81486
G1 X-24.008 Y27.426 E13.10907
G1 X-23.637 Y21.757 E13.40589
G1 X-22.992 Y13.165 E13.85605
G1 X-22.506 Y7.383 E14.15921
G1 X-21.976 Y1.557 E14.46481
G1 X-21.403 Y-4.308 E14.77272
G1 X-20.790 Y-10.212 E15.08284
G1 X-20.138 Y-16.153 E15.39509
G1 X-19.449 Y-22.130 E15.70941
G1 X-18.726 Y-28.142 E16.02575
G1 X-17.970 Y-34.186 E16.34401
G1 X-16.518 Y-45.305 E16.92985
G1 X-16.933 Y-45.935 F6000.000
G1 X1.286 Y-42.898 E17.47825 F600.000
G1 X23.869 Y-46.662 E18.15802
G1 X24.197 Y-34.413 E18.52184
G1 X24.492 Y-21.796 E18.89656
G1 X24.744 Y-9.211 E19.27030
G1 X24.903 Y0.186 E19.54934
G1 X25.075 Y12.632 E19.91893
G1 X25.171 Y21.888 E20.19377
G1 X25.237 Y31.064 E20.46620
G1 X25.278 Y42.698 E20.81163
G1 X1.286 Y46.696 E21.53381
G1 X-25.257 Y42.272 E22.33277
G1 X-25.102 Y38.599 E22.44192
G1 X-24.825 Y33.022 E22.60773
G1 X-24.500 Y27.396 E22.77505
G1 X-24.128 Y21.723 E22.94386
G1 X-23.483 Y13.126 E23.19982
G1 X-22.997 Y7.340 E23.37223
G1 X-22.466 Y1.511 E23.54600
G1 X-21.894 Y-4.358 E23.72108
G1 X-21.280 Y-10.265 E23.89741
G1 X-20.628 Y-16.209 E24.07495
G1 X-19.938 Y-22.188 E24.25366
G1 X-19.215 Y-28.202 E24.43351
G1 X-18.459 Y-34.249 E24.61445
G1 X-16.940 Y-45.875 E24.96259
G1 X-16.621 Y-45.684 F6000.000
G1 X-14.306 Y-44.456 F6000.000
G1 X-16.052 Y-44.747 E25.05508 F3000.000
G1 X-17.632 Y-32.591 E25.69552
G1 X-15.697 Y-25.371 E26.08601
G1 X-18.907 Y-22.161 E26.32320
G1 X-19.444 Y-17.507 E26.56795
G1 X-18.343 Y-13.396 E26.79033
G1 X-12.035 Y-11.706 E27.13147
G1 X-10.064 Y-4.347 E27.52947
G1 X-14.681 Y0.270 E27.87062
G1 X-12.709 Y7.628 E28.26862
G1 X-6.402 Y9.318 E28.60976
G1 X-4.430 Y16.677 E29.00776
G1 X-9.048 Y21.294 E29.34890
G1 X-7.076 Y28.652 E29.74690
G1 X-0.769 Y30.342 E30.08804
G1 X1.203 Y37.701 E30.48604
G1 X-3.414 Y42.318 E30.82718
G1 X-2.698 Y44.991 E30.97179
G1 X1.286 Y45.655 E31.18281
G1 X9.474 Y44.291 E31.61646
G1 X8.117 Y39.228 E31.89029
G1 X1.810 Y37.538 E32.23144
G1 X-0.162 Y30.180 E32.62944
G1 X4.455 Y25.562 E32.97058
G1 X2.484 Y18.204 E33.36858
G1 X-3.824 Y16.514 E33.70972
G1 X-5.795 Y9.156 E34.10772
G1 X-1.178 Y4.538 E34.44886
G1 X-3.150 Y-2.820 E34.84686
G1 X-9.457 Y-4.510 E35.18800
G1 X-11.429 Y-11.868 E35.58600
G1 X-6.811 Y-16.486 E35.92715
G1 X-8.783 Y-23.844 E36.32515
G1 X-15.090 Y-25.534 E36.66629
G1 X-17.062 Y-32.892 E37.06429
G1 X-12.445 Y-37.509 E37.40543
G1 X-14.306 Y-44.456 E37.78116
G1 X-0.688 Y-42.186 F6000.000
G1 X-13.625 Y-44.343 E38.46637 F3000.000
G1 X-11.838 Y-37.672 E38.82716
G1 X-5.531 Y-35.982 E39.16830
G1 X-3.559 Y-28.624 E39.56630
G1 X-8.176 Y-24.007 E39.90744
G1 X-6.204 Y-16.648 E40.30544
G1 X0.103 Y-14.958 E40.64658
G1 X2.074 Y-7.600 E41.04458
G1 X-2.543 Y-2.983 E41.38573
G1 X-0.571 Y4.376 E41.78373
G1 X5.736 Y6.066 E42.12487
G1 X7.708 Y13.424 E42.52287
G1 X3.091 Y18.041 E42.86401
G1 X5.062 Y25.400 E43.26201
G1 X11.369 Y27.090 E43.60315
G1 X13.341 Y34.448 E44.00115
G1 X8.724 Y39.065 E44.34229
G1 X10.096 Y44.187 E44.61931
G1 X21.927 Y42.215 E45.24594
G1 X20.255 Y35.976 E45.58343
G1 X13.948 Y34.286 E45.92457
G1 X11.976 Y26.927 E46.32257
G1 X16.594 Y22.310 E46.66371
G1 X14.622 Y14.952 E47.06171
G1 X8.315 Y13.262 E47.40285
G1 X6.343 Y5.903 E47.80085
G1 X10.960 Y1.286 E48.14199
G1 X8.988 Y-6.072 E48.53999
G1 X2.681 Y-7.762 E48.88114
G1 X0.710 Y-15.121 E49.27913
G1 X5.327 Y-19.738 E49.62028
G1 X3.355 Y-27.096 E50.01828
G1 X-2.952 Y-28.786 E50.35942
G1 X-4.924 Y-36.145 E50.75742
G1 X-0.307 Y-40.762 E51.09856
G1 X-0.688 Y-42.186 E51.17561
G1 X7.214 Y-39.397 F6000.000
G1 X11.352 Y-43.535 E51.48134 F3000.000
G1 X1.286 Y-41.857 E52.01451
G1 X-0.007 Y-42.073 E52.08302
G1 X0.300 Y-40.925 E52.14513
G1 X6.608 Y-39.235 E52.48628
G1 X8.579 Y-31.876 E52.88427
G1 X3.962 Y-27.259 E53.22542
G1 X5.934 Y-19.901 E53.62342
G1 X12.241 Y-18.211 E53.96456
G1 X14.213 Y-10.852 E54.36256
G1 X9.595 Y-6.235 E54.70370
G1 X11.567 Y1.123 E55.10170
G1 X17.874 Y2.813 E55.44284
G1 X19.846 Y10.172 E55.84084
G1 X15.229 Y14.789 E56.18199
G1 X17.200 Y22.147 E56.57998
G1 X23.508 Y23.837 E56.92113
G1 X24.176 Y26.333 E57.05612
G1 X24.158 Y23.838 E57.18647
G1 X24.115 Y23.675 E57.19531
G1 X24.157 Y23.632 E57.19843
G1 X24.025 Y10.966 E57.86021
G1 X20.453 Y10.009 E58.05342
G1 X18.481 Y2.651 E58.45142
G1 X23.098 Y-1.966 E58.79256
G1 X21.127 Y-9.325 E59.19056
G1 X14.819 Y-11.015 E59.53170
G1 X12.848 Y-18.373 E59.92970
G1 X17.465 Y-22.990 E60.27085
G1 X15.493 Y-30.349 E60.66885
G1 X9.186 Y-32.039 E61.00999
G1 X7.214 Y-39.397 E61.40799
G1 X19.353 Y-42.650 F6000.000
G1 X22.015 Y-45.312 E61.60472 F3000.000
G1 X13.499 Y-43.893 E62.05580
G1 X18.746 Y-42.487 E62.33959
G1 X20.717 Y-35.129 E62.73758
G1 X16.100 Y-30.511 E63.07873
G1 X18.072 Y-23.153 E63.47673
G1 X23.467 Y-21.707 E63.76853
G1 X23.159 Y-34.800 E64.45271
G1 X21.324 Y-35.291 E64.55196
G1 X19.353 Y-42.650 E64.94996
G1 X23.717 Y-9.192 F6000.000
G1 X23.672 Y-11.426 E65.06671 F3000.000
G1 X21.734 Y-9.487 E65.20996
G1 X23.705 Y-2.129 E65.60796
G1 X23.837 Y-2.094 E65.61511
G1 X23.717 Y-9.192 E65.98601
G1 X-15.288 Y0.432 F6000.000
G1 X-21.176 Y-1.145 E66.30446 F3000.000
G1 X-21.974 Y7.429 E66.75437
G1 X-22.321 Y11.558 E66.97082
G1 X-18.540 Y12.571 E67.17531
G1 X-16.569 Y19.929 E67.57331
G1 X-21.186 Y24.546 E67.91445
G1 X-19.214 Y31.905 E68.31245
G1 X-12.907 Y33.595 E68.65359
G1 X-10.935 Y40.953 E69.05159
G1 X-13.220 Y43.238 E69.22039
G1 X-3.379 Y44.878 E69.74163
G1 X-4.021 Y42.480 E69.87131
G1 X-10.328 Y40.790 E70.21245
G1 X-12.300 Y33.432 E70.61045
G1 X-7.683 Y28.815 E70.95159
G1 X-9.655 Y21.456 E71.34959
G1 X-15.962 Y19.766 E71.69073
G1 X-17.933 Y12.408 E72.08873
G1 X-13.316 Y7.791 E72.42987
G1 X-15.288 Y0.432 E72.82787
G1 X-18.950 Y-13.233 F6000.000
G1 X-19.639 Y-15.806 E72.96702 F3000.000
G1 X-20.041 Y-12.141 E73.15961
G1 X-18.950 Y-13.233 E73.24026
G1 X-21.793 Y24.709 F6000.000
G1 X-23.269 Y24.313 E73.32012 F3000.000
G1 X-23.475 Y27.459 E73.48482
G1 X-23.800 Y33.077 E73.77882
G1 X-23.955 Y36.201 E73.94222
G1 X-19.821 Y32.067 E74.24762
G1 X-21.793 Y24.709 E74.64562
G1 X-23.125 Y41.587 F6000.000
G1 X-24.050 Y38.132 E74.83249 F3000.000
G1 X-24.142 Y40.217 E74.94152
G1 X-23.805 Y41.473 E75.00948
G1 X-23.125 Y41.587 E75.04554
G1 X24.248 Y41.828 F6000.000
G1 X24.215 Y32.460 E75.53501 F3000.000
G1 X20.862 Y35.813 E75.78278
G1 X22.550 Y42.111 E76.12345
G1 X24.248 Y41.828 E76.21342
M106 S94.35
G1 F4800
G1 X22.550 Y42.111 E75.39546
G1 F4800
G1 X21.443 Y37.979 E73.36341
G1 E73.21342 F2400.00000
G92 E0
G1 Z0.700 F6000.000
G1 X-16.484 Y-45.360 F6000.000
G1 E3.00000 F2400.00000
G1 X1.286 Y-42.399 E3.94122 F1200.000
G1 X23.386 Y-46.082 E5.11175
G1 X23.704 Y-34.201 E5.73271
G1 X23.999 Y-21.585 E6.39199
G1 X24.251 Y-9.002 E7.04954
G1 X24.410 Y0.393 E7.54045
G1 X24.582 Y12.838 E8.19069
G1 X24.678 Y22.093 E8.67423
G1 X24.745 Y31.266 E9.15350
G1 X24.784 Y42.280 E9.72895
G1 X1.286 Y46.197 E10.97351
G1 X-24.738 Y41.859 E12.35189
G1 X-24.609 Y38.822 E12.51071
G1 X-24.333 Y33.248 E12.80228
G1 X-24.008 Y27.626 E13.09649
G1 X-23.637 Y21.957 E13.39330
